/* XPM */
static char * selector_xpm[] = {
"40 40 4 1",
" 	c None",
".	c #000000",
"+	c #4F86ED",
"@	c #335CCF",
"                                        ",
"                                        ",
"                                        ",
"                                        ",
"                                        ",
"                                        ",
"                                        ",
"                                        ",
"                                        ",
"                                        ",
"                                        ",
"                                        ",
"                                        ",
"                                        ",
"                                        ",
"                   ...                  ",
"                   .++.                 ",
"              ......+++.                ",
"              .+++++++++.               ",
"              .+++++++++@.              ",
"              .@@@@@+++@.               ",
"              ......++@.                ",
"                   .@@.                 ",
"                   ...                  ",
"                                        ",
"                                        ",
"                                        ",
"                                        ",
"                                        ",
"                                        ",
"                                        ",
"                                        ",
"                                        ",
"                                        ",
"                                        ",
"                                        ",
"                                        ",
"                                        ",
"                                        ",
"                                        "};
