/* XPM */
static char * coal_ore_xpm[] = {
"16 16 10 1",
" 	c #7F7F7F",
".	c #8F8F8F",
"+	c #747474",
"@	c #686868",
"#	c #5C5C5C",
"$	c #494B3F",
"%	c #393C36",
"&	c #363636",
"*	c #2E2E2E",
"=	c #252525",
".... ++ +@++    ",
"  + + ###  @@# +",
" +@@+#=%&#+ *&  ",
" #++ *%&$*=  +++",
"+=&+++#*==#+++  ",
" .. + ...++##@+.",
"+. +#+++ +%*%#  ",
"+#+#=%*#  #%$ ..",
".+ =%$&* + +++ +",
" .+#*&#++..  ## ",
"@ .+## + +++#=%@",
"  ##+#  + ##++++",
" #=$&==..#$%=+@@",
".+#%=#+++#&=#++ ",
" +++  &*  #   ..",
"  +++ .+ ..  +  "};
