/* XPM */
static char * diamond_ore_xpm[] = {
"16 16 10 1",
" 	c #7F7F7F",
".	c #8F8F8F",
"+	c #8DADB1",
"@	c #239698",
"#	c #1ED0D6",
"$	c #A2A2A2",
"%	c #D5FFF6",
"&	c #77E7D1",
"*	c #676767",
"=	c #747474",
".  . == =*== ...",
"  = *....  =**= ",
" =**#. **==*&@  ",
"... +.*&@+. +.==",
"=   =**.+ = .=  ",
" . =*%&* =%&=*=.",
"==.%&##@+ #@    ",
".**.+$++**.+ .$$",
"*&#+. =*%&=   .=",
" ++ * =&#@@+.$$ ",
"* = #=*.++.**===",
"     ....=*&@.. ",
" =.** .=&%&##@.=",
"..+&@*= $@#++.  ",
" ==+...  .+ === ",
"      =.      .."};
