/* XPM */
static char *d021f235945c48719ba4e0a26841930aHayvkUvzQJNpMPrO[] = {
/* columns rows colors chars-per-pixel */
"16 16 10 1 ",
"  c #427367",
". c #2F584E",
"X c #99C693",
"o c #C0C287",
"O c #EDF2B9",
"+ c #E4E6AC",
"@ c #061914",
"# c #03120E",
"$ c #B5AF79",
"% c #24433B",
/* pixels */
"                ",
" X%%%X$%.oX%%%X ",
" % o$ .o+  $o . ",
" %$O+$  ..$+O$. ",
" %$+ ..%.%%.+$. ",
" %oO%###### Oo. ",
" XoO.#@@@@@.OoX ",
" .oO.#@@@@@ Oo. ",
" %oO%#@@@@@ Oo. ",
" XoO.#@@@@@ OoX ",
" .oO%#@@@@@ Oo. ",
" %$+. .    .+$. ",
" %$O+$ ...$+O$. ",
" % o$ .+o  $o . ",
" X...Xo..$X...X ",
"                "
};
