/* XPM */
static char *af0c112167d245edd8f1545553f22773IBwAqWBBHuxxq2Dw[] = {
/* columns rows colors chars-per-pixel */
"256 256 256 2 ",
"   c #1C1C1B",
".  c #191916",
"X  c #130F0A",
"o  c #231D1B",
"O  c #281C1B",
"+  c #33100E",
"@  c #1E211C",
"#  c #23211E",
"$  c #2B211E",
"%  c #34241C",
"&  c #1B1E21",
"*  c #271F21",
"=  c #1D2224",
"-  c #1E2629",
";  c #1E2339",
":  c #242423",
">  c #2B2423",
",  c #2C2A26",
"<  c #242A2C",
"1  c #2C2C2B",
"2  c #252628",
"3  c #332A26",
"4  c #332D2B",
"5  c #3A2D2B",
"6  c #342725",
"7  c #2D302C",
"8  c #34322E",
"9  c #3B322E",
"0  c #3B3126",
"q  c #2A2E31",
"w  c #262D31",
"e  c #2D3235",
"r  c #2E3538",
"t  c #343433",
"y  c #3A3533",
"u  c #3C3935",
"i  c #32363A",
"p  c #353A3D",
"a  c #3B3C3C",
"s  c #373836",
"d  c #342E31",
"f  c #462C28",
"g  c #45342C",
"h  c #433533",
"j  c #433A35",
"k  c #4B3B35",
"l  c #423D3B",
"z  c #4A3B38",
"x  c #583C36",
"c  c #562E2B",
"v  c #673937",
"b  c #6E3738",
"n  c #48201C",
"m  c #3C413E",
"M  c #44413D",
"N  c #4A433D",
"B  c #4B4336",
"V  c #53433C",
"C  c #5A443A",
"Z  c #54482C",
"A  c #64443B",
"S  c #69453D",
"D  c #6F483D",
"F  c #61542E",
"G  c #363C40",
"H  c #3A3E41",
"J  c #2A3251",
"K  c #203266",
"L  c #433F41",
"P  c #733E42",
"I  c #3D4142",
"U  c #3C4645",
"Y  c #3C455B",
"T  c #36476F",
"R  c #444443",
"E  c #4A4543",
"W  c #4C4A45",
"Q  c #464A4A",
"!  c #4C4C4B",
"~  c #464747",
"^  c #534B45",
"/  c #524D4A",
"(  c #5A4A44",
")  c #4E514C",
"_  c #46524C",
"`  c #54524D",
"'  c #5A534D",
"]  c #5B5349",
"[  c #4D4D51",
"{  c #4D5352",
"}  c #555452",
"|  c #5A5653",
" . c #565954",
".. c #5C5A55",
"X. c #5D5C5A",
"o. c #575959",
"O. c #524F50",
"+. c #6C4C43",
"@. c #654A45",
"#. c #754A45",
"$. c #67544B",
"%. c #75544B",
"&. c #7A544C",
"*. c #7C5A4D",
"=. c #735448",
"-. c #625B55",
";. c #625D5B",
":. c #695A54",
">. c #7C5C53",
",. c #765A54",
"<. c #5D615C",
"1. c #496154",
"2. c #64625D",
"3. c #6A635D",
"4. c #696358",
"5. c #78655A",
"6. c #786B52",
"7. c #5C6464",
"8. c #656462",
"9. c #6A6563",
"0. c #6C6965",
"q. c #6D6C6A",
"w. c #676866",
"e. c #736B65",
"r. c #726D6B",
"t. c #796B65",
"y. c #74716D",
"u. c #7A736D",
"i. c #797266",
"p. c #757472",
"a. c #7B7572",
"s. c #7C7A75",
"d. c #7D7C7A",
"f. c #787877",
"g. c #6F706F",
"h. c #5C5C65",
"j. c #825A4E",
"k. c #835D53",
"l. c #885A55",
"z. c #8F5252",
"x. c #846255",
"c. c #85645A",
"v. c #8B655B",
"b. c #8C6A5D",
"n. c #886658",
"m. c #93655C",
"M. c #936B5E",
"N. c #98685D",
"B. c #95705D",
"V. c #8C6C62",
"C. c #856B63",
"Z. c #936C62",
"A. c #9B6C62",
"S. c #986964",
"D. c #897468",
"F. c #947264",
"G. c #9B7264",
"H. c #93756A",
"J. c #9C746B",
"K. c #947A6C",
"L. c #9C7B6B",
"P. c #827B75",
"I. c #837D7A",
"U. c #887A75",
"Y. c #987C72",
"T. c #A46A65",
"R. c #A27366",
"E. c #A4756A",
"W. c #AB756C",
"Q. c #A47B6C",
"!. c #AA7B6E",
"~. c #A47866",
"^. c #A47C73",
"/. c #AC7C72",
"(. c #A97974",
"). c #B37D74",
"_. c #B77B76",
"`. c #B3706F",
"'. c #A25F5F",
"]. c #863E3B",
"[. c #7D817B",
"{. c #84817D",
"}. c #8B827D",
"|. c #8A8278",
" X c #998478",
".X c #97836E",
"XX c #A8826E",
"oX c #A38374",
"OX c #AB8374",
"+X c #AB877A",
"@X c #B38375",
"#X c #B4847A",
"$X c #BB847B",
"%X c #B8897C",
"&X c #AE8E75",
"*X c #AFA17E",
"=X c #C18A7E",
"-X c #64708F",
";X c #3B4C82",
":X c #857E81",
">X c #788695",
",X c #858482",
"<X c #8B8582",
"1X c #8C8A85",
"2X c #8C8B89",
"3X c #938D8A",
"4X c #958B86",
"5X c #94918D",
"6X c #9A928D",
"7X c #9B9592",
"8X c #9A9895",
"9X c #8F8F8F",
"0X c #B88B82",
"qX c #A39D9A",
"wX c #A49A96",
"eX c #AE9588",
"rX c #A7A29D",
"tX c #B5A598",
"yX c #ABA5A2",
"uX c #AAA8A6",
"iX c #B4ABA8",
"pX c #B8B2AD",
"aX c #BAB7B5",
"sX c #ACB1B3",
"dX c #9B9FA3",
"fX c #C48D82",
"gX c #C79388",
"hX c #CF9A92",
"jX c #C4BBB8",
"kX c #C9B5AA",
"lX c #CCAC98",
"zX c #C8C2BD",
"xX c #D5C8B9",
"cX c #E8D3BB",
"vX c #A6B4CC",
"bX c #B5CAE0",
"nX c #CAC8C6",
"mX c #D4CBC8",
"MX c #CBD2CD",
"NX c #CAD4CD",
"BX c #D5D2CE",
"VX c #CED4D0",
"CX c #CFD9D1",
"ZX c #D3D5D2",
"AX c #D9D9D6",
"SX c #D3CED1",
"DX c #E4DCD9",
"FX c #E8D3C9",
"GX c #F1EAD6",
"HX c #E9E7E6",
"JX c #F3ECEA",
"KX c #FEFEFE",
"LX c #F7F6F5",
"PX c #F5F2EC",
"IX c #D0D9E8",
"UX c #BCC2BB",
/* pixels */
"! 5Xf.L f.5XE 8.7XN 2.aX/ ' JX/ ! DX..| iX0.| P.I.9.e.jXu.9.HXI.KXDXKXJXaXpXJXPXKXKXKXKXKXKXKXKXKXKXKXKXKXKXKXKXKXKXKXKXKXKXKXKXKXKXKXKXKXKXKXKXKXKXKXKXKXKXKXjXmXwX6XjX6XwXiXpXzXpXzX}.<X4X9.( z yXW ;.pXr.<Xs.{...W zXu l -...0.0.7X0.| qXl 4 / 9.;.0.aXl 8 ..-.9.r.rXe.r.iX..w.| / / R yX8 > 3X> | ;.PX3X;.5X3.s.> 4 # 0.w.o : : R u a t a <.X...m t I ! w.} 2Xa ~ a.X...X.d.yXLXKXKXLXLXLXLXMXMXsXdX9XaX8Xd.y.2XqXqXI.;.a.p.9.9.r.:Xa.2.| 9.8.E ! } ! } [ ! } u a } R t ! a t R t R t t a a q ~ t s y } ! y u l h l l I.7X' ",
"O.2X,X/ r.8X! } yX' ;.zXX.' HX;.;.ZXr.0.qXa.e.r.6Xr.P.jXI.4XDXqXJXHXKXJXiXjXKXJXKXKXKXKXKXKXKXKXKXKXKXKXKXKXKXKXKXKXKXKXKXKXKXKXKXKXKXKXKXKXKXKXKXKXKXKXKXLXJXnXmXwXwXjXrXwXpXiXpXyXpXt.P.6X;.;.r.6Xr.f.aX0.0.a.q.W ' pX| ..7X/ 2...1X../ jXM E ;.....E iXl 8 I.;.0.r.}.e.0.jX..;.r.u l 8 a.4 t 8Xy E d.JX<X2.y.0.2.# > 4 r.q.# : : R M a s a )  .! R ~ 8.~ <.o.f.o.0.3Xr.8.8X2XnXLXKXLXLXKXKXLXKXKXKXPXPXAXaX7X8X8XiX8X1XI.5X:Xr.9.p.r.y.q.8.q.X.} ;.o.L X.~ Q } L u O.t L R t a t d R t t a p t a 4 M t l l s y h R R y 8 | 2.",
"| I.3X} ;.yX..O.iX/ ' BX..| JX0.9.nX0.r.qXP.e.P.wXu.P.mXI.<XDX7XBXDXKXJXpXjXJXJXKXKXKXKXKXKXKXKXKXKXKXKXKXKXKXKXKXKXKXKXKXKXKXKXKXKXKXKXKXKXKXKXKXKXKXKXLXKXKXjXmXjXrXjXkXiXiXyXwX6XiXu.e.yX9.e.i.I.p.y.aXr.8.3X| | ' 7X/ ;.yX| 2.2.r./ W jXR / p./ 2./ 8Xy y pX' 9.U.e.e.;.aX....8X8 u ' / t s <Xu l qXHX{.P.3.9.M , > u 2.2.>   8 M a s s R o.} R M ! 0.W <.<.p.} a.{.r.y.uXuXLXKXKXKXKXKXKXLXKXKXPXKXLXLXKXKXLXDXAXaXqX8XpX5X<X8Xa.I.I.p.w.p.8.| q.} } <.H [ h.a R ! a R a t ! t u ~ 1 t s 1 R t 1 s l u s u E E 4 E 3 u u {.",
"/ 9.qX..| aX..R zX| / DX/ ' JX;.;.jXw.;.8XI.9.P.6Xa.u.mX}.I.DX6XDXJXLXPXaXjXHXLXKXKXKXKXKXKXKXKXKXKXKXKXKXKXKXKXKXKXKXKXKXKXKXKXKXKXKXKXKXKXKXKXKXKXKXKXKXKXDXjXzXrXwXjXpXjXjXiXmXwXwXP.-.yX| ;.P.u.I.r.pXd.9.iX' ' } <X! | nX0.0.y.;.M l yXu ;.qX| ;.;.0., 8 pX' e.6X3.e.3.7X;.;.yXy W a.4 t t 9.l E aXnXa.6X-.0., , > ' 2.W : 1 s a R u R ! ! W W W ! !  .q.p...o.q.d.d.s.8XaXKXKXKXKXKXKXKXKXKXKXLXLXKXZXKXLXLXKXKXJXKXKXMXnXuXuX8XuX8Xp.d.s.0.X.a.o.| o.O.o.E i } a u } R t } t R a , R s t R t s t X.E y 1 ^ 3 u l u R 8 y ",
"| ;.pX' / aX..! nX;./ DX' ' DX;.;.aXr.0.3XP.e.a.6Xa.P.jX}.<XDXrXDXJXKXKXaXmXKXKXKXKXKXKXKXKXKXKXKXKXKXKXKXKXKXKXKXKXKXKXKXKXKXKXKXKXKXKXKXKXKXKXKXKXKXKXKXLXBXpXjXrXiXjXmXxXmXxXiXpXpXr.' yX' -.7X;.<Xf.iXI.9.mXE 8 / y./ I.pXa.a.5XE y M <XR | yX/ ..w.l 4 y iX;.e.iX4.r.s.u.;.| iXl W rX4 1 ;.u u l BXiXr.qX0.y.o > > w.w.t > ,  .M t d a ~ 0.! W l M ! p.p.,X! X.,Xs.d.5X8XAXLXLXKXKXKXKXKXKXKXLXKXKXKXKXLXKXAXLXKXLXKXLXLXKXKXAXLXHXuX,XdX,Xf.q.9.a.f.| E y.W t } E a ! 7 R ~ 1 W t 1 ! t u ~ 2 L u | E s 9 l 9 l y u } 4 M ",
"/ ' zX| O.SX| ! AX| ' JX;.;.HXu.w.pXs.a.4XP.e.P.qXI.<XjX4X3XmXrXmXPXKXPXaXnXJXKXKXKXKXKXKXKXKXKXKXKXKXKXKXKXKXKXKXKXKXKXKXKXKXKXKXKXKXKXKXKXKXKXKXKXKXKXLXKXHXnXzXrXjXjXpXiXzXyXyX6X3X9.e.pXr.u.pXw.,Xq.8X8.X.nX..;.p.;.w.2.7X../ iXE l | ;.;.2.aX| ..{.u 8 y 3X2.0.zX4.e.6X3.;.' P.u y iX4 u I.t l l JXqX3.4X2.y.> > > q.w., 1 : W u s L O.! [ R W ~ R ! 8.8.5X .8.2Xa.a.5XiXJXKXKXKXLXKXKXKXKXKXKXKXKXKXKXKXLXKXKXKXHXKXKXJXKXLXKXLXLXLXLXHXnXyX8X:XI.d.....r.O.E X.~ ~ R t W s t ! t t ! d a u d E s 1 E / L u 4 ! s R l 1 E ",
"../ nX/ l AXo.} HX/ ' HX3.3.DXp.9.pXI.r.<X3Xr.a.rXP.I.pX4X4XjXwXzXPXDXmXpXpXmXJXKXKXKXKXKXKXKXKXKXKXKXKXKXKXKXKXKXKXKXKXKXKXKXKXKXKXKXKXKXKXKXKXKXKXKXKXKXKXDXDXjXjXjXjXjXpXjXqX4X<XI.r.u.pXI.P.pXy.d.r.{.;.;.nX' | 7X....;.<X;...jX' E w...| ' pX/ l 8Xu u | r.;.2.zXe.r.yXr.3.e.-.j 3 8Xd l 8X4 l ;.PX3Xe.P.0.r., # , 0.y.: : : ` u t L [ ~ ! W ~ R W / X.X.d.8.X.8Xd.d.uXaXKXKXKXKXKXKXKXKXKXLXKXKXKXKXKXKXKXKXKXKXKXKXKXKXKXLXKXKXPXKXKXKXLXKXnXZXaX2Xy.f.X.} } } ! ..t u } t t ~ a l R u E t q H o.L d z | 4 u l > } t 1 / ",
"0.X.AX| L HXo.O.HX;...DXu.r.BXI.r.yXP.r.<XwXu.s.pX4XI.rX6X4XwXwXiXmXpXiXiXkXjXmXLXLXKXKXKXKXKXKXKXKXKXKXKXKXKXKXKXKXKXKXKXKXKXKXKXKXKXKXKXKXKXKXKXKXKXKXLXKXAXmXjXjXjXjXmXjXAXqX4X6Xe.;.9.iXu.I.nXu.2X1Xw.;.W pX' | pX/ r.a.r.2...jXl E a.| 2...{.| E jX4 4 r.^ 9.;.iXr.e.jX}.e.<XE h j ;.> a 7Xy E 5XJXU.r.0.3.| , 4 y 2.r.: , : W u t t ! } ..Q R m X.! w.q.w.} y.1X{.:XiXSXKXKXKXKXKXKXLXKXLXKXKXKXKXKXKXKXKXKXKXKXKXKXKXLXKXKXKXKXKXKXKXAXKXLXAXKXKXJXKXnXd.| a.| X.X.a M ! a R R E L t a ! d R L 8.} 4 u / > l s 1 / t u l ",
"0...HX;.} ZX} 8.HX8.r.DXp.r.nXa.p.yX}.I.<XrXa.u.pX4X4X7XwX7X6X7XwXyXyXiXtXkXkXzXDXJXKXKXKXKXKXKXKXKXKXKXKXKXKXKXKXKXKXKXKXKXKXKXKXKXKXKXKXKXKXKXKXKXKXKXKXKXAXFXjXxXmXxXjXkXzXwXP.7X9.' -.6X1X8XnX3X1XqX2.| ^ 5Xl ..nXw.s.s.w.0...pXM M rX/ 0.r.8./ u mX4 l <XE 9.3.{.e.2.jX<X;.pXE 8 W M 8 4 r.E R pXBXu.}.2.2.y 4 : / 0.| , > s L a d a W  .o.m m M <.2.q.w.} ..s.s.2X,XpXJXKXLXKXKXKXKXKXKXKXKXKXKXKXKXKXKXKXKXKXKXKXKXKXKXKXKXKXKXKXKXKXKXKXKXnXAXSXJXKXnXKXKXX.8.8.| a 8.X.a 2.! ~ } 4 ` ! 1 W t / W 9.M l t W > 4 E s O.u ",
"..| HXX.o.HXX...DXw.2.DXr.3.jXs.r.qX7XP.4XiXP.P.iXU.}.7X4X4X4X6XwXwXrXrXrXiXiXkXBXAXJXKXKXKXKXKXKXKXKXKXKXKXKXKXKXKXKXKXKXKXKXKXKXKXKXKXKXKXKXKXKXKXKXKXKXKXDXDXkXkXkXjXjXyXmX3X<XyXu.t.U.}.<X7XjXr.u.rX..2.r.s...;.jX-.r.1X..;.;.I.' / aX..;.s.l ^ E rXl M pX| ;.}.0.e.3.7X4X9.pX| u {.u 8 R | L M BXzXr.rXw.r.> 1 > 8.2.u 1 4 a L a a E O.O.Q R ! ! } ` X.[.} X.2Xf.p.yXaXLXKXKXKXLXKXKXKXKXKXKXKXKXKXKXKXKXKXKXKXKXKXKXKXKXKXKXKXKXKXKXKXLXKXLXLXKXDXLXHX2XaX9X..w.;.' R q.} E ! L | ! 8 ..M d / R ! a W / 8 1 | 4 l l : X.> ",
"| X.HX;.;.HX8...AXq.2.mX0.w.iX{.r.3X7Xs.<XiXI.P.iXI.}.4X4X}.<XrX7X4XwXwXrXiXpXzXBXmXDXKXKXKXKXKXKXKXKXKXKXKXKXKXKXKXKXKXKXKXKXKXKXKXKXKXKXKXKXKXKXKXKXKXKXKXHXDXxXjXkXiXiXwXnXqX4XpXa.r.I.y.{.2XiXP.s.jXw.w.P.y.' w.aX9.;.rX;.;.w.0.E / aX/ 2.<XM R W a.u M jX| 2.pX3.e.e.P.wX-.yXw.l pX8 u X.E R R HXpX0.iX9.I.> 4 > r.;.> 1 , ! R a a R ! ! R ~ M ! } ..} 2Xo.X.9Xp.d.uXnXKXLXKXKXKXLXKXKXKXKXKXKXKXKXKXKXKXKXKXKXKXKXKXKXKXKXKXKXKXKXKXKXKXKXAXKXKXDXKXKXnXKXd.! a M ! ` W E } a s w.u R X.W l ` 2.! u M ' > ! s 4 / * 4 o.: ",
"9.9.DXr.q.AXr.q.BXa.y.pXa.I.yX3XI.7X7X{.3XpX4X<XiX7X6X4X4X}.P.wX6X6XwXwXwXkXkXmXmXmXAXLXLXKXKXKXKXKXKXKXKXKXKXKXKXKXKXKXKXKXKXKXKXKXKXKXKXKXKXKXKXKXKXKXKXKXHXDXDXxXmXpXpXjXiX4Xr.jXu.;.5XI.5X8X5X3Xs.mX;./ 0.w./ r.qXI.y.nX;.E r.| M E rX9.r.yXN M ;./ l / rXe.3.zX3.e.}.e.rX-.4X0.4 pXt a a.R W  .PX8Xw.wX0.I.3 1 > r.9.> 4 > o.R u t L ! ! R a s }  .8. .,X .p.3Xd.,XuXnXKXKXKXLXKXKXKXKXLXKXKXKXKXKXKXKXKXKXKXKXKXKXKXKXKXKXKXKXKXKXKXKXKXKXHXKXKXHXKXPXLXHX3Xd.a.8.8 M 8 u s u ! ! L R W / / u w.} u W l 4 0.u t } 1 W t 2 ",
"0.8.BXy.r.nXq.p.nXs.s.iX{.{.8X7X{.3XqXI.<XaX<X}.iX7X6X}.4X}.u.7X4X4XwXwXwXpXiXpXxXxXAXKXKXKXLXKXKXKXKXKXKXKXKXKXKXKXKXKXKXKXKXKXKXKXKXKXKXKXKXKXKXKXKXKXKXKXJXDXxXmXxXxXiXwXyXa.r.jX3.<XyXI.qXqX1X1Xy.nX| W }...9.y.{.I.s.nX..E s./ E ' 1X0.r.jXl 4 1Xy u / 3X3.3.jX3.e.pX;.wXr.p.s.4 3Xu a 8XR M u.LX1Xw.P.0.9.3 > u 9.q., 1 1 } a t 4 R O.O.H ! R ! } 8.8.p. .;.2X,Xd.sXKXKXPXLXKXAXKXKXKXKXKXKXKXKXKXKXKXKXKXKXKXKXKXKXKXKXKXKXKXKXKXKXKXKXKXPXKXKXKXKXnXKX7Xa.I.q.| ' {.w.a 8., 1 1 l a l u W E 2.` 8 } R t } s E l s 8.: ~ ",
"8...nX8.8.jX8.0.pXp.r.iXI.0.,X7Xp.I.iXa.I.jX}.I.iX<XI.P.U.a.P.6X4X}.wXwXwXyXyXiXmXxXBXKXKXKXKXKXKXKXKXKXKXKXKXKXKXKXKXKXKXKXKXKXKXKXKXKXKXKXKXKXKXKXKXKXKXKXJXDXmXzXjXjXiXyXrX4XU.pXI.}.qX{.1X3X<X<Xa.pXw.;.pX..;.y.s.0.0.pX2.;.8XW W 2.0.' ;.pXW E iX9 E 2.r.3.` rX' -.nX;.rXwX9.{.l w.u a uXl R 7XJX{.s.;.;.E 4 3 / 8.8.4 > t R a u s E ! O.R E E  .X.X.0.X.8.r.d.:X8XaXKXLXKXLXLXAXKXKXKXKXKXKXKXKXKXKXKXKXKXKXKXKXKXKXKXKXKXKXKXKXKXKXKXLXHXLXKXHXLXKXaXKX,X9.a.I.' ..q.w.X.} | s.R 1 E 8 t , p.M 8 a / l W M y 9.t l / : X.",
"0.;.aX8.9.pXq.w.8Xa.0.8X{.8.p.8X0.a.iXr.a.jXI.s.pX<X}.U.}.u.u.s.4X}.6XwXwXyXpXkXFXmXDXLXKXKXKXKXKXKXKXKXKXKXKXKXKXKXKXKXKXKXKXKXKXKXKXKXKXKXKXKXKXKXKXKXKXLXJXDXzXjXjXyXrXrX4X<XP.iXu.P.nX9.3XiXy.a.r.7X2...nX..;.s.r.0.r.yX;.' aXM ..a.' ..' qXE l pXE W <X;.2.M u.j j aX3.iXjX;.P.| M t M ,Xu E zXAXs.wX;.9.y 4 3 -.8./ d , a u a u R ~ ! E E ~ W ! } X.2XX.| 8Xd.,XuXDXKXLXAXAXnXZXKXKXKXLXKXKXKXKXKXKXKXKXKXKXKXKXKXKXKXKXKXKXKXKXKXKXKXHXaXKXKXAXKXLXAXSX5X3.0.<X;...;.p.a.} o.d.R ..8.X.o.8 2.8 u a 8 E W 8 W | y 9.u u 8.",
"r.0.uXr.r.qXp.p.2X,Xa.I.3Xp.r.rXI.2XiXI.I.mX3X1XiX3XI.a.<XP.a.u.4X4X6XwX6XiXpXkXmXFXJXKXKXKXKXKXKXKXKXKXKXKXKXKXKXKXKXKXKXKXKXKXKXKXKXKXKXKXKXKXKXKXKXKXKXKXJXDXBXxXAXrX6XwXI.u.;.wX}.6XpX6XrXpXr.0.w.<X/ / mX;.s.5X2.s.y.1XM l zX| ;.qX..w.;.a.4 y nX' | iX| 0.3...y 9 rX;.yXnX9.s.y.u u ! | R M HXaXr.pX0.I., 4 > ;.9.a 1 d / t s 1 R W o.R R a E } w.X.,Xo.y.8X2X2XsXLXKXKXKXKXLXKXKXAXKXKXLXKXKXKXKXKXKXKXKXLXKXKXLXKXKXKXKXKXKXKXKXKXKXLXZXKXKXHXKXDXLX1Xs.r.3X0.^ r.| X.q.` d.X.! 1X! ` y./ s.o.u R 4 8 > / R E 4 ;.y R / ",
"r.9.3Xr.r.<X,Xw.I.2Xq.a.8Xp.r.yXp.,XaXI.a.BX{.<XiXI.<XP.<Xa.P.s.u.wX7XwXwXiXiXaXmXJXKXKXKXKXKXKXKXKXKXKXKXKXKXKXKXKXKXKXKXKXKXKXKXKXKXKXKXKXKXKXKXKXKXKXKXKXJXDXmXmXjXtX4XwX}.a.p.4X}.4XiX4XqXjXI.y.9.0./ ' nX2.a.yXr.s.p.a.E y jXE ;.iX| 0.a...u M wXN W pX0.| s.l > N I.;.iXaXw.s.qX8 s X.s R R JXiXw.iXr.a.4 4 > r.9.> 4 1 } u t 1 a ! } ~ a s ! X.p.o.I.} y.dX3X5XaXLXKXLXKXKXLXKXKXLXKXLXZXHXAXaXLXLXHXKXKXKXKXKXKXKXKXLXKXKXLXLXLXKXKXLXLXKXHXKXKXUXHX{.;.;.I.;.E U.2.| w.! p.! M s.W X...,Xo.W ` {.W ..M o 4 8 l > y ! > ",
"p.;.,Xd.;.I.<X8.0.5X;.;.qX0.9.iX0.p.aXa.r.mXy.a.iXa.U.}.U.p.a.P.}.4XDXDXwXiXnXBXPXKXKXKXKXKXKXKXKXKXKXKXKXKXKXKXKXKXKXKXKXKXKXKXKXKXKXKXKXKXKXKXKXKXKXKXKXKXHXmXmXjXxXkXtXjX<X4XU.4XU.P.yXU.4XnXs.a.{.w.-...jX2.r.pXw.0.a./ ' ' wXW | pX| 0.qXl M W a.M W pX0.E iXl , ..r.| rXwX;.{.iXu a d.u R 2.JX7Xw.3Xr.r.8 8 4 e.r.1 t 1 l t t d a E ! ~ R a } ! q.8.y.;.q.3X7XyXAXKXKXLXKXLXLXLXLXJXLXKXLXKXLXHXHXAXuXZXHXUXLXKXLXKXKXLXKXKXKXKXKXPXKXHXKXKXaXKXKXaX2X{.;...,Xq.} 0...9...! p.| ! 8.` .. .yX0.` ` ..| a.M / ;.4 W t > . l ",
"s.X.q.,X| 9.5XX.X.8X2.} yX9.;.pX0.q.nXy.r.mX0.y.iXu.s.wXr.r.qXr.P.4XmXKXqXrXJXLXKXKXKXKXKXKXKXKXKXKXKXKXKXKXKXKXKXKXKXKXKXKXKXKXKXKXKXKXKXKXKXKXKXKXKXKXKXKXHXmXxXkXmXiXwXjXu.P.4X<X4XP.7X<X1XAXI.y.1X;...;.8Xr.w.aX0.r.<X' / | a.R / jX;.| aXl l 2.' E M 3X9.M nXl y I.;.' yXP.9.{.rXs s qXl M 1XPX{.a.e.0...8 4 l 2.r.t 4 a s u t u R O.! W ! W E o.8.r.w.8.a.1XqXaXPXKXKXKXKXKXKXKXKXLXKXKXLXKXLXJXLXKXPXLXHXaXpXpXsXHXAXKXKXLXLXKXLXKXKXAXKXLXnXKXKXnXp.1X;.;.a.8.....;.f.` M 2.w.!  .} 0.~ 8X8...2.l ..y.u 9./ l I.l / ..o ",
"<XX.r.3X;.w.8X8...uX0.;.pXw.2.jXp.r.BXp.p.mXr.s.qXI.p.wXp.a.yXr.<X}.jXKX7XiXJXLXJXKXKXKXKXKXKXKXKXKXKXKXKXKXKXKXKXKXKXKXKXKXKXKXKXKXKXKXKXKXKXKXKXKXKXKXKXLXHXmXjXiXkX4X<XmXu.u.6XP.}.7X3X5XiXpXy.3.7X| ' e.a.r.a.pX3.3.yXl y | ' / ..qX..' jXl y <XM ' / 0.2.R pXy l yX;.E yXs.3.{.s.u l uXl l iXJXs.7X-.0.R 8 8 l | } y 1 ! u u t s L } ! E R }  .w.8.2Xo.0.8X3XrXnXKXKXKXKXKXKXKXKXKXKXKXKXLXKXKXLXKXPXKXKXPXLXKXAXJXnXAXKXKXKXKXKXLXKXKXHXKXPXLXLXDX,Xp.p.o.9.8...8.} ;.p.! E } 8.X.a  .0.8.| E a.r./ X...8 s./ R ;.u s.l u ",
"3X8.2.yXw.X.sXX./ uX;.;.pX2.| jXp.p.mXu.p.zXp.a.wXe.p.4Xs.P.7Xu.P.}.zXKX7XqXiXnXHXKXKXKXKXKXKXKXKXKXKXKXKXKXKXKXKXKXKXKXKXKXKXKXKXKXKXKXKXKXKXKXKXKXKXKXKXJXDXjXkXpXiX4X4XjXu.u.6XU.4X}.}.5X1XiXr.2.pXE / y.r.0.a.}.y.r.yX^ W {.E | 9.s.3.;.aXl u iX9 E r.r.0.u 5Xy u jX2.u qX<X3.6XW 4 u ,Xu E nXZXy.iX;.r.y 8 8 4 l 8 4 t O.a s i H a } ! ! R ! X.p.<.7XX.;.iX8XuXAXKXKXKXKXKXKXKXKXKXKXKXKXKXKXKXKXKXKXKXKXKXKXLXZXKXKXLXKXKXKXKXKXKXLXKXKXKXnXKXKX9Xq.r.X.' 9...8.r./ } o.~ } W o.9.l 8.8.aX| } r.8.R s.E y 0.M w.E u I.4 r.",
"yX/ ..iX/ | uX..` pX2...jXw.' nX9.0.zXr.y.pXa.y.7Xr.s.4XP.I.6Xr.{.I.zXKX3XqXDXJXJXLXKXKXKXKXKXKXKXKXKXKXKXKXKXKXKXKXKXKXKXKXKXKXKXKXKXKXKXKXKXKXKXKXKXKXKXJXmXjXpXpXiXwX6XpXP.u.yXe.U.P.{.5X7XqX}.e.aXW ^ {.-.2.;.5Xr.w.iX^ M 7Xu l ..;.w./ 7Xj l zXM M I.;.0./ 0.u 8 pX;.l rX<X2.6X4 8 M | l u AXaXq.yX0.a.y y 4 E 4 1 4 t o.a a a ~ R [ ! [ [ W } p.w.d.0.9.rXqXpXJXKXKXKXKXKXLXKXKXKXKXKXKXKXKXKXKXLXKXKXKXKXLXKXLXKXKXJXKXKXKXLXPXKXKXHXKXKXnXLXLXp.o.d.r.;.0.| 2.;.! X.} E o.W ..o.a X.l yXu.w.X./ y I.M | ' W I., M ..4 a.",
"pX' / pX' ' aXX.} pX;.} aX2.| jX9.0.jXr.r.iXa.y.<X<Xs.I.}.I.4Xa.P.P.zXHXwXwXjXDXHXLXKXKXKXKXKXKXKXKXKXKXKXKXKXKXKXKXKXKXKXKXKXKXKXKXKXKXKXKXKXKXKXKXKXKXKXHXmXpXjXpXpX7X4XkXD.e.yXe.7X7X{.5X1X5XP.0.pX-.-.5X' 3.a.a.y.-.pX/ E aXl / s.| ;.' P.M W iXl l qXw.;.;./ u l 3X| l aX<X0.wX1 y X.t ~ W JX8X9.2X0.a.y s 8 r.W t t , } s u a R R ! ~ Q Q ! X.y.,Xd.w.2X5XdXnXKXKXKXKXKXKXKXKXKXKXKXKXKXKXKXKXKXKXKXKXKXLXKXKXKXKXKXLXKXLXKXKXPXKXLXnXLXKXBXKXJXq.q.r.0.X.9.O.../ E w.o.W ' ! X.O.a q.X.a.' -.r.l / | M p.l / r.4 0./ 4 r.",
"pX/ ..jXw...iX8.X.iXq.;.jXr.r.nXr.r.zXr.r.iXy.y.<Xa.s.<Xs.a.I.P.P.I.jXBXiXwXiXnXHXLXKXLXKXKXKXKXKXKXKXKXKXKXKXKXKXKXKXKXKXKXKXKXKXKXKXKXKXKXKXKXKXKXKXKXKXDXjXpXyXwXyX}.I.iXP.U.jX4X7XiXs.<X{.a.4.2.jX' ;.6X2.P.I.3.e.;.7X/ E pX' 0.8X/ ..| | M l 3XW ..pXw.| I.' s ' y.' 8 BX8Xw.pXl l 5X1 a q.JX2X9.a.w.r.y s u r.8.1 t s ~ l t t a R ! ~ R R W 2.g.:X2X9.1X3XsXZXKXKXKXKXKXKXKXKXKXKXKXKXKXKXKXKXKXKXKXKXKXKXKXKXKXKXKXKXKXKXKXKXHXKXKXHXKXHXJXLXaX0.p.q.q.3...| 8.} R 8.} E } R 2.l L X.8X;.N e.w.8 / ' y y.l ' / 4 s., ' E ",
"aX..| nX;.9.pX8.;.aX..;.pXa.r.jXr.q.iXI.s.rXy.u.<XI.<X<XI.I.I.U.P.I.wX4XwXqXyXnXnXZXAXnXBXZXnXDXDXnXDXAXAXDXDXDXHXHXJXPXKXLXKXKXKXKXKXKXKXKXKXKXLXLXKXKXKXmXjXpXiXjXwX}.<X6X:.:.wXu.}.yX1X1XwXy.u.2.uX3...rXy.r.U./ 2.2.a.R M iXE / iX..9.s./ u l y.E | rXw.| 3Xy 8 2.w.' l iXrX0.jXR a 8Xt s <XHX,Xa.9.9.| t 8 E 9./ t 8 R t M t s ~ R ! ! ! ~  .o.q.9Xf.aX5X8XiXJXLXKXKXKXKXKXKXKXKXKXKXKXKXKXKXKXKXKXKXKXKXKXKXKXKXKXKXKXKXKXKXKXAXLXPXLXKXaXKXKX9Xr.r.0.r.p.| | 8.W a } / ;.R u 2.R W W 8X8.E ..` l 3.l M ;.M 0.M y ;., a.1 ",
"pXM ! jX/ / iX/ E uXO.} pX..| aX0.p.pXp.w.8Xs.a.I.s.I.U.I.<X<X3X4X<XrXyXyXyX4XrXBXAXHXBXDXmXAXZXnXjXBXBXmXHXDXDXDXmXmXmXDXHXAXDXJXHXDXSXZXnXjXpXjXAXHXJXHXaXjXpXiXiXwX6XI.}.:.:.<Xt.P.iX{.7X7Xy.P.w.1X| E yX/ w.3X' u.0.../ y 3Xl R iX;.0.8XW W / ..8 / 3Xr...yXu y s.| E / <XyX| pX/ : 9Xa u yXBXa.qX3.0.l 8 t ..;.R 8 4 R a R R a H R ~ ! [ ! ! R w.:Xp.w.aX9XiXKXKXLXKXKXKXKXKXKXKXKXKXKXKXKXKXKXKXKXKXKXKXKXKXKXKXKXKXKXKXKXKXKXKXKXDXKXKXsXKXLXI.JX<Xq.d.a.! ! 2.} ..R ! 9.L E O.O.X.a 2.o.M 0.` M ;.y ;./ 4 r.4 ;.u 4 y.> ",
"iXE R iX/ ! qX/ | 8X| ;.iX| X.pX8.9.qXr.w.5Xy.r.P.a.s.a.I.s.a.I.P.u.<XP.yXyX4XjXpXzXyXzXyXrXaXyXiXiXyXyX7XjXjXjXpXjXjXmXnXnXnXBXmXmXAXmXAXDXDXDXHXHXJXDXHXjXjXiXqXiX4X4XI.u.-.;.4Xr.u.rX1X{.7Xu.q.3.s.-.| pX..q.8X..0.{./ / W r.E ' 5X2.0.yXE l w.W l ;.s.r.' iXy 4 8X| l p.r.iXr.{.;.4 w.t R aXaX0.iX;.y.3 8 1 r.X.t 8 1 ~ a R R R R W ~ W W ! } <.h.d.q.q.uXAXZXKXKXKXKXKXKXKXKXKXKXKXKXKXKXKXKXKXKXKXKXKXKXKXKXKXKXKXKXKXKXKXKXLXKXKXAXKXLXAXKXZXAXAXI.0.<X9.X.r. .` X.~ ..| a X.} W ..y.X.W 9.y.E / | u 9.y M | 9 {., / / > ",
"8XW M 8X;./ 5X/ ..8X/ | rX;...yX8.9.qXI.r.<Xr.p.a.a.u.r.I.u.r.U.s.u.6XyXyXwX}.jXzXjXwXpX7XwXiXqXrXiXwXqXwXpXiXpXmXjXjXjXjXpXjXpXpXiXiX8XyXuXqXqXiXiXiXqXiXzXpXyXwXwXwX6X6X4Xi.a.<XP.wXrX1X{.1X-.r.3.2./ | 5X3.w.iX9.| 5XM l -./ W / <Xw.0.pXR l I.l / 0.9.w.E 3Xy 4 yX;.u 5X0.pX2Xq.8.R ) a t nXrX3.7X2.y.4 y , a.X.t t 4 R s ~ a a a W R W ~ ~ } 2.g.y.q.f.2XdXJXKXLXKXKXKXKXKXKXKXKXKXKXKXKXKXKXKXKXKXKXKXKXKXKXKXKXKXKXKXKXKXKXLXLXKXKXKXAXKXKX3X3XpXe.p.<Xr.} 5X8.0.X.! 8.O.R ..E R ! q.q.R l ..M 2.u M ;.y r.y l e.o r.> u ",
"1XM y {.E l 1XE ' {./ / <X| | 3X..X.<X0.;.a.r.0.p.p.r.0.I.u.p.4XP.I.4X<X4XyXwXyXjXzX7XpXwX7XiX3X6XrX6X6XwXiXyXiXpXqXpXjXjXmXpXpXiXiXrXqXqXwX<X3X8X4XwX8XqXiXyXiXqXiX4XU.U.t.-.3.P.U.U.qX1X7XpX{.1X{...;.9.1X2.0.iX2.9.uX/ E 0.l R ^ r.0.w.8X/ E 8Xy M r.;.0.' 0.u l qX/ u qX;.aXqXr.y.8.m ~ s ZX5X3.s.3.w.8 y y p.X.t 8 t ~ R } R R a R H }  .o.E } f.8.w.8Xd.3XSXKXKXKXKXKXKXKXKXKXKXKXKXKXKXKXKXKXKXKXKXKXKXKXKXKXKXKXKXKXKXKXKXKXKXJXKXKXaXLXLX5XpXiX3.I.<Xw.;.8.p.2X .W :Xo.} [ ~ w.R ,X2.' / / l 0.y | ' u s.8 ..E 4 y.4 0.",
"y.E 8 0.l y I.E l r.E u {./ L I...| p.2...r.0.;.r.a.e.e.I.e.e.I.a.a.4X<XwXyXrXmXjXpXiXrXrXwXyX<X}.wX<XP.4XwX4X7XyXiXiXpXpXjXpXmXjXnXiXyXwX6X}.6X3X<XP.yXwXqXqXjXjXiXqX4XI.3.' | e.-.3.3X4XrXiX}.a.4XW l | r.' 0.7Xy.{.aX0.2.5X/ E ..' r.r.a.| ^ iXu u I.0.0.w./ 8 l <XM y 3X..jXyXq.,X2Xt R X.SX{.3.9.;.' y 8 E 0.} t 1 t R ~ o. .~ q s E 8.X.[ R O.,Xg.f.2Xf.,XaXHXKXKXKXKXKXKXKXKXKXKXKXKXKXKXKXKXKXKXKXKXKXKXKXKXKXKXKXKXKXKXKXKXKXHXLXKXnXKXaXa.1X<X| 9.w.<X9X!  .9X8.} O.f.d.} } p.q.! ! q.s.l / ;./ s.W ;.| 4 s.4 ' E y a.",
"/ 2.l 2...M 0./ W w.| W p.;.| p...} u.r.;.9.9.w.e.p.0.r.}.r.e.<XP.u.4X4X4XrX<XqXpXpX6XiX6X4XrX<X}.wX6X4X7XyX6XwXqXyXrXpXpXiXiXjXpXjXwX6X7X6X<X4X6X3X<X6X7XwXwX6XwXwX<XU.}.:.;.r.t.P.}.<X}.}.rXe.3.6X| E 9.| / ;.a.a.0.5X/ ^ 8XE E w.| r.y.y./ ^ 8Xl l 8X0...a.M 8 / 0.l y r.;.jX7Xr.3X5Xt u I.nXs.u...;.j y 8 ..8.E 8 1 t H ~ o.R R H R R ! ! ! ! O.,Xw.g.9Xp.2XiXaXAXLXKXKXKXKXKXKXKXKXKXKXKXKXKXKXKXKXKXKXKXKXKXKXKXKXKXKXKXKXKXLXKXLXKXJXLXPX{.I.<Xy.| y.| y.,X} d.9.9.8.O.w.p.! 8.2.yXd.;.r.;.l d./ / 0.l a.E R s.y a.4 / 9.",
"E y.l ' ..R 2.;./ 3.;.' ;.0.;.9.9.| r.0.;.0.r.0.r.p.9.r.I.r.r.3Xu.i.6XI.wXiXI.iXjXqX4XiX6X4XyXwX4X6X4X6X4XwX4XwXiX7XaXpXiXrXiXyXwXiX7X6XwX4X4X4X6X4X4XwX7X6X4X6X4X6XU.U.4Xt.3.a.e.t.P.u.P.U.qX3.u.wX^ 2.a.E ` 2.w.u.;.{./ / qXR / <X' ..| ' ^ E {.R M iX2.' 1XE l s.| 8 l / | zXP.q.8X<Xt u yXpXu.1X} 0.4 4 u 0.;.u 1 t i a ! [ W R a ! [ o.} W ! X.q.w.q.f.p.8XdXuXpXDXKXKXLXKXKXKXKXKXKXKXKXKXKXKXKXKXKXKXKXKXKXKXKXKXKXKXKXKXKXKXLXLXKXaXKXnXd.d.<X2.2.a.0.8.9.| r.;.8.I.O.y.;.X.d.! 8X9.8.a.| ! q.E ;.' E a.R 0.W 8 r.9 r.' ",
"u 1Xy E 9.y / 2.W ' w.l ..r.E ;.r.E ;.r.;.-.r.| ;.r.-.w.I.p.u.7Xa.r.7XU.wXnX6XjXpXjXHXwXwX6XqXwX4X4XI.P.<XI.I.I.6X<XwXiXkXpXyXjXjXiXiX4XwX6XP.:XP.u.u.4X4X7X7X6XiX6XwX}.wXe.| r.;.r.u.u.P.7XwXI.I.qX/ / s.l / 0.W P.-.r.| / 5XM y 5XM 2.s./ ;.' | u j yX;.9.qXR s 4X/ 8 ;.y ' mX0.y.yX2.s u zXyXq.7X| e.8 4 4 r.o.u 1 t 1 a } } R R t R E 8.! ! ~ q.<.f.f.q.:XLXDXrXrXaXSXLXLXKXLXKXKXKXKXKXKXKXKXKXKXKXKXKXKXKXKXLXKXKXKXLXKXPXKXLXJXKXLXnXLXrXf.X.{.0.;.y.w.p.o.` q.;.9.9.! q.X.| d.2.p.| X.a.8.X./ / I.l ..;.W I.4 / E 4 I.| ",
"s.iX3X<XqX5X1XyX8X3XpX7X7XiXyX7XpXqXqXyXrXqXiXiX6XrXiXqXyXyX4XwX3X5XqX4X6XiXqXiXjXpXHXpXyXrXwX6X4X3XI.-.<XP.-.r.4XP.4XrXpXpXrXnXjXpXpXiXqX:Xu.6X;.-.;.P.<X6XwXrXkXwXiX4XrX0./ ;.N N | ;.4X4X<XU.3XyX/ w.7Xy E y./ 5XI.2.r.l {.8 8 3X' r.<X;.;.9.l 4 4 I.r.;.7X;.y 8XM , P.8 | AXy.w.nXM t t pX7X9.5X3.w.8 4 8 y.` 4 4 8 , s } w.R a 8 a R  .! ! R d.w.p.,X:X3XLXKXHXuXdX8XaXLXKXHXKXLXLXKXKXLXKXKXKXKXLXKXKXKXKXKXKXKXKXKXKXLXAXKXKXHXLXKXJXAX8Xo.! r.<X0.r.} I.8.M } a.8X/ > q.9.q.;.8Xs...8.X.0.I.l y s.E y.E ;.a.# I.j -.;.0.",
"s.qX<X}.8X3X<X8X1X7X8X7X3XiX7X8XyXyXqXyXyXqXqXrXyX7XyXrX8XrXyXqX3X5XyXqXqXiXiXjXpXmXmXpXDXmXnXDXDXmXDXHXmXmXmXmXDXzXDXzXzXjXaXiXpXyXiXwXwX4X:XI.I.I.I.U.I.I.I.<XU.4X}.U.7Xy.;.<X-.-.u.-.P.P.t.P.r.wXu.;.rXE ' 3X..s.w.' ....9.l / 1X| ;.3X/ ' r.l / ;.e.X.;.{.' W 4X^ 4 <Xu W HXr.0.mX4 8 M aX2X2.a.w.` 4 4 l r.` 8 t t , t R ! W R s a E ! } { ~ -Xo.8.2Xq.uXHXKXKXaX7X,XsXnXKXLXLXKXPXKXKXJXKXLXLXKXLXKXKXKXKXLXKXKXKXKXKXKXPXKXPXLXKXHXLX,Xd.8.2.0.w.s...W r.2.X.| ..,X;.} X.0.;.! 8XI.r.q.} r.s.l w.R / y.M 9./ j I.E y.' y.",
"8 ;.> 4 ' 4 y W y y E u l O.l R ' E E ../ | ;.-.| ;.2.;.0.r.r.;.0.r.u.P.s.u.}.<XP.yXyX3XpXjXqXjXjXiXmXnXpXmXmXjXmXDXBXzXmXBXjXAXFXkXBXmXjXmXBXzXBXBXmXmXnXzXpXiXpXwX6XU.5Xa.-.}.-.3.P.-.e.P.;.u.u.7Xa./ 3Xr.e.3X3.r.<X' ;.;.| E W {.-.3.qX' ;.}.l j a.' | W 2.| ' a.l j {.8 M nXr.0.DX4 u ..pX1Xw.;.9.l y t ' w.a 1 t t t R ~ R ~ R a a E ! ! Q ! 8.o.w.d.d.HXAXKXKXDXnX9X8X8XUXHXKXKXPXKXLXKXKXPXKXKXHXKXKXJXKXKXJXKXKXLXKXLXKXKXJXKXKXnXHX2Xy.q.a.| ..a...' ' ;.0.| ;.q.} X./ } q.8.p.| <XI.' ;.| / <XW 2...E s.l | / N s.;.0.",
"W 1XE E I.E W I.' ' a.' ;.a...X.I.9.;.I.9.0.s.y.P.I.s.p.<Xp.r.3Xr.r.<Xu.s.<X3.r.7Xr.jXI.r.u.u.e.9.r.e.e.9.e.t.t.i.u.9.a.4X<X}.rXwX6XjXmXwXmXjXpXjXjXjXjXjXjXpXjXjXaXmXBXnXDXDXzXmXjXiXrXrXrX}.6X4X<X9.| qXj E 7X/ s.7X..r.e.-.N ^ 0.j ' 6Xe.r.4XE l <XW ^ r.N w./ 0.j , | M W 7Xu.0.pX, 1 f.iXa.{.} q.t t 4 2.;.1 8 t t t t ~ Q ) ~ u d t ~ } } ! ! o.y.w.d.aXaXnXSXZXLXUX,Xf.yXaXKXAXKXLXAXLXKXAXKXKXZXLXKXJXLXKXHXKXKXKXKXHXLXKXZXKXLXaX8X2Xy.w.0./ y.;./ 2.! ;.y.l E / 9.q.! } ..aXa./ {.0.l I./ | 0.^ r./ / 0.M {.M ` ;.w.w.",
"u 5XM l 1XR M {.| / 5X;.' 3Xw.| <X9.9.6Xa.r.}.I.P.5X<XI.1X<X1X6XI.s.<X0.r.3Xu.3X3Xu.I.4X' -.4X9.}.I.I.<XI.pXjXwXjXyXiXyXyX4X4Xu.i.4X:.-.P.( :.t.;.' / ^ | -.3.}.}.P.rXpX3Xw.jXpXjXiXwXwXyXwXwXpXjXpXpXpXjXqXyXaX6XyXiXi.U.4X3.W j N N -.}.t.e.wXj 9 4XW / U.' 3.y.| 3 y W 4 W iXu.q.1X, # 8XrX0.3Xo.y.8 8 , 0...1 t 4 s 8 : s R X.` a t t W  .o.0.R L a.:X,X3X,XsXuXUXSXiX2Xq.8XyXaXMXKXKXnXKXLXpXHXAXZXLXLXLXKXLXLXKXHXKXKXHXKXKXZXLXHXAXw.,Xd.a.2.W 9.;.| q.M p.2.s ..` q...t ` | iXr.s.w.! u 0.0.y.R M U.N ;./ u s.M I.;.y.-.",
"u 5Xl l 8XE R <XM E 3XM | {.' / U.| | P.-.| u.;.;.a.' ..p.2.2.U.r.w.<Xr.r.7Xr.wX7X<XP.3Xa.I.4XI.}.<X4X4X4X4XrX4X}.1X<X8X3X4XP.t.r.<Xr.3.e.e.e.I.}.I.U.}.7X4Xa.P.9.e.;.| q.E N ;.z z ( ^ :.e.3.}.6X4XiX7X3X6XwX8X6XwXwX6X6XkX4X7XwX}.4X4X Xu.5.}.N j wX^ j wXE ^ 5XW M | u s W AXu.3.zX8 t uX5X9.<X2.w.8 t t y..., 1 1 u M t m ~ ` W R ~ L ~ ! ! p.! } ,Xw.9.2X8.X.2X,Xf.9X9Xp.,X:X5XsXAXaXaXHXJXHXKXAXLXLXnXZXAXaXHXJXAXKXKXHXKXKXHXLXuXuXI.8.9.w.2...0...;.X.! w.R ~ w.~ o./ R X.;.I.| / r.' E ;./ u./ | ..E U.y | | ' y.3.y.0.",
"u ,Xl l 3Xl l 3XN M <XE W {.W ' {.' | s.| ;.I.| ..;...;.2.9.2.I.8.9.{.r.r.wXr.I.3X4XP.<XI.u.<Xs.a.<XI.P.I.}.P.u.|.{.}.4Xs.}.P.u.a.I.u.e.4X3.P.I.P.}.4XI.4X4X<X4X<Xa.r.q.r.3.9.P.P.i.4Xt.P.4X-.P.I.;.l l l l N ' ^ :.t.5.tX XP.|.P.|.4XwX|.6X|.}.4X}.4X}.}.6Xt.e.6X/ E I.u M ;.DXs.q.nX8 t aX5X3.a.2...1 8 a w./ 1 1 t u M m a m ) R R R L R !  .0.! R f.;.9.p.8.8.p.w.f.d.y.w.f.a.<X<XaXAXaXaX8XaXZXyXAXHXaXLXKXnXLXHXpXaXsXnXHXnXLXHX,Xy.<X;.9.a.| | w.| 9.` W 8.` X.} R 2.} W X.rXI.E ..0./ q.E ;.w.| a.E / w.y s.R 2.3.r.w.3.",
"t p.s , 7Xt t 5Xu 8 1Xl u <Xl W <X..;.<X;.e.I.r.y.a.I.I.d.<X<X<X3X5X3X<XI.8Xs.wX3X6XU.3X3.9.r.| ' 3.-.4.e.4X1Xr.5X6X7XwXqX3XI.P.r.;.' N ' | -.;.e.}.<XqX6XwX4X}.<X9...| w.q.r.s.:X3XU.qX4XyXI.( iX:.3.3.( e.a./ 3.5.t.xX:.U.V V :.-.-.] t.eX4X4XU.U.U.U.P.u.I.<X4XP.}.iX0.2.{.BX[.u.ZX8 W zX3X..;.3.M 4 4 l w.u 8 1 s u u 1 s W ..W ~ s I a ! } 8.a W | ;.w.q.X.w.8.9.I.f.8.f.w.I.<X2Xf.2XnX,X2X,Xy.d.yXsX9XnXMXaXJXZXKXLXuXHXHX,XnXaXp.,Xd.| r.w.;.| ' 8.0.! u ! X.q.W t X.2. .E aXy.I.' l ..r.8 | ;./ s.l y./ 4 9.^ r.4.e.;.;.",
"> 9.u 4 ,X1 t {.8 # {.y y {.4 y <Xu u <Xl l 9.E | r.;.p.p.,Xp.9.9.I.y.I.1X6X<X4X4XqXjX7XrXyX7XyXrX7XiXiX4XyXpX3XjXpXyXqXyXrX6X<Xu.;.;.| | ' -.;.9.P.a.7X4X<X<X<X}.9...| ' W / -.e.u.4XqXwX4X-.9.6X^ l P.-.3.t.u.t.:.xXC.:.4X] ( 4X3.3.u.e.4XeXB % % 9 3 N / ( 9.u.y.y.3Xr.y.P.0.y.s.q...s.rXs.s.` 8.8 t 1 o.o.1 4 , E M u , ~ M } M  .Q m a W <. .W o.~ o.r.8.o.p.O.9.f.q.8.:X;.q.,X,Xp.d.8X2X,X,Xy.q.p.2X2X-Xd.,X9X9X2X1X1XsXZXaXnX5Xq.3Xq.W 8.9.I.9.l | 9.;.| s } 0.! M } 2.o.` f...2.y.u ;.| W ;...2.| 4 y.M ../ | u.r.9.;.r.",
"R | | l y.W M ,XW M <XM M I.E ! I.O.l :XE / p.r.d.r.../ | / ;.;./ / s.;.0.a.P.4X<X7X6X}.3X<XP.u.0.a.r.e.r.r.a.u.y.I.1X3X3X3X7XqX6X<X7X7X4X4X4Xa.7X3X}.6XwX4X}.}.{.e.r.9.;.2.-.;.;.9.u.wXe.I.;.<X3X-.^ <X-.D.$.$.5.tXtXc.,.5.5.3.}.D.] U. XY.tX$.U.t.9 j 9 j z l M 3 4 ^ 8 y | r...2.M ' i.| <.[.| q., 1 # q.} t , , l E M R t ! ~ R ` ~ M t m q. .X.q.~ } p.8. .y.| X.p.p.q.p.8.w.a.r.d.a.8.d.p.f.f.p.0.p.,Xy.d.w.s.p.f.p.q.p.p.f.g.p.X.y.8./ p.X.2.9.2.8./ p.d.| ..X. ...R ~ X.8Xq.W ;.w.y w.W / w.l r./ / 2.R s./ e.2.r.-.-.e.",
"E O.;.E 2.' W y.! ! d.W W r.W E I.l R 3Xp.r.0.E E 8.l E ;.E E ;.R E U.u.;.}.P.6X6X<XrX4X<X6XP.u.p.9.r.3.;.0.9.3.w.9.0.y.s.s.P.}.I.r.s.r.9.9.e.;.;.;.r.e.r.r.I.3X1XU.{.s.3.w.;.' ;.9.4X9.u.u.6XwX}.| | 4X$.5.D..XtXkXK.D.,.5.5.] 6X$.$.U.D.}.wXD.eX|.j N 3.^ E M j 3 j W 8 j 2.HX}.{.aXy 0.a.` N E | 1 1 , p.! 1 , : 9.y I.,X` y.w.a 8.W R a R 0.}  .s.R W q...8.y.o.;.y.r.a.p.;.q.9.p.p.0.9.f.p.y.a.r.q.y.p.p.p.8.p.q.s.f.w.w.g.p.y.X.o.y.X.;.r.| 2.X.| r.} r.;.0.r.} w.8.W / l uXy.a.w.l E 2.M 2.W l 0.E w.M M w.| u.-.u.-.| / ",
"l ! q.! | | l X.W a 0.l l ;.l R d.r.O.a.L s q.t s E l u / M l | R <X0.| 9.U.<X7X}.qXrX3X<X6Xu.3.;.;./ ^ / ^ | ;.| ;.a.1X3X3X5X8X<Xy.r.;./ l z / E E ;.e.s.a.3X4XP.a.0.r./ l ^ j ' ' r.P.u.yXP.e.u.V :. Xc.oXlXkXeXeXoXc.K. X5.C 4X4.t.4X5.K.C.K.:.U.9 | r./ / / y 4 E 8 u E l JX{.u.pXy 7X3X2.2.2.` 1 : 1 y.E , 8 8 l l 9.X.W ..! } [.9Xo.5X8Xw.,Xp.X.s E ..0.q.9.E | | I.p.9.E r.q.,Xp.8.o.p.p.3Xy.O.o.0.,X,Xo.X.0.f.{.q.)  .w.d.w.! ! 2.0.s.' 8.s.X.W | w.,XX.' ;.} {.} u 8.y.y.` 5Xr.W y / W s./ ' ;.l a.> 0.| 2.0.e.u.-.-.z ",
"X.E :X/ W r.! } X.W ;.;.q.<X0.| p.l L s.R / r.s u / y l E M y 2.<Xl r.' ' P.r.r.<X8XiXp.wX6XI.r.r.0.0.| ' ../ 2.' ' ..9.a.}.3X3X<Xs.s.u.;.| / ' ^ E E ..3.-.<X}.}.P.P.u.| ' / l l r.' -.qXt.i.D.C.5.D.kXeXeXkXeX&XK.b.K..XK.U.:.wX4.5.:.U.U.D.tXk  XB ^ 4Xj ^ r.u y | > M / 3 DX5X0.iXN rX|.' 3.q.W 8 4 l 9.l > , t t 1 , 1 : , 1 a  .} } y.p.q.,Xd.{.qX8X3X8Xp.8.o.r.| 2.p.0.;.2.| a.q.q.} 8.0.f.8.X.8.O.w.p.q.X.0.w.f.q.` 8.X.w.w.X.W | 0.0./ a 8...w.X.2.w.8.y.W / f.2.} / uX2X! / / ..y.j l ;.E ;.u W w.o P.-.r.2.y.| ] -.j ",
"0.| <X;...I.y.o.y.w.0.r.;.;.9.;.0.9.8.p.....r...O.;.E ' | E 0.-.E / ;.E E r.0.<XU.8XqXr.I.{.p.I.a.s.s.s.r.u.9...9.;.;.;.2.w.0.w.r.0.u.y.e.r.r.;.;.;.| 9.e.-.0.9.r.0.P.u.e.a.e.' t.;.-.I.9.-.$.t.K.tXeXhXlXlX&XF.F.5.5.%.,.$.5.eXeX4.4.U.t.Y.K.eX@.i.( ( I.E l s.u y r.3 9 ;.y AX6X3.rX4.kX{.0.` 2.y 4 1 | ;.y , , u t E l u 1 s a / R M 8 7 ` u ! ! q.d.r.d.{.d.qXuXr.rXuXa.a.r.0...y.9.p.{.2.2.q.8.y.p.<.8.8.q.q.8.X.q.w.q.8.} 0.8.o.2./ ! 2.' } ` } y.} ` X.` I.X.3.2.y.p.R 9X,X;.,XE E w.E 3./ l 0.8 w.M / ;.;.r.0.y.W ' N 9 ",
"9 l p.M | s.W L 8.' ..q.X.9.8.;.9.9.;.0.9.;.I.9.8.9.0.;.;.wX3Xa.1X<Xa.s.s.e.p.<X{.zX8Xr.s.I.I.3X4XU.1X<Xr.}.a.3.r.2.2.2.-...9.y.y.w.P.U.e.e.r.-.3.;.| ' -.-.| e.9.r.r.a.u.3.u.| u.9.r.3.r.:.t.tXgXgXlXlX0X&XB.n.$.C.,.@.C V $.t.kX|.|.-.D.eX$.eXD.i.$.j :.5 l 0.-.y a.l 9 u.N DX8X0.wXu.jXa.e.| r.8 3 > r.| , # 8 u 8 R s a t t s ..! M u m w.W E 8.d t E R ! / y.p.2.1X}.s.qXyXrXiX{.8Xd.8.X.X.w.q.p.2.X.8.8.q.q.X.o.0.<.q.0. .X.o.8.2./ ....;.;.W E } 8.` ` W 2.| E M 8.p.y.q.` w.,XI.| W 2.0.u ;.| l 9.u w.| w.0.0.w.W -.9 E ",
"` E f.l l 2X` W f.8.X.p.0.9.f.0.9.r.9.0.p.;.r.9.9.;.;.;.r.<X{.r.I.0.r.| 2.2.a.1X<X8X3X0.a.<X<XqX<Xa.1XI.y.r.w.2.9.| 2.2.r.r.U.<X<X<X6X4Xs.<XP.-.;.' ' ^ ^ | 3.e.e.<X<XP.r.9.t.( $.U.P.:.t.Y.kXeXgXxXlXOXb.*.V.V.D.,.C $.B k g N :.6XUXUX0.4XC.D. X-.}.u.( -.;.a./ 9 {.y j e.j zXP.u.6X}.iX0.}.3.u.> , > r./ , # u l R W t a t t R X.R l 4 M ..X.| | 4 E | X.;.o.E / l M M ` d.2.{.5X8.8XuXq.aXuXq.9X9XX.X.0.8.p.w. .) 8.g.g...W 8.8.0. .M X.} X.2.a o.W 0.o.R  .` W m M 2.X.pXy.O.r...s.qX3.U.;.l y.E l / ^ 9.-.9.3.e.^ N -.l r.",
"/ E f.l a ,XM t ,X` ! a.;.X.p.9.9.y.9.9.I.p.y.s.y.r.r.r.;.s.u.r.r.r.p.9.0.y.I.3X{.3Xs.| 0.w.y.I.<Xa.5X1Xp.I.I.w.r.2.' | ' / / ' 3.9.U.}.}.U.I.a.u.e.3.-.' ^ -.-.-.}.P.a.:XI.t.t.t.U.-.t.wXkXtXFXxXgXF.+XV.F.H.c.$.,.$.g B V ( ^ V 3.{.pXiXD.5.D.3.}.:.5.|.4.7Xe.iX7Xa.y % -.j mX}.u.4XwXrXu.|.e.-.9 > , y.} > > M l l / a , t 8 R ! R t u ' R ` } } M X.R | 0.;.` 8.l } 8.2.` o.s ~ u ` q.X.9X1X2XpXs.uXaXq.uXyX0.<.8.! o.0.o.W } ..p.` ! ! W w...W 2.` X.X.W ` M X...s  ...uXq.u r.| s.w.| s.-.' 2.| e.8 ^ 4.e.y.9.e.E N y l a.",
"O.E y.R a ,XR u 9Xl l p.E ! 9.l / ;.R | 8.} r.;.8.;.q.9.| 0.2.;.;.....;.;.9.8.a.w.{.9.;.;.| ..;.0.2.a.a.r.<X<Xr.1X}.y.a.e.3.| | ' -.;.-.e.u.P.P.}.P.u.}.;.-.| / ^ ;.9.r.r.P.P.4X6XP.<XiXmXiXkXlX&XL.lX+XF.C.=.$.V C V k k j V ] j r. .2.4.5.$.V U.D.:.U. X6X|.4XtXe.|.wX|.u.4.jX}.u.}.rXwXP.e.u.^ 3 j R 9.R > 4 W 8 s M u E ` u R W W / ! ..E E w.X.X.8./ ! 2.;.o.0.W ! ..0.p.8.` | ! X.w.} Q } R ..a ,X8X8.uX8X8XzXp.pXuXX.p.q.! Q 2.X.2.` M ..' ..o.M X.Q <.<.M R Q  .} X.a.;./ ,Xr.<X' ' a.| 0.l W y.y 3.-.3.;.0.-.^ | 9 ' -.",
"} R w.} W ,XW M 5XM l d.l ! s.u E r.E ! 9.| ..0.;./ X.} / ;.2.;...;.| ' | 0.;.| r.1Xy.....E | ..9.2.y.a.r.<X{.r.<X1Xs.y.r.3.4.-.-.-.$.5.u.u.u.6X}.i.P.e.4.-.^ -.u.-.;.r.t.P.P.<XI.wXjXHXJXPXFX X+XeXV.c.C @.$.V $.V B B B ^ ] N N u.a.a.i.$.( 4.( :.B V :.$.5.t.^ -.-.u.P.u.4.|.U.D.}.pX6X4.u.r.^ 9 3 / 0./ y 4 ;./ N y l M y 8 a R R | s.w.' ;.q.X.X.q.R W ..X.w.X.! X. .2.,X8.! f.8.p.X.8.} W } 8.X.} ..a a ~ 8.d.} yX8Xp.5X1XzXaXo.5Xq.) ` f.} q.W ) ..) g._ m ....} W iXa.| 2...a.{.| } / / a.E ' W ' 4.| r.-.3.E y ;.y P.E ",
"9.R ` } R q.! ~ ,Xl l <XR L I.R E a.E E r.| / r.;.} ;.| ! / ! R / ! E / } } ! / ;.I.y.' ' / | 2.9.;.a.{.y.3X5Xa.4X1Xa.r.e.;.4.4.-.5.t.5.t.U.t.P.}.U.P.I.t.' a.9.^ ' 3.:.<XwX7XyXaXJXKXLXLXGXkXeX.X5.A C $.@.C C V k ] V ^ ^ ^ j N N -.e.u.U.:.:. XK.5.i.U.wXU.:.5.i.6.t.D.3.u.t.iX X4XpXkXwX|.e.N h N ;.2.> E 6 iX;.' z N W 9 ' y ' y -.;.w.W ` ..8.p.8.s.d.s.,Xy.2.` X.X.8.8.8.8.8.X.q.8.) 8.<.8.p.q.X.8.} p.` 8.8.R M a u } ` 2X9Xp.rX{.uXpXo.uXs. .~  .<.g.R m ..` } R 3Xa...s.M / 8.o...W ..2.M w./ 3.| r.4.-.3.j | u l ;.E ",
"p./  .f.2.p.8.| 5X..E d.R l s.E R r.u L 9.R ! X.R l s u 4 l u L l ! / E E / } | ;.1Xs.2.;.2./ ..| | 9.9.;.s.{.r.3X1Xa.<XU.P.U.}.u.D.4X X XD.t.t.}. X}.}.I.u.3.3.-.a.t.:.6X4XqXHXKXLXPXKXmXPXY.eX$.g 5.+XK.:.@.$.V ^ ] ] ^ ] ( -.] -.u.$.:.:.i.5.eX5.5.@.5.5.:.5.5.5.U.D.5.D.U.D..X|.D.i.i.7XrXP.] e.-.P.^ $ k U.t.g t.;.-.3.t.k k t.N r.wX2./ W l } 8. .! o.! 8.w.p.d.q.d.,Xw.d.0.<. .p.o.q.0.W } 8.q.d...! d.X.g.p...o.W q.2XW a ~ 7 ! a 9X1Xp.7X0.pXaXg.uX{.....u  .2.,X;.R ;.a.{.| R 2.8.y 3.E | ' N r.2.y.-.3.^ y ..y 9./ ^ ",
"I.| ` ,X8.w.a.9.,Xq.9.<Xq.9.I./ } y./ E a...R 0.L l > 4 1 4 , , 8 t t s t 4 u ' 2.3X1Xe.s.a.0.r.;.2.;./ / ;.;...r.r.9.I.<XU.}.4XU.U.Y. XeXeX4X:.U.D.U.U.4X|.}.D.e.e.e.t.<XjXLXKXKXKXKXKXHXFX X,.C U.C.,.5.5.( ( ( ( j g k 4.-.4.4.t.U.:.i.tX5..XD.5.A $.D.$.6.D.:.:.K.5.5.C.D.U.5.5.C.5.5.u.i.|.U.u.0.e.( ( t. XB C.( i.D.t.5.U.C.$.k |.wX9.0.0.u l ;.} q.8.a R ..8.g...X. .} p.f.9X[.2.5X5Xg.p.w.R 8.1Xq.q.w.} y.w.p.f.) q.0.{.f.~ W <X| o.)   E u g.q.2XdX` uX5X{.8XM 7Xd.! y.^ 3.p.E } 2.W 2.u 3.` -.3.2.3.' -.M E ^ > r.' <X",
"I.X./ 1X8.| s.;.0.w.9.a.8.9.a.;...r.| ..a.} ..0./ E 4 > 1 > 1 4 y s 4 s t t y M | 3XI.r.p.a.;.r.w...;...| ..2...r.r.r.s.<XU.4X|. X4X X XC.D.4XD.Y.6XU.U.D.D.U.u.:.u.t.wXHXKXKXKXKXKXLXKXjXU.:.$.,.U.5.5.,.( V ( B g k k ( 3.5.3.4.4.:.] ( D.K.$.$.S A eXD D..X6.$.eX5.5.5.C.,.:.,.,.:.5.P.5.e.t.|.wXwXP.|.t.wX$.c.D.H.D. X X X X X,.U.4X-.u.2.0.N R q.....8.W W } 8.7.8.) Q ! 8.<.g. . .X.d.q.8X3X9X8Xw.2Xf.{  .p.8.y.d. .2.2.q.{.` 2.r.q.y.) } s.) w.m @ M a 8.! 1X5Xf.5Xq.qX7X0.s.X.l f.M 2.` l 9.W -.' ..;...w.u ;.l W -./ I.",
",X/ W 2X;.| I.| 2.q.8.r.9.} r.| } p./ O.I.../ r.E l y > 1 , 1 4 4 4 d y t 4 u E ..<XI.0.s.I.w.u.0...0.9.' ;.0./ e.r.8.s.U.P.}. Xi.U.D.C.C.K.K.K.eXeX4XU.5.5.D.5.P.e.rXHXKXKXKXKXKXPXBXwXD.:.:.h -.:.:.:.$.V V k B ^ $.3.5.4.] V ( V ^ ] :.$.@.@.@.,.eX.X*XK.n.6. X5.,.5.,.$.$.,.$.@.$.5.:.t.U.i.] 3.rXpX|.6XC.H.5.eXD..XK..X XD.D.K.K.$.U.u.-.:.^ ] ' | w.} W X.[ o.o.8.} } o.p.} w...Q  .7.<.y.8. .0.<.,X2Xd.8Xd.3X,Xo.8.g. .y.q.2.0. .u.<X} w.3.s.0.E <.X.` 9.j , M ` ' W <X-.4X7Xa.pXX.{.a.^ N ' / ;.2.3.^ | / 8 ' N e.^ u.;.",
"p.s l 2XM E d./ ! w.R X.9.;.9.;.8.I.;.;.I.9.9.I.r.;.u , , 4 4 , 4 4 t t 4 4 s u ! I.r.0.s.<Xp.3X3Xr.{.1X0.0...' 2...2.w.9.e.4X4Xi.U..XD.c.C. XY.Y. X XD. X XeXwXkXiXzXJXKXKXKXJXmXkXkXwX5.V z j k V 5.5.:.( k V $.$.$.$.$.( ^ ( V ^ ( ( B V $.5.c.c.F.&X=.b.C.K.5.$.$.:.:.:.$.( C :.:.:.:.$.3.4X|.5.3.6XiXtX XY. X5..XK. XV.c.F.b.$.,.D.:.3.5.t.;.3.N N | ;.;.X.W W X.0.0.8.! }  .8.g.7.} _ w.q.! 8.X.) 0.8.8.8.! X.p.X.1Xw.d.{.` f.0.` y.2.f...` X.[.w.s.M ..s.| 9.u uXr.u ' l ' W ..p.2.1X9.1XU.u.1X| 2.-.' ' j ' u E e.^ I.| ",
"9.u u 3X4 l a.l u X.l l / 4 ! E u | E / r.9.0.s.y.9.s 4 > , 4 1 4 4 d 4 4 t s d R y...| ;.r.9.5X<Xs.qXrXI.8XI.9.r.' / -.^ :.D. XC. XD.K.eX5.5.eX+X.X.XV.eXeXeXtXkXtXxXLXLXFXtXkXkXtX4XD.5.$.h 5 5 5 V $.C V $.$.$.( ( ] ] ^ B k V V V C C @.$.$.6.c.c.6.V.K..XS C $.@.V @.@.( :.t.i.:.$.] V ( ( t.u.P.i.D.D. XH.5.K.5.V.,.b.V.+.F.5.5.5.U.t.i.U.|.D.:.N 9.;.r.;.X.E ! O.8.y.8.X.u }  .f.<.Q ~  . .[.} Q W ` p.s.Q R X.8.1XX.| ..` 1Xu.q.w.o.{.{.` ) E r.[.! R ' f.2X9.<X` s.q.;.w.l W W @ , 9 r.M 3.y.3.s.0.5X/ 3.;.y W ' ;.3./ ",
"} R l p./ M <X! / p.R E | E } | R ../ / 9.;.;.p.9...s 1 , 1 d 4 d 4 d 4 4 t u d | s.;.| ;.p.0.a.{.r.<X<X;.<Xs.w.r.p.u.a.P.3.i.D.5.D.Y.5. XY.%.,.oXeX XeXeXeXtXtXtXkXGXkXtXkXkXlX+Xb.H.5.,.$.k 5 9 3 0 0 V :.( $.( ( ^ V k k z V B V V V V ( @.$.$.$.,.6.F.b.C C C C V V C ( $.@.$.( :.$.V ( ( ( $.3.e.5.6.:.5. X X,.C 5.5.K.b.K.*.D.D.D.D.6.$.$.:.U.U.-.( | 0.X.| } ! ! ;.0.q.` } <.) w.w.! ! X.8.r.X.! X.! q.X.X.) ` 2.{.o.' | ..u./ ..p.} p...8.q.! 8.8...2.| w.2.uXu.R 0.2.I.3XE ;.| M ..M ^ s $ , y W j 2.0.3XE 8Xw.s.3X^ ;.",
"R | E 0.| } d.} E {.! l X.R L ..| ;./ / 9.;.| q.;.O.u > 4 4 4 4 t d d d 4 d u l ;.p.r.0.w.9.2.r.y.w.s.<Xe.{.a.;.I.r.;.r.e.i.tX X.XD.5.5.5.K. XD.c.b..XeXeXtXeXeX+XeX+X+XtXtXtXtXF.eXn.5.@.x z 5 3 9 g z h g ( k ( ( V z j j j j k B V k k k V C @.C $.A C Z C A B V V V ( ( V V ( ( B ( ] V ^ V V ( $.:.4.:.( ( V B C $.=.K.&X+X*.c.c.c.5.5.C.D.}.D.U.4X4Xu.....;.;. .! ! ..w...X.o.<.g.7.w.0.! w.2.o.} ) } w.X...X.) 8.w.` 8.R ..0...0.' } w.` X. .X.s.W ....| {.R pXw.} {.| {.2.;.2X....| M q.u ^ M u M , # > M E y./ <Xu.qX6X",
"/ q.9.8.9.2.s.8.8.3X8./ a.| / ;./ ..| E / l u | ! l u , 4 4 4 4 d d d d 4 4 l | r.q.y.0.9.| ' | ....9.3...I.3Xr.5XqXa.<XU.5.U.U.|. XD.,.$.K.Y.K.K.D.V.V.K.oX+XoX.X X+XkXeXkXeX.X+X&XK.K.,.t.V z j k j z V z z ( ( k 6 5 g h h j k j j g j g j g g 0 f g % g g B V k V x h z ^ V ^ V V j V V k ^ V k V V j k ] ( ( k C D.c..XoXK.,.5.5.5.C.5.C.i.5.5.U.D.D.9.| X.r.X.8.` ` o...8.w.~ m  .Q f.f.} o.0.2.{.W 2. . .[.<.` W R 2.{.o...W 2.I.R `  .} y.a o.o.2.y.` W y.2.1X` M y.a.<X| ' u.3.y.8 ` | ` ..8 ` R E M 8 W , / o y N u.| ",
"s r.} } ;.8.q.r.0.3Xy.p.:Xp.0.3X5Xd.r...8.;.E ! l l y 4 4 4 4 d 4 4 4 d 4 4 E 0.a.<XqXI.s.a.0.;./ E W W l ..0.;.I.<Xa.<XqXU.U.U.i.U.t.5.$.5.K.Y.oXoXeX XK..XK.oX XF.tXlXlXxXtXeXeX+X X$.D.,.( k g 9 y z j h z j 5 3 6 9 9 5 5 y h 9 9 3 3 3 0 g % k g k g g k g C V h g j z V V ^ z B j j k V k ^ ] V B ^ V V N 5.5.5.5.5.D.c.$.$.5.5.5.,.5.5.5.5.D.C.D.D.I./ 1 ..2.,X..M t E f.,XQ U a ) w.q.9.E W } y.X.w.` W r.` <X' y W 2.y.w.M 8 a.;.y.~ t <.w.y.M a 2.} [.W 5Xf.} y.' M I.y.9.N ` {.| ' M q.M M ! 8 2.8 t R } | y y.' ;.y ",
"u <X/ M 9.E } | | r./ ! a.;./ s.9.X.0.;.;.8.X.;.} / 4 4 4 4 d 4 4 d 4 4 4 4 E r.r.r.I.r.s.p.8.9.0.2.0.r.;.r.0.2.I.U.e.e.U.}.U.U.P.D.C.,.$.%.@.C.H..XK.Y.c.c.V.F.V.+XkXoX&X.XH..X&Xc.6.5.eX:.( V j j z h y h 0 3 3 5 5 5 5 5 9 4 5 3 $ 3 3 0 3 3 0 0 g 6 g g B ( k k k z z k j z z 5 z k k B V V k k j B k ^ V ] :.:.$.@.5.K.$.$.5.5.D.5.5.$.5.5.5.i.5.t.D.e...| o.} w.)  .W ` <.q._ <. .` X.` 8.2.W ` o.o.8.W o.X.M 0.9.' 8.R g.8.} 8.} 2.q.R ) _ o.q.M o...2.f.` uX..w.{./ ;.| 2.}./ 4.` ..;.M | ` o.W a W M ` t w.W ' 0./ P.W ",
"R p.R R 0.W | } E 9./ / 0.| O.a.;.9.3...;.9.| | | } u 4 4 1 8 1 4 4 4 1 > y y | ;.0.p.p.s.p.9.s.a.9.a.0.;.y.u.;.u.}.e.P.t.|. X.X X X XK.5.%.,.%.$.$.*.,.*.5.,.S 5. XD.5.5.D.5.%.@.$.$.$.,.5.$.V h 5 l l 5 3 > > 3 3 4 3 3 > > > o o o O $ $ 6 5 % $ % 0 j B k j j j j j j j j j j h h j j z k j z z z z V ^ ( V N V ( $.5.%.$.$.,.5.$.$.$.5.,.D.t.U.C.t.5.' 4.` ` o.2. .2.X.X. .<.<.q.)  .8.} 8.w.| X./ 8.2.Q 7.;.' ;.} `  .` X.` 8.X.W o.<.2...E  .0.o.8.M 2.p.r.3Xl ;.p.2.2.' p.} ..0.W | E M ..j | 8 M u l E s | W y.' r.;.3.",
"/ a.~ R I.s R X.R ;.R l X.y l 9.^ / ;./ | ;.X.X.8.;.R ! E l E l l 4 t 4 y y M ..p.| 0.;.r.I.r.3X7XI.<X1X;.p.0.' 3.u.wXyXU.K.kXkXeXeXeXeX+XY.c.5.5.5.5.5.5.%.@.$.,.D.A $.D.t.C ( ( g k :.C.5.' z 9 l h 5 3 > > > 3 3 3 > $ O O o o O O O O O $ 6 $ 0 k V V N h g y 9 9 5 9 9 5 5 5 4 5 5 h h j j j j j j k B B z k B k V @.@.A $.C C C C 5.5.Y.K.i.D.U.U.( -.u.0.Q R ) ..q.q. .Q ~ 7.[.8.8.} ! 2.8.d.q.E ! X.X.0.E M / R p.2.m W a y.2.! M W 2.2.` E W 2.y.` o.W aXa.! } R y.p.| 8.R 0.-.M ' ^ ..W y ' W E 4 E R / } l 2...}.l }.",
"3.0.w...{./ ;.8.;.X./ l ..R y X.h L 8.4 qXqXiX8X8X8X0.d.9.X.X.X./ / M W , u ^ a.q.r.W | ......s.3XI.4XqXa.8X4X3.U.N U. XC. XtXxXcXkXtXtXeX&XK.b.b.5.c.V.5.,.:.$.$.V k $.( $.( h h k x ( -.^ j j y E 5 4 > > > > > > > O O o o o O O O O o O 3 h ( ^ B g 5 5 3 5 5 4 3 4 4 4 4 3 > > > 4 5 9 y h y h h h j j z z j k k k V C V V C C C ,.K.D.5.5.D..X4XV V ` s.8.8.` M M q. .p.o.Q Q <.g.,X` a W W <X{.X./ R 8.d./ o.E R 8.` 8.W t 2.} p.2.u ` 2.q.8.M W o.d.y.u ,X} f.8.q.} 8.a.w.a 0...` W u 2.W ' 8 u W y u l q./ ;.E | u.^ }.",
"^ -.^ l {./ E d.| / 0...X.8.} p.;.;.p.;./ ;.;.| ;.X./ | ;./ q.r.| <X3Xy.5X..| <X3XiXiXnXAXHXmXDXDXnXmXjXwXyXiX6XrX:. XeX XD.Z n.&XlXlXgXlX&X+XV.6.c.5.5.5.,.@.V V V k k z k j g j V ( ^ 5 5 h j z h 3 > > > O > o o o o o o o o o o O O > 4 j E j 9 5 4 5 5 3 > > > > > > 3 > > O O > > 3 4 4 5 5 9 9 h h j z N k z k k V V V V ( 5.5.c.5.D.c.D. X.X X:.3.' 9.2...w.! }  .~ p.<.X.8.} <.q.` 8.2.! 8.} X.9.R o.8.o.w.~  .8.) .. ...X.a <.8.} X.M  . . .| l o.X.1X{.! q...2.r./ w.W ;.2.' 3.N | ' l ' 8 / l E M l / E 2.W u.' a.-.",
"z / ^ M a.R ! a.L / r...} ;.X.8...8.0...| r.;.E } ' / ;.' / E E ' E / | W E 3.r.2.0.1Xa.e.y.3.u.r.e.I.a.P.7XqX<XrXU.k tXeXoX=.=.B.&XOX%XgX0XoX.XH.+X+XK.,.C k k E h 5 y y 5 h h z z 9 9 j l 9 y z 6 3 > > > O O o o o o o o o o O o o > 4 y h h 5 4 5 3 > $ O o O O o # $ $ O O o o # > > > > 3 4 5 y y y h l N B z j h k V V V @.,.5.D.5.C.K.b.C. Xi.:.-.r.2.| X.2.} 2. . .X.~ <.8.Q 2...} y. .X.X.W ..8. .8.Q 2.8.W <.<. ...E ..2.` } M } o.m ` a } X.} o.W yX8.} q.! 8.;.{.f.| 2.' -.| -.' ^ ^ W u E , E / r.2.r...3...| a.| ",
"4 9 | 4 | u 4 0.s R r.E | q.8.0.s.r.a.s.<XI.q.X.0.| W E M l u s l y 8 W ` ` w.I.{.{.{.U.}.{.u.0.;.../ N E ;.3.| U.rXi.U..X.XK.c.L.+X&XeXL.V.>.c.=.A @.$.( V z g l 5 6 9 y 9 z h j h N z j y N N h > 4 > * > $ O * o o o o . . o o o > 4 4 5 5 5 4 4 5 3 > o o o o o # $ $ o o o o o o # # $ > 6 5 5 y y y y h z z k j j k k V V V k @.$.D.D.,..X.XY.$.5.e.u.' M ` o.8.y.} R ) ! q.p...X.R X.p.W q.! a 8.8.g.<.a a w.w.0.W m  .) f.` M ` W 8.W M s u 8.} o.! W 2X| 2.W / q.;.rX| d.y.2.0.N 3.| E | 4 R / u l W ;.M ;.M 9 y s.jXzX",
"^ y 3.t ! ~ 4 s.4 t r.4 s ` M ! } / 0.I.d.p.a.0.a.r.X.w.| o./ E W u l ` a M ;.r.r.3X<X<X3X7XU.1X}.u.9.2./ ^ / -.3.V $.5.5.C.D.5.c.Y.L.b.b.b.K.5.$.( k k N 9 $ 3 y y y y 5 5 y 5 h j y 4 j h j y 4 3 > > * > > > * o . . . . . . o $ > > > 3 4 5 9 3 > o o O o o o o o o o o o o o o o # # > > 3 4 5 9 y 5 5 9 h j j j j k V ( @.:.:.@.:.C Z 5.5.Y.$.C i.3.P.r.;.W o.2.{.}  .W W w.w.q.p.R ! o.X.d.X. .W m y.g. .W t 8.y.) ` W R r. ...! m ! M w.E u ! ` f.' f.w.' ,X} M ..p.3Xr.<X| I.0.-.` | r.W u / R ' s l ! r.;.N r.3.iXpX2.",
"/ / q.! ! X./ 9./ / d.| ! 8...! X.} O.5X| ;.' | 2.| / o.o.` 2.;...| ..X.` ` | ;.;.3X5XP.y.r.y.a.u.s.I.p.u.I.a.3.P.}.D.6XD.,.%.:.,.tX$.,.%.A C C ( k j j 8 $ > 3 5 h 5 y 9 4 6 5 y 5 4 y y u y y 3 3 o * > > * > * o . . . . . o o o $ $ > 3 3 > o o o o o O . . . o o O O o o o o o o o # $ > 6 3 4 4 5 4 3 4 9 h j j h k ( :.5.:.$.@.$.$.C @.5.5.5.Y.D.t.e.0.e.r...0.w.} q...o.X.} w.w.! w.} } 0.a 8.2.) } _ <.8.E W  .` 2.! o.<.) w.M } ` u W R ' } M 2.l iXX.' r./ w.' y.r./ ..E | ' 3.2.2.w.| M E y W W 0./ a./ 9.2.qX5X/ R ",
"` R 0.' E 0.W | | } r.X./ 8.o.} 8./ ;.;./ ..-.W ../ W o.o.` o.;.X...w.} ;...0.s.r.{.yXBXr.y.3.r.y.r.d.I.r.P.U.9.iXu.t.C.D.H.,.C C C $.$.( ( k V E u 5 4 > > 4 3 y y y 9 5 4 4 4 4 4 9 9 y 4 4 4 > * * > > > > * * o . . . . o o o O o o O O O o o o o o O O o   o o o o o o o o o o o o * > > > 3 3 4 3 3 > 3 4 5 y j j z N ( :.$.$.( ( B k C ,.C.5.D.D.D.4.' w.2.o.;.| } w.} 0.8.} X...8.q.~ 2.X.R 0.} X.X.~  .} } X.R ) X.W ..R W 2.R | M ' W E ..M ' | ..,XW a.2.2.4.3.s.M ..-.^ ' W / ` o.} E ` M W u ' | | r.M u.-.a.<Xl 8 ",
"! M ;.! W s.| ' r.9.p.q.9.a.r.9.s.y.0.9.| ' M u / y y ' W R X.8.;.a.d.r.y.0.;.y.y.I.s.a.;./ / ....;.y.<Xa.qXiX}.yXwX6X XK.C.5.Y.,.( B k ^ ( k j h 4 5 y 9 9 y y 4 4 9 9 4 4 4 4 9 y 9 4 4 > > > > : : > > > > * o o . . . o o o O o $ O O O O o $ o O o o o o o o o o O o o O o o o o o O O $ O O O > $ O O > > 3 4 9 j B ^ ( $.$.:.:.$.@.$.,.t.C.6.D.3.3.3.N s.3.2.r.l E w.0.2X0.o.Q s p.,X....M R r.~ p.} 8  ._ d.q.R m Q q.y.m m R o.p.W W M M 9./ ;.u 5Xy.X.rXl / | U.P.M ! ` 2.| 9 E E / M , u ! } u ;.| a...] 3.0.` l a.' ",
"..8 ..l u a.M 8 | R ;.| X.r.X.I.8XpXy.p.e.2.0...;.' E | M y M E ' ../ ;.9.;.2.y.s.I.7X3Xp.r.w.0.;.| 8...9.iXrX}.wX4X X X.XD.5.D.:.@.( V V N h 9 y 4 9 y 4 4 4 3 4 4 4 4 4 4 4 3 4 4 4 , > o o o > > : > > > > > o o o o o o o o O o $ O O > > > o o o o o o o o o o o o o o o o o o o o O O O o o O o o o o O > > > > 3 9 j N V V @.$.:.:.:.:.:.5.4XD.K.U.5.-.' ` u.a.-.2.q.p.q.8.{.8.` o.;.y.f.W } ) R q. .X.) R <...w. .8 ! w.2.8.u M ` | w.l ' E ..q.R 5XW <X}.<X| W e...;.` E E M M E t R u M t a a W | M p...s.N 3.3.r.;...",
"1X8XI.5X5XI.7X3X8X7X,X8X3Xd.5XuX5XqX{.<X<Xu.I.I.0.s.y.2.0.w.X.2.| w.;.' ' / ' ;.0.y.U.1Xs.I.d.I.U.y.I.{.r.4XmXpXtX6XD.U.U.5.:.$.:.@.( V k j y h u y y y 4 4 4 4 3 4 4 4 4 3 , , > > > > * o o o * : > * > > > o o o o o o o o o o O O > > 3 3 3 > > $ > O o o o o o o o O o O o * o o o O O o o o o O O O O O > > > $ > 9 h j j k V V $.:.5.D.K.D.i..XD.U.4.U.-.] 4.4.-.P.y.I.p.W 2.8.9.0.l X.8.a y.` o.` s 8.o.` X.W X.o.` } M ` ..` 2.l W ;.! ..R | 2.{.y.M yX| r.;.0.r.^ / ' R R , 8 8 8 8 8 8 : y 8 W E ;.;.' 0./ s./ y.' I.",
"1X5X{.5X7X<XyX5XyX7X3XqX8X7XrXpX3XiXiX8XrX5XyXyX3XiXyX{.iXiX8XiXyXiXiX3XyXyXI.iXpX5XnXjXiXzXiXyXiXwX7X4Xp.qXDXiXtXeX4XwXK.5.5.$.:.( V k h h h h y y y 9 4 4 4 4 3 3 3 4 4 3 , > > > > * o o o o * * > * > > * o o o o o o o O O O > > 3 4 4 4 5 3 3 3 4 3 > $ O $ O $ O o O O O O o o O $ O O o o O o O O O > > > > > 3 4 4 3 3 3 3 0 C :.5.5.D.D..XC.5.D.5.D.] 3.U.3.e.u.a.{.o.! 8.M 2.s.M 8.} ` w.W 8.<.R 2.! w.8.R  .! X.w.M ` W ` w.W o.' ' 2.} ;.R 5X..rX5XW w.` 0.q.W | E W u : # # , : @   # o , / / w.;.w./ ;.` -.0.;.s.",
"/ w.w.w.y.y.I.{.a.7X5X5XqXI.l W s.rXiXrXaXyXpXiX8XrXyX1XrXiXqXyXqXrXI.3XyX8X<XyXpX8XnXnXaXmXBXnXAXnXDXDXmXJXBXtXmXFXkXtX4X5.@.$.( V V z h y h h y y 9 4 4 > > > > > 3 4 4 3 , > > > > * o o o o * * * o * > * o o o o o O > > > 3 6 5 5 9 g g g g g 9 g 9 5 5 6 6 3 3 > o o O O O o o O $ $ O o o O o O O > > > 3 3 3 3 3 3 3 3 5 3 0 V :.t.5.5.U.D.K.U.D.5.B t.U.|.-.u.r.-.f...8.o.R p.p.X...W  .f. .y.X.W W ) [.8.` ) a 8.8...! u ! 8.8.X.y / ! s.<XX.a.` yXq.' s.' u...M o.l `   # , # o # . #   : ! u E | 0.r.E y.' y.N 0.w.",
"u # # l y 4 8 8 M u u M y y y l l u R W | / ! ;.W w.' E q.q.} p.a.y.<Xs.I.7XI.8XiX3XzXmXiXDXAXzXDXBXmXDXjXmXFXkXmXxX XD.5.$.V C ( V k k h h j y y y 5 4 4 4 3 3 > , 4 4 4 3 > * * * o o o o o O * * * o o * * * > > > > > 3 6 6 3 5 h k k k k V x x x k k k g f g g 5 6 O O O O > O O O $ $ $ $ O $ $ > > > > > 3 4 4 4 5 9 h z 5 3 O O 0 ( :.5.D.D.Y.C.:.V 5.t.i.3.u.4.-...q.W f.8. .} ! r.,X! <.) W r.! r.2.W X.E 0.<.E } a 8.8. .` t o.0...3.M w.2.5X;.{.1XE ..` 0.3.t X.E M R , :   : o   # X o , W R 2./ w...w.| ` 3.| {.M ",
"/ R l | u u l u ' l l | l 9 9 j a W ! } s a E u l y 1 a 1 t M u u E M s M l R / / / w.3.;.P.|.u.6X6X6XiX6X5.t.4X XeXC.5.5.:.( $.V k B B j 9 j h y y 5 4 4 4 3 3 3 3 4 4 4 > * o * o o o o o o o * * * * o o * > > > > 3 4 4 3 3 6 g z V V x C @.C C C C ( @.@.x x g f 5 6 6 > > > > > > $ $ > > > > > > > > > > > > 3 6 6 6 3 9 y z j 0 3 j k g g f 6 f C :.:.5.4.5.3.i.N u.r.R o.) q.p.W 8.}  .p.W g.8.u 8.W 9.2.E o.` 2.y.! ..[ } 8.! | R / 9.' y.W {...I.{.W / ` 8.|  . .u E 8 # # > : > o o o o y E W ..` u./ 3.-.y.` -.| ;.",
"| ..E r.W E ../ 2.R W 9./ l / M } 8.8.q.8.X.r.X.X.| !  .R R R M R } E R ' / / } } | W E ..W ^ ' M j ^ ^ B j 5.:.5.5.D.K.K.5.,.@.( V B j j j y 9 h y 5 4 4 4 4 4 4 , 3 4 > * * * o o o o o o o o * * * > o o # > > > 6 5 5 5 5 5 f k x x V x @.@.C @.@.@.@.@.@.@.@.A x @.@.x f f 6 O > > > O 6 3 6 6 6 3 6 O > $ > > > 3 > $ > 5 9 y y 8 5 9 g j g ( $.$.5.5.5.:.5.:.3.t.9.a.;.w.8.W q.y.X.w.a 2.q.W f.o.o.<.E 2.<. .} a X.2.2.w.s ) } 2.w.W ! ` ..0.5Xy.M y.` | ` a ` ` ` } M a > >   > o o o   . # | a ;.M ;.| | 3./ 9...I.E I.",
";.w./ ;.W E w.l ..W W ;./ ' | / } p.0.y.y.y.a.;.;.;.} ! R R ! ! / ;.} ..2.;.;.9.8.0.r.q.r...W w./ ' 3.u.|.4Xi.$.5..XK. XK.D.( @.@.( V j j j y y h y 5 4 4 4 4 4 3 , , , * * * o o o o o o o o o > > > > O O > > 3 3 4 9 9 5 5 5 g k V ( @.C A @.A @.$.%.%.%.%.%.+.@.@.@.$.@.@.@.( x k V $ 6 6 > 4 > 5 6 6 4 > > o $ > 6 3 3 3 3 5 4 9 9 5 5 g V ( ( 5.5.5.t.:.5.D.i.u.e.P.<XW y.! ~ p.} p.8.a X.X.8.s.W  .! ! 8.E .. .Q 2.) 8X9X9X2XR {.w.2.' R X.` 5X0./ ` E 3.` M | ` y.E E W 1 1 1 o > o o   . , R o.2.E 2./ w.| | / ;.;.` 2.",
"9.r.r.' | | a.w.' 0...w.' E o./ E X./ 8.w.8.a.9.q.r.q.q.a.8.X.q.8.} ;.| y.w.9.s.a.y.p.f.{.s.a.a.P.9.u.|.U.:.$.:.H.eXeXeX X5.( $.( ( k h 9 9 9 9 y 5 4 4 4 4 1 4 3 , , > * * * o o o o o o o o , 4 * o O j ^ z 6 5 6 6 5 g g g k ( V ( @.@.C @.$.+.%.>.>.>.k.>.>.%.%.%.%.%.%.,.,.,.C @.@.$.6 5 g 4 E y 5 h 3 > > O O O O > 3 3 3 5 3 3 3 3 5 j ( ( V $.( B C 5.U.U.}.}.i.9.r./ p.8.p.X.R q.q...p.W  ...W f. . .} M 0.W <.<.R <.) <.q.o.} M y.y.2X<X| s.' 9.3.M | W o.| ..X.q.q.! ` : # o #   o .   W u / | | ;./ 2.| w.E s...s...",
"s.y.0.' ' l 0.E M 9.' ;.9.| y.X.X.r.8.8.X.X.a.| / I.! W 9.! X.o.q.q.iXjXAXJXnXDXDX5X{.y.f.w.a.I.1X3XU.wXC.$. XeX.X&X+X+XC.:.( ( ( V k y 9 9 9 9 9 4 4 4 4 4 1 > 3 3 , > * > > o o o o o o o * 9 3 4 h j z V ( ( z h h k k k x @.$.$.,.@.=.%.%.%.>.k.k.x.x.c.c.c.x.x.x.>.*.*.>.k.k.v.%.,.$.@.f f 5 3 5 h 5 9 5 > > $ o O O O > 6 6 3 5 3 3 3 3 g 0 g 9 k ^ :.u.D.}.u.u.;.1Xr.8.y.R p.d.2.8.} X.8. .[.} } ) ~ w.<. .<.R <.} ..2.M f.Q 2.9.! ` a ` X.0.r.M | E {.2.9...! s.' q.W W u , ,   # # . .   M ! 8.! 2...2.' ..W | y.| w.| ",
"r.0.r./ ;.W / / M ;.! / 2.| 2.o...r.q.;.9.;.f. .' ,X .~ 8.o.! 8.pXq.1XI.iXnXnXKXKXAXAX5Xq.0.r.2.d.u.}.}.5.Y.Y..X+XeXlXtX X$.$.B ( V l h y y 9 9 4 4 , 1 1 , > > > > > > > 4 4 > > O O o o * 3 h g g h V @.@.@.@.@.( C C C C ( @.%.,.>.+.%.>.>.>.v.v.v.b.V.Z.Z.Z.b.b.v.v.x.k.k.v.l.k.x.>.>.>.%.C g 5 g 5 6 h h 5 4 > O O O O O 6 $ $ $ O o O $ 0 9 g g k ( 5.5.U.u.e.e.2.P...2.8.` p.9.1X5XX.,Xw.2.d.~ 2.2.m 2.R 8.<._ _ t <.<. .g.~ } X.` 9.W  .! {.3.;.| E X.! 2.2.s.{.d.{.W o.8 X : # #   . . u y / 8./ ..W r.` w.M a.' y.| 0.",
"2.2.w.| } M } W M <.R E ' W ` ` ' 2.| } r...8. .} p.! ! X.! L q.;.| p.0.w.s.y.s.aXaXAXAX{.0.{.I.d.a.U.D.D.D.K.K..X.XD..X5.@.V k B z j y y 4 4 4 4 1 > , > > > > > > > 3 4 5 4 3 > > O O > 6 g z f g z @.@.$.@.@.@.@.@.@.@.@.+.=.,.%.,.%.>.k.c.c.b.V.Z.Z.Z.A.A.Z.M.M.M.M.M.v.v.v.m.v.v.M.b.k.*.*.%.@.6 f V k 5 h y 4 $ O O o O 4 9 5 j E ( ^ V ( ^ $.5.t.5.-.t.P.3.e.] a.{.;.s.;.| 2.M u.r.2.8.W p.d.y.8X~ p.g._ w.} ..} W X.W  ...q. .W w.` ` ` f.y.E 2...M ;.W 3.! u.E 2.` a R t r.a W #   , # M a X.! w.' ` ' | / ' r./ s...y.",
";.| X.E / W M R R o.u a ! R W M l / R l ../ ! W E ..X. . .8.! q.w.X.y.2...;.2.2.2.r.5XnXqX1XI.s.<X6X}.U.5.K.K.|.6XeXeX+X5.k V $.z z l h y 4 4 4 3 , > > > > > > , > > 3 4 5 4 > > > > > 6 h z x C C A +.$.$.+.+.+.+.%.%.*.*.>.>.>.>.x.v.Z.V.Z.b.Z.Z.F.J.J.J.G.A.G.G.G.G.F.Z.Z.Z.v.J.A.Z.Z.Z.x.x.%.&.>.x f k k h j 5 > O O O O 4 h 9 h z ^ ] ] -.5.t.U.4X XU.tXu.rX6X^ e.u.N 0.` u.u...2.` p.d.} 0. .o.<.M {.f.aXnX0.uX0.q.8.M ) ) 8.0.W ..E | } I.2.E ` E r.! ` 3.w.u.| 9.' ` u , 4 y 8 , , , y R R 8.` ` ! y.| 2.M w...r.2.2.w.",
"' W | E l 8 1 , : 8 t , M a a M E E l ! } M u E s s t a u !  .8.9.} 0.0...2.;.w.w.2.2.y.rXzX0.;.I.}.4XeX4X X6XD. X XK. X5.V V ( j j l h y 4 3 3 , > > > > > > 3 , > > 3 4 4 > O $ 6 6 6 g z x A +.+.@.+.%.%.,.%.%.*.>.>.>.>.6.>.c.v.v.b.Z.V.G.Z.F.J.J.J.E.Q.R.R.J.E.Q.E.J.J.J.J.^.J.J.J.A.G.G.b.Z.k.%.>.=.x g g h 5 6 > > O o O 6 5 j h j ( :.t.5.5.K.tXU.tXpX3.jXiX}.pXP.jXiX|.iXs.2X1X` 2.o.} y.! q.8.Q ) ~ y.q.<. .` d.g.aXpX8.s.! q.3...` W f.2.y.r.u | R y.` s.-.2.9.l M a 8 8 , 8 , a 8 X.! ` M q.` ..` ` 2.0.s.E u.w.s.' ",
"E E M E M > # 8 : 1 1 , t , 1 t , u 4 t u 8 1 8 4 : 1 8 t R R ! } ! / ' W ' ' ` | ..2.9.| nX8./ ;.3.9.4X6X|.U.U. XeXY.K.5.:.:.V j j h y 5 4 3 3 4 > > 3 > > 3 3 6 3 3 4 h z z z h g g k z x @.@.#.=.#.#.&.,.>.k.>.k.c.c.c.n.v.b.V.V.Z.Z.Z.H.G.J.L.Q.^.^.^.^.E.R.E.(./.!.E.^./.^.^.+X^.^.^.J.J.J.Z.Z.b.k.>.%.@.C C x g f 6 O O O $ 6 6 y j ^ $.-.t.D.Y.K.U.wXwXU.jXU.7XzXt.pXrXjXjXr.zXiX7XaX..pX7Xq.2XM 9.2.` 8.<.0.8.} X.R q.<.f.s.3.rX2.,XX.1X0.^ 2.` 2.X...9.| r.R y.` W W N u u M s {.s E } | X.! 2.W 2.| 2./ 3.| 2.| 0.3.3.",
"..;.| ' E u u E s 8 7 M ` t t u t t 8 u s 4 1 t 4 t u , 4 R R L ! E E ! E / W E ! E ' ' W I.;.R l / ^ ' ] 4.D.D. X6X4XY.:.V V g j h 9 9 5 4 3 > > 4 > O > 3 6 5 5 4 4 j ^ $.( k C x C @.@.@.+.#.&.&.&.,.>.l.c.v.c.V.V.V.V.Z.Z.Z.F.J.J.J.J.J.L.^.oXoXOX^.^./.^.!.^./.OXOXOX+X@X/.+X+X^.+X+X+XoXQ.Q.Z.H.Z.k.>.>.+.C S @.x g > O O 6 6 3 3 9 j ( ( $.,.U. X XK.5.D.u.t.3.:.4.7XwXyXpXu.pXs.aXaXd.iX1X<XuXy.iX9.uX8Xq.8X) f.w. .X.} 2.q.` 2.2.rX| {.3.` 8.9.,XW 3.} 2.y.X.3.W ;.M E M l R ' X.| X.` | ..o.| ' 3.' ;.E y.W y.W 0.^ a.",
"w.;.| w.' E a } t a W u R ~ ! ! / W W ~ M u a M s 4 t 8 M W E R O.W R W E / / E ! W } | ! W w.R a l N 2.-.$.3.U. XK. XY.:.( ( B j y 5 5 5 4 4 3 3 > > > > 3 9 y 5 h V ( $.@.@.@.@.@.+.#.+.=.&.&.k.k.k.l.c.V.Z.Z.Z.Z.H.H.H.J.J.J.J.J.Y.^.^.^.oXOX+X+X+X+XOX@X@X@X+X+X#X+X+X+X+X+X+X0X0X0X+XoX+X+XoX^.L.L.F.c.,.%.%.+.S x k 5 O o o O 6 3 9 9 h 0 j V V :.3.$.$.V ^ 4.e.5.e.4X-.9.2.3.` ..` | q.8X` zX<X5XaX..uX1XrXuXu.uXy.uX8Xs.7X .[.3.q.9.s.9Xm 0.8.0.q.3.{.2.5X} u.9.' | 9 y u R u ! } 8.X.3.r.E r.| 2.' ' N ..` | ;.` | ` 2.",
"r.0.;.r...3.` o.! R X.R u s t  .R W o.} } o...X./ W E u a } } R ` W R E E ' ' ' ..w.2.q.o.! q.R W R E ' ^ -.:.5.3.3.@.( @.V 0 j h y 5 4 5 4 4 3 > > 3 > > y l 4 z V ( $.$.+.=.%.=.=.=.%.%.&.k.l.c.c.V.Z.F.J.J.G.J.J.J.L.Y.^.^.^.^.^.OX+X+X+X+X+X0X0X+X+X#X#X0X#X#X0X+X+X+X+X+X0X0X+X+X+X+X+X0X+XoXoX^.^.Y.F.c.V.x.>.&.#.x f O o O 3 6 4 6 9 V ] ' $.B 0 g g $.}.D.t.5.t.|.|.e.e.e.u.' y , 1 1 t 8 u 8 u u 8 ` N 5X5X7XiX} rXq.uXqX5XaX| uXs.rXuX[.9X..<X..<.} W s.} y.M s.E 2.l 1 y t ` E | W 8.r.y.2.' ;.0.0.;.;.M s.W ;.s r.` ",
"y.q.;.y.;.r.o...E ! p.! M X.! o.~ ! X.E W / !  .! W / } R } } R W E l M M W ^ / } q.8.y.o.2.0.) 9.8.X.2.;.U.}.U.|.U.e.t.$.B j 9 y 9 5 5 5 4 3 3 3 3 > 3 y y h j ( ( @.@.%.%.%.,.&.%.&.>.k.v.V.F.J.J.Y.^.^.^.^.^.^.^.oXoXoX+X+X+X+X+X+X0X0X+X+X+X0X0X0X0X0X0X0X0X0X+X+X#X+X+X+X+X0X+XoX XY. X XY.Y.Z.H.J.Z.V.V.V.k.k.k.,.@.k 6 o o $ $ 3 $ 3 9 9 j N $.3.i.4.3.:.$.5.i.u.|.4.e.9.-.e./ 9.X.E ;.W W R M m M , m 8 , , # : : t a 0.3.1X1Xs.rX..uXf.dX2X9XiXs.8X2.6X2.s.u.! E u N M w.M 2Xo.y.3.E q.2.a...r...0.0.r.q.s.2.9...` 2.N ",
"0.w...P.0.0.|  .X.O.y.O.R 9.! | ! ! 8.! } o.O.8.X.}  .8.~ ! E a R R l l l M M E | 9.8.y.8.q.w.2.8.8.2.q.9.e.e.-.t.t.5.5.( k j h y y 5 5 5 4 4 4 4 > 3 y h h z ( ( @.$.%.,.>.>.>.>.>.x.v.Z.H.J.Y.^.^.^.^./././.@X+X+X+X+X0X0X0X0X0X0X0X#X+X+X0X0X0X0X0X0X0X0X+X+X0X+X^.+X+XoXJ.F.5.,.,.,.:.,.5.5.%.$.,.>.>.>.>.,.%.>.>.,.@.C h o $ $ $ 6 9 9 z j z z V ] $.( e.3.3.i.3.e.e.' e.-.2.s.} r.8.8.q.R ;.2.) o.E ` W W ` m ) u u u , , 8 , 1 1 8 u ) 8 8 7 dX[.5X8Xd.rXr.1Xo.s.` 2.| o.2.` o.W X.` s...u.y.7X2.' u.2.s.y.s.a.{.u.s.3.3.",
";.q.9.s.y.y.8.} w.O.;.} ~ 8.!  . .} p.8.w.q.X.8.X.o.W R 1 R E a R M l l l M l M ' o...0.w.0.;.} y.y.a.{.}.<X6XU.U.P.u.e.z j l 9 h y 5 5 4 4 4 4 3 4 y 5 5 ^ $.x @.@.%.*.>.c.x.>.>.c.V.Z.J.J.^.^.+X+X+X+X+X@X@X@X+X+X0X0X0X0X0X0X0X0X0X+X+X+X0X0X0X0X0X+X+X^.oXoX^.^.J.F.F.V.>.$.5.( ( ^ z V z h g x V ( $.$.$.$.C %.,.5.,.@.z o o O 3 > $ $ 9 j / h 3.i.t.$.' ' -.4.' e.3.N u.] {.2./ 8.M w.y.9.I.R <.` ` y.W w. .R <.E w. .o.o.s ` 8 E M 1 t 2 7 # 8 , , , M -.9.5X2.f.M q.a q.} 1X8.1X3X1X1Xu.{.w.8Xq.<X' 1X2.2.' w...3X4.wX0.",
"..3.| y.q.8.2.| a.;.X.q.8.p.o. .! L 8.E E X.} O.0.9. .~ t t a a M R l l j l l M ! ` o.a.s.{.d.2.q.8.;.w.0.r.4XP.6X4X}.3.j j 9 j h y 5 4 4 4 3 3 4 4 4 9 z ( ( V @.,.>.>.*.>.x.x.x.b.F.J.^.^./.#X@X+X+X0X+X#X#X#X#X0X0X0X0X0X0XeX0X0X0X0X0X+X+X#X#X#X+X^.Y.Y.Y.^.H.H.V.k.,.$.$.( ' j h h y y 5 9 y h z k j V ( V k k k $.>.$.( O o o o $ $ 9 h g l -.$.k 3.] ^ -.-.$.^ e.-.e.-.W 8.8.2Xr.o.X.W ` r.! p.W ) W ` 8.` 8.o.W ` ! 9.) 2.N W ..E o.E 8 ~ M X.R / , s 8 , : . # . , , W M d.| rX` 8X9.rX{.8Xr.5X1X5XU.u.P.y.P.3.2.3.1XP.",
"} w.q.p.q.;.w.W p.X.` X.` q.} } ;.X...X.} 0.o.} } ! R a t 1 u s M l l l l L R R E R ` 2.0.p.r.r.d.s.q.,Xs.r.}.u.}.<XU.' l j j y 9 9 6 3 3 3 3 6 4 h z V ( @.$.,.x.x.x.>.>.k.x.v.M.Z.J.^././.OX@X0X+X0X0X0X0X+X0X0X0X0X0X0X0X0X0X0X0X0X0X+X@X@X#X@X+XoXJ.F.V.c.c.x.C.C.@.@.$.L L h g 5 f f 5 6 6 f f h k k k k k V k k B @.,.$.+ O o $ $ > 6 3 3 N V ( V k ] N ^ ^ ] ] 2.` 0.2.2.8.E w.8.2.q.W 8.X.X.w.W 2.} } X.` 2.R ..2. .2.W | M ....w.X.R ' ' X.o.o.X.! ` R E M t u 1 , , , , , : 8 . M W u.X.8X9.yXw.7XI.rX0.wX3.3X4.1X3.i.",
"W q.8.q.a.2.2.! 8.' W X.o.| } W 8.X.| ..X.q.8.X.X.2.W t d , 1 t s u l l l l R R M W M | ;.9.I.p.,X<Xp.,X<X0.1Xs.<X6XI.^ N h h 9 y 9 4 3 3 > > 3 h V $.:.,.>.>.x.x.x.x.k.k.x.v.Z.F.Y.+X+X+X+X+X0X+X0X0X+X0X0X+X+X0X0X0X0X0X0X+X+X+X+X0X+X+X@X@X#X#X+XJ.V.x.>.,.,.>.,.>.( ( ( z z h h h g 5 6 6 6 6 g j k j h z ( V z k k k ( @.% O O o O O 4 5 h z ( e.e.4.( V ( ' ^ 3.| | X.` | ..W X.! o.} ' o.W X.| ` 8.M 2.} ..q.` 8.E o.` ..r.^ | | 9.' a.X.} r.f.8X2.{.X.o.o.M W 8 M M s 8 u M R W t R 8 s , t 8 8 , , W s.y.1Xy.}.r.|.s.|.",
"W y.;.X.q.2.w.! 8...! 8.X.o.;.8.8.} ! ` } X... .p. .R u 1 1 , , t s l l l l R R M M R / X.p.d.q.a.r.8.I.d.P.qX7X6XrX}.' j j 9 j 9 4 3 3 3 > 3 9 x @.$.>.x.x.x.c.c.x.x.x.x.b.Z.J.Y.^.+X+XoX+X0X0X+X0X0X0X0X0X0X0X0X0X+X+X+X+X+X+X+X+X+X+X+XOX@X@X^.L.H.V.>.$.+.@.@.@.@.x x x z z z z z h 5 6 5 5 g h k k k x ( $.$.$.$.( x x V 6 o o o > > 5 5 j E N 9 9 z ^ ( ( | ' 0.3.8.W ' w.X.q.f.w.o.R M R W X.! } ` M ! M w.X.} ..R ` W 2.| W ..0.;./ p.| aXqXLXDXzXaXs.uXo.f.R W W M W M W M M M 8.| 3.` E ` ' / y 8 # u , > 8 $ 8 j e.y.",
"! y.0.3.r.0.y.R ' M R 2.E ! X.X.y.<.X.q.X.X.;.} q.a d t 1 1 1 1 4 t u l l u l a ~ a u u R 8.:Xf.8X8X:X3XI.r.e.e.6X7X}.( N z 9 5 4 4 3 3 , > 4 l @.%.,.>.x.c.c.x.x.x.c.v.v.Z.J.^.+X^.^.^.^.0X0X0X+X+X+X+X+XoXY.+XoX^.^.^.^.oX+X+X+XOX^.^.^.^.oX^.^.Z.v.>.+.@.@.@.@.@.@.x x x x x x x x k g z z k x x x x C @.$.:.$.%.$.@.@.( V 5 $ $ o # $ 3 5 N ^ -.' / z l y 9 3 y 4 4 t y a R M R ..M ! u R M u u u ! W  .a s ! t }  . .! u M W ;.W s.;./ ' rXBXiXLXuXLX,X8X{.M W ` ` R ..M 8 W / } ! y./ y.| p.` r./ ' M ..u W M ` u M 8 j , ",
"M ;.9.;.r.9.w.R M / / 8.| ! .. .}  .` w.....2.8.2.E u 1 1 1 , d 1 4 t s s s u s M s ! R l ;.q.d.<XI.I.5X3Xs.3XP.4X6X<Xe.l E 5 y 8 4 3 3 > > 9 N @.%.>.x.v.v.x.x.x.x.n.b.Z.J.^.oX^././.@X+X+X+X+X+XoXoXY.Y.K.H.Y.Y.J.J.J.J.J.^./.^.^.Q.Q.Q.^.^.^.J.b.>.#.x x C C @.C @.x x x x x @.x x x A @.@.@.+.+.+.+.&.,.,.&.&.&.%.=.%.=.@.k o o o > > 5 j ' ' -.' ' E E z N N M l 8 t a 8 8 8 t 1 8 4 t 1 1 8 1 , 8 7 s u u a t R s s u s a M y / w.M | ' SX8XjXnXpXaX! ` R ! W } E W <.` ` s ` W X.` o.;.| 9.X.w...0.| ..` 3.' 9.W q./ ;.` ",
"R ` ;.;.a.q.2.<.M q.R 2.! W o.! ) w.} w.;.o.X.q.8.! a t 1 1 1 d 4 4 4 t y s s t s R M ! l W w.r.<X7Xf.5XqXs.6X}.I.}.4XP.| z y 4 8 4 3 3 > 3 g ( +.%.>.x.b.c.x.x.x.n.b.V.H.J.^.^.^.^.^.^.^.^.^.+XY.Y.Y.C.5.>.,.,.c.V.F.H.H.Z.J.J.Q.L.J.E.R.Q.E.J.Z.v.k.&.A x x x x x x x x x v x +.S S +.+.+.#.&.=.&.&.&.*.k.k.k.v.v.v.j.k.k.>.@.> O > , 4 5 h ^ ' | | ' / / | ' ' W W R ! u ! W R M s t a s R 8 1 1 1 8 7 1 , : 1 1 , , 1 , 8 8 8 t 9.R y E 0.pX2.jXy.2...! ` W ! M ! E M M ..E ! ` W w.` q.| y.` w./ w./ 2.` ;.^ | W u.` 9./ 0.",
"u a 2.;.a.q.o.2.! 8.M X.s R 0.~ R 2.o.p.q.8.p.p.X.R u s d 1 t d d d d t y s s t l M R } ! ;.9.a.7XqX1XqX8Xs.1Xu.}.}.;.u.' E h 9 5 4 4 4 4 4 z $.,.>.c.n.v.v.n.n.c.V.V.F.H.K.K.K.Y.Y.K.F.V.C.C.C.D.D.C.,.%.$.@.@.@.%.x.V.V.V.b.m.J.J.J.J.R.R.G.G.A.M.k.%.+.x x x C x @.@.@.+.=.+.+.+.+.#.+.=.#.&.&.&.&.&.&.k.v.v.k.k.v.k.k.v.n.*.6 o $ > 5 j ' -.9.9.| / / ' 0.2.w.8.~ W W M w.E w.| M R u W ` W R t 8 8 u R u t 8 1 : , t : 1 : , u l 8 8 4 qX2X1X7XM l u W y R M R M m ` u o.M s 8 ! | o.` W 2...s./ w./ r.' w.W ..| s.o.2.! X.",
"M t w.X.w.r.2.w.W q.o.W 8.! y. .!  .` 8.! ! y.8.o.X.! a u 1 1 1 q 1 4 t t t t t a M E / M | | q.a.a.I.,X8X<X8X7X3XqXP.4Xi.l l y 4 4 4 3 4 5 z $.*.k.c.v.V.b.v.v.V.V.H.H.H.H.Z.V.C.C.5.,.@.C k g x x ( ( ( C x ( x A +.>.k.l.l.v.F.J.J.J.R.R.E.R.M.b.k.=.+.A C A @.@.#.+.+.+.#.S S +.+.+.=.&.&.&.&.*.*.&.*.k.k.*.x.*.x.k.k.c.c.>.h $ 4 4 l E -.-.-.3.-.I.0...2.` X.2.! y. .X.w./ 2.` 9.8./ ~ M W } ` } M W t W ! W ` u s u 8 u 8 u 2.l , y E I./ 5X8 u l u E 4 u 1 M 8 N , y t t u s R t ! l ` E ` E ' ` ;.W | / 8.` 0.E y.` r.` ",
"M 8 w.w.2.0.9.w.W 9.M W | ! 8.} ! 0. .2.} X.y.8...o.! E , t d 1 4 d y t s y y d u / ` ! ! 8.8.d.:X2X:X7X8Xa.7X1X4XqXI.<XI.( y u 5 9 5 4 4 5 V $.k.x.v.b.b.b.M.Z.Z.Z.H.H.C.5.5.>.$.@.( V z j h h h h h k x C x x x x x %.>.>.>.x.Z.Z.J.J.R.!.^.R.S.b.k.>.=.S A +.D +.=.#.#.=.+.S S S #.+.#.#.j.&.*.j.*.*.k.k.>.k.l.k.k.k.k.n.c.b.N 3 > E ' | 9.} ;.r...0.X.2.0.` p. .8.r.} q. .2.q.} X...<.<.} <.Q  ...W o.u ` E } ! W } u ~ a W W ..W a M {.f.W W t ` a a u t u a u 8 M 8 , # 8 2 : , 8 8 t u , ~ a W M ! L / B ..W X.E <.`  .<.",
"W M w...w.3.2.r.| | ! E 0.` .. .! 8.....X.o.p.o. .} } } t t 1 t t t s t s s l u R / ~ ` } ;.q.a.:X1X,X3X3Xs.5X5X<X7X3X7X<X| y h 4 9 5 5 4 5 ( ,.k.x.v.v.b.Z.Z.b.Z.c.V.c.$.@.( x k z k h 5 5 5 5 5 5 5 g z x x x x x x +.>.*.>.x.Z.Z.Z.G.R.!.^.E.J.M.k.k.>.%.=.=.=.%.%.=.+.D S S +.D +.S +.#.&.#.%.&.#.#.=.*.*.v.k.l.k.k.v.v.n.V.:.6 4 X.| -.2...2.r.2.r.o.y.8...q.! 8.q.8.p.} 0.8.8.0. .q.<.o.w. .w.R 2.X.2...R X.! } R ! } ! W o.2.M W M 8X0.R W M ! M W M M s M u u 8 8 1 a 8 # : @ # : # # : : 7 7 1 i G H p G [ R M M } u ` ",
"<.} 2...| y.2.{.' W E ! q.!  .8.X.8.8.! X.! w.W ! X.}  .E a a d t t t t t t u s E ` R X.X.;.a.I.f.I.I.,X,X,X8XyXyXrXI.wX<X;.z h 5 y 5 5 5 y ( ,.k.v.v.v.b.Z.Z.V.k.c.%.@.( k h 5 5 5 5 5 5 5 5 5 5 5 9 h h z x x x x x @.%.%.*.k.v.m.M.Z.Q.^.^./.^.G.M.v.c.*.&.%.&.%.#.+.+.S S S A A A x c c c c c c c c c v S +.%.k.k.k.v.n.n.b.c.6 m g.<.e.w...} X.q.p.X.s.o.;.8.~ 0.} :Xp.8.q.~ 8.q.8.g.)  .} ` w.` q.E | } ..8.} q.} 8.R W } p.2.` o.} 5XR | ` ;.| ` W l E M l u u # 8 1 W t u a 7 t t 8 , 1 1 , 1 < < ; J -Xh.h.i U 7 t a u ",
"y.t | W w.a.w.X...' 2.o.q.` ! 8.` ! 2.} 8.y.;.2.} 8. . .} ~ E s t t t a s s a u ! R M q.9.} p.2X1X5X5X7X3X<X3X3XyX5X1X3X4Xe.l l y y 9 9 9 y ( 5.x.v.V.v.b.V.V.5.>.@.@.x 9 h 9 3 3 4 4 5 5 5 g g h h g z k x x x C x C @.@.=.#.&.l.m.m.A.^././.OXOXQ.R.G.v.j.&.&.*.#.+.+.+.S A v x c f f x @.%.,.5.C.>.,.x #.c c A #.>.k.x.n.v.v.V.9 _ g._ 2.2.q.p.2.y.X.8.q.X.p.X.8.r.} r.o.0.r.X.0.Q 7.7.X.g.) 0.o.o.8.} q.' o...o.2.W X.! o.w.9.` ) 2.! y.w.2.E ..W ..` W E j t t 8 , , , u a R a M M M a a t R s H Y h.Y J T -X-X7.U p 1 , 4 ",
"y.~ ~ 8...I.0.9.r./ f.W X.! R w.} } } ! d.2.w.o.X.9.X. .} W ! W a a t s t 4 u t !  .2.y.w.q.,X<X:X3X1X7X3X,X5X3X<X5X<XiXyXP./ j h h y y y h ( 5.x.v.V.V.V.V.>.$.@.$.k g k 9 9 9 4 4 5 5 g g k z x x x x x x @.@.@.@.@.@.+.+.#.#.l.v.m.A.Q.OXOX%X#XOX/.E.S.l.j.&.*.#.+.+.D A x c c c c x @.@.C V h k ( ( @.5.C.%.x x D *.k.v.M.v.V.W 1.[. .0.o.q.a.w.p. .f.w.8.f.} q.8.8.q.O.f.9.q.g.) p. .w.y.2.8.W X...X.q.| w.R } ) ..X.2.<.r.8.M ` W 9.X.1Xy.3.2.W / E M u u t t 8 8 # : 1 E M M W M R M Q W W [ -XJ K -XbXbXIXbXbXdX-XU e t ",
"..! M ;.w.0.w.| a.| w.` | o.} p. .! ! 8.p.,XX.8.X.p.X.o...} X.R R a a a a t W M } / 2.p.0.8.a.:X:X5X,X3X3XI.7X3X7X7X<XwX6XI.| E l l y u y h $.5.b.v.v.V.V.c.$.C ( k V k h h 5 5 5 5 h x x x x C A A S S A S +.+.@.@.+.+.+.+.#.#.k.v.m.G.OX%X%XgXfX%X@X/.R.m.j.&.#.#.#.+.S x c c c x k f % O . O O O 6 % k ( ,.%.%.x A &.k.v.M.M.V.-._ p.q.4Xe.r.9.p.r.o.g.o.q.f.9.p.o.q.y.O.y.E s.q.2.g.{ r. .w.q...q.| q.o.2.w.2.0.} 8.! o.o.s.X.X.8.` 8.2.pX! 2.| | E E s u u t 8 , # # # 8 R u ) R ` R ` R o.h.-XJ J K T bXbXbXbXbX>Xh.g.G } ",
"8.0.0.2.y.X.p.y.a.a.8.d.y.y.q.q.o.} X.p.q.{.;.;.;.r.| X.8.X.8.~ ~ l L l M t / R O.| q.a.q.q.I.:X:X7X5XqXrX3XrX8X4X3XwXwXqXu.u.L z z l j h h $.t.V.v.V.V.x.=.C k x C k g k 5 5 f k k x @.@.@.@.@.v A A A S S S +.+.+.+.+.+.=.#.&.k.v.Z.Q.@X%XgXhXhXgX%X@X!.S.l.k.&.&.%.+.S x c c x c % O O O o O o $ . g 6 f f c @.+.S #.k.v.M.F.F.C.V $.:.Y. X4X;.s.r.y.g.o.0.X.r.a.| p.o.8.8.8.w.X.d.q.8.w.W 2...9.y.<.y.R } / 0.w.<.o.` 8.X.2.) 8. .2.| y.p.} 9.W R 4 y 8 t 1 t , # . . . a u M } W 2.! X.~ 8.9XJ vXbXK K -XbXbXbXbXIX-X7.o.Q ",
"X.<.q.X.0.w.y.p.y.a.w.s.y.f.f.w.{.f.f.1Xq.{.{.,X3Xy.I.,X,X,Xw.d.p.w.X./ W s / R ! ..r.s.r.r.<X2X1X7X5X7X8X<XrXrXyXqX7XyXqXqXqXu.E E z l l z $.5.b.b.V.v.%.x k V k k g g g k x @.@.@.@.+.#.@.+.+.A S A A @.@.@.+.+.D +.#.#.=.&.*.k.v.A.!.@X%XgXhXhXgXfX%X/.G.Z.M.l.k.&.=.+.A x c f f % O O O o o 3 3 5 $.:.f % n % x +.+.v.Z.Z.F.G.M.S #.V.Z.oXY.i.u.| 0.q.X.s.X.y.r.q.p...d.8.w.p.{ w.Q q.0.2.w.W 8.} 2.r.w.2...8.! <.` o.2.o.o.` ..` o.` 2.o.o.` M M 8 8 y u t 8 : . # . X R 8 R M } ` ' E } q.J vXvXbXvXK K vXbXbXbXbXvXh.>X[ ",
"~ ` ..W } 2.0.r.q.p.w.f.f.0.d.q.,X[.{.2Xq.1X1X{.<Xq.<X5Xd.2Xq.2X5Xp.1Xq.,Xq.| 9.8.p.,X,XyXiXjXnXiXnXnXpXnXyXaXnX8XiXwX7XwX<X7X6X| ^ ^ E l z $.t.V.V.V.,.C k k k z V V V C @.@.@.%.%.&.%.%.%.+.+.@.A A S A A A A S +.+.+.+.#.&.&.k.m.A.E.#XgXgXgXhXgXfX%X!.R.A.M.v.v.v.k.,.A f f x @.k % O $ o o 6 O 5 :.3.z f f f x +.*.v.G.L.Q.Q.G.v.m.T.T.z.z.K.t.} p.h.,XI.X.p...8.w.p.s. .g.X.2.0.o.y.<.y.<...w.! w.` f.2... .! X.W 2.} I.| ..} X.w.2.q.W ` M u 8 8 1 8 1 , > . #       , R ! ! | M 3.! X.a 9XnXUXvXbXT K T bXbXbXbXbX-XY >X",
"# o.: t u R | / | W s a : E u t ` R R a a y.q.y.5Xd.3X9Xs.5Xf.9X1Xw.,Xa.p.X.| 8.q.f.2Xa.rXpXiXnXiXSXSXnXBXjXzXjXiXmXmXmXmXpXzXjX6X;.| ( E E ( C.V.b.V.+.x k V V ( ( ( ( @.=.,.>.*.>.*.,.&.&.%.&.+.@.A A A v A A A A +.+.+.=.&.&.k.v.A.E.#X0XfXgXgXgXgX%X!.R.G.R.Z.v.b.Z.k.x f f x @.( 5 6 6 > O O % ( :.@.C A #.>.>.k.n.M.G.Q.^.oXQ.G.m.m.z.].].^.5.w.d.o.s.q.w.q.o.p...w.q. .p.o.w.8.X.w.` 8.) X.<.o.8. .w.! 2.X.} 2.} 8.y.y.' ;.W 0.' y.w.y.8., t # 1 , 8 , , # # # o o # 8 ` t X.` | W  .q.{ vXaXUXUXvXvXK K -XbXbXvXvXdXvXbX",
"a 8.t 8 W R 3.' } o.M ! , } : , M 8 <.: 4 8 8 } > R 8 a .., t u u u W W } ` X.8.X.p.{.d.uXaXzXZXjXAXAXnXmXnXjXpXpXnXBXmXBXaXnXnXjX6Xa.| | ' $.t.V.V.c.C C C @.@.$.$.,.,.>.>.>.k.j.j.*.*.>.*.%.&.%.@.A A A x x A A A +.+.+.=.%.&.*.v.M.R.).%X$XfXfXhXgX%X@X!.R.Q.G.v.b.Z.k.A c c x @.$.( x x C ( ,.$.:.@.@.>.l.v.Z.Z.Z.G.~.!.OXXX^././.N.z.].b ].W.%.P.r.9.q.o.q.y.r.p.| q.8.q.p.2.y...8.<.o.w.<.8.} <.`  . .! w.` X.` o.} p.;.;.;.2.y.2.s.' i.u 4 : # , : , . , #   o # # : u M ` X.M <.` 8.X.8X<.aXsXsXsXbX>XK K T K T T -X-X-X",
"` W 2.M I.` s.2.2.u.| s.a  .W m q.a 2.1 a } a 8.s t ~ u X.t 8 a s M u u l a E u R  .' 1XKXKXLXKXKXKXLXPXPXPXHXHXBXAXZXmXBXaXnXnXBXDXzX1Xw.-.( C.V.V.>.A A +.%.,.>.>.>.>.>.k.k.k.k.j.*.*.*.%.+.v c f f c c c c x x A S +.#.#.&.*.j.l.M.R.!.@X$XfXfXhXgX%X$X@XE.R.G.M.M.Z.Z.V.k.5.>.>.>.>.>.,.>.>.,.,.>.c.V.J.J.G.M.A.G.Q.OX@XOXOXQ./.!.W.z.z.].z.`.V.P.w.p.p.} d.| p.q.9.y.} 8.} w.r.} w.` <. .<.w._ w.W ..) X.o. .w.! 2.} 8./ w.^ 3.-.r.3.0.3.s t . > : , : # 1 u : # o   # R R X.! ` W ..X.} aXf.dX-X{ f.vXbXK K K dXbXbXbXbXbX",
"o.R d.` 5XM 0...| 5X..I.W W 2.` 1XW X.1 t w.W 9.} ` 8.} 8.} ! } R R R  .} ! ;./ / ;.r.{.DXLXKXKXKXKXKXKXKXKXLXKXLXKXLXKXKXLXKXKXKXLXKXHX3Xr.:.t.D.C.%.+.+.*.>.5.>.>.>.>.>.k.k.k.*.*.*.%.A x x @.x x c c c f f c x x +.#.=.&.*.k.k.v.M.R.W.@X$XfXgXgXgXfX=X$X/.A.Z.M.M.m.Z.H.Z.V.k.%.#.&.>.>.k.l.l.c.Z.J.S.m.S.A.G.R.Q.!.OX@X@XOX!.!./.).A.z.].].T.Y.a.} ,X0.f.,X` w.X.q.p.p.p.2.0.;.;.q.X.q.{ <. .) <.o.w.` 8.! W ! ` 2.d.8.' ..' r.W u.' 2.N 8 1 , > : ,   t # : #   # # , R ` 2.` 2.^ ..! 8.uXsXw.sX>XUXvXT ; K K -XbXbXbX>XvX",
"2.M 1X! 1XR ;.y.X.5X8.s.R W s.! 1XR ` W ! ,Xo.;.o.} ,X8.y.8. .q.2...} X.8.| 8.} ;.9.s.1XDXJXAXKXKXKXKXKXKXKXKXKXLXKXKXKXKXLXLXLXKXKXLXKXJX<Xe.,.D.D.,.>.>.x.>.c.k.k.>.k.k.k.&.%.,.@.x x x k k f 5 f 6 6 f f f g c C +.#.&.*.k.k.k.l.m.A.E.@X$XfXfXgXgXfX$X$X@XE.G.A.R.J.G.G.Z.Z.V.c.>.&.+.#.&.j.v.k.S.Z.A.R.N.A.G.R.!./.@X@X@XOX!.!.@X@X!.z.].].S.4Xw.w.p.0.,Xp.p.f. .q.w.r.y.8.q./ 8.X.8.8.o.w.) ..` X.X.` ..` 8.! 2.M p.! } ' r...0.r.w.w.s W 1 , # , : # 1   1 u # : , u M 2.` ` R ;./ } } 2XsXuXsX>XvXJ J bX-XK K vXbXbXbXbX",
"I.l 3XW 0.' W d.X.5X2...` E {.W y.W R y./ 1X} X.8.R 5X<.8.8.8.p.8.8.X.} p.2.w.2.2.r.p.2XnXPXJXKXKXKXKXKXKXKXKXKXKXKXKXKXKXKXKXKXKXKXKXKXKXiXD.,.D.K.5.c.x.c.c.c.x.>.*.&.,.>.%.%.x x C V f % O O O $ O O 5 f 5 6 f A &.,.*.k.k.k.k.l.m.A.W.).$XfXfXgXgXfX=X$X).!.G.A.E.!.R.R.J.L.J.Z.c.>.*.*.*.&.#.#.&.j.k.v.m.A.R.!./.@X@X@X@X@X!.!.@X@X#X'.].].W.eXr.p.p.8.f.o.p.s.q.s.;.8.q.q.a.2.q.X.8.X.w.8.<.w.} X.W ` ) ` o.` 8...q.| | | e.| 0...2.E R R 1 : # , # ,   1 . 1 > 1 s ! W X.W | W w.' 0.! X.sX9XsXdXY Y vXvXbXT K ;XbXbXbXbX",
"qXl y.W E 2.! 8X2.{.8.| 8.R 5XR X.| ` {.} 1Xo.o.y.8.5XX.7.g.0.q.0.X.r.q.d.X.w.0.2.s.{.5XaXLXHXKXKXKXKXKXKXKXKXKXKXKXKXKXKXKXKXKXKXKXKXKXLXJXD.t.i.D.C.c.c.5.c.5.>.>.>.>.>.+.C c C g 5 6 % $ $ O # > $ 6 k V k f % x %.,.*.k.v.x.k.l.m.A.R.).$X=XfXhXgXfXgX$X!.!.R.R.E.E.R.!.!.Q.Y.Y.Y.J.F.C.l.c.V.F.S.J.^.R.OXOX#X#X#X@X@X#X#X@X/.@XOX@X%XW.z.].T.eX-.p.0.0.w. .d.8.s.r.X.r.X.9.w.9.0.8.8.} <.! 2.<.2.8.W 2. .) } 2.) [...8.| ..9.2.y.X.X.M ` u t u : : # ,   , : 4 M t u E ` ` 2.! ..| | E X.a g.9Xf.9XJ vXvX>XvXbXK K -XbXbXJ ",
"5XM ` } M d.` 8X| q.8.` ,XW {.` ` 8.o.8X` 2.8.W 5XX.8Xw.w.p.8.q.;.X.9.| s.r.;.p.q.{.a.5XaXLXaXPXKXKXKXKXKXKXKXKXKXKXKXKXKXKXKXKXLXLXHXAXKXKX<Xt.5.Y.D.C.V.c.c.5.>.>.%.=.+.C C +.C 6 f f > 4 * > $ > 6 O ( x k f c C %.,.k.v.v.k.l.v.m.N.R.!.@X=XgXhXhXhXfX$X).W.!.!.!.W.E.!.!././././.^.E.J.J.J.E.^.^.^./.OX#X%X0X%X@X@X@X@X@X%X#X@X@X@X@X$Xz.].T.tX4XpX-.iX2XuXuXq.8X! 8Xd.g.[.! o.R  . .8.8.<.2... .Q ! o.X.8.y.f. .g.` ..' y...y.;.| | l ' y R : t   1 : t : a t ~ R } R ;...9.` 2.E 8.W X.R ..8XsXG dXvXdX>Xh.vX>XK K vXbXdX",
"w.E W y.a 5XR ,Xo.8.{.2.5XE ../ / d.W 5XE o.8.o.1Xo.{.X.2.I.2.w.;.X.8.;.I.q.;.q.2.,Xs.qXjXKXLXKXKXKXKXKXKXKXKXKXKXKXKXKXKXKXKXKXLXKXLXLXKXKXjXU.C.U.H.V.V.c.c.x.x.>.%.A c x C c % g $.$.j 5 3 O $ > 6 5 ( ( @.:.,.,.>.>.k.b.M.v.v.v.m.N.R.W.).$XfXgXhXgXfX$X).W.!.).).!.!.!./.@X#X#X#X#X@X+X/.@X/./.@X#X#X#X0X0X0X%X%X%X$X$X%X%X#X@X@X$X@X$XW.z.`.4XiXyX<XaX8.sXq.iXuXp.qX..8Xp.8X5X,X8X .5X) 1X2.r.8.X.<.) X.) ` 2.{. .2.} w.q.| s.' o.W W E M u # 1   8 : 1 , u a W ` } ! W q.| ` ` X.W 8.! o.a 8.uXU sXvXY J h.bXbXK K T vX>X",
"M 2.E 3XW ,XM } ;.o.5X2.2XE W ..W 1X! f.` W w...,Xo.w.X.X.9X;.8.9.9.2.;.a.2.;.r.8.,XI.5XzXKXKXLXKXKXKXKXKXKXKXKXKXKXKXKXKXKXKXKXKXKXKXKXKXKXJXwXU.D.K.V.V.V.n.x.>.*.+.C x x g 6 g ( $.,.( 5 5 5 k @.,.,.5.,.,.,.C.C.c.c.V.Z.Z.m.m.v.m.N.T.W.).$XfXgXgXgX=X$X).W.!.).).).).).@X#X#X#X0X0X0X0X#X0X#X#X0X0X0X0X0X%X0X0X%X=X=X%X$X%X#X$X@X@X@X@X_.].T.hXDXpXnXaX,XsX8.sXs.sX8Xp.8Xo.8Xq.9Xd.1X1X0.2X` 2X` 2Xq.,X{.0.1X} <X` {.o.d.;.a./ ;.! R } s W 7 u , u : u t W s ~ ! ;...2.! 9.| ..' 2.E | W ` [ [ 7.g.sXg.h.J vXvXvXvXK K K K ",
"u {.W 8XM q.u u p...7X8.p.R W 8.W ,XW | W ` y.X.d.o.o.q.X.8XX.2.;.8.w.w.y.;.;.y.q.I.p.{.pXKXLXKXKXKXKXKXKXKXKXKXKXKXKXKXKXKXKXKXKXKXKXKXKXKXKXnX XY.Y.V.V.V.c.c.>.%.+.A @.k 6 5 h ( ( $.-.$.,.:.t.,.>.5.,.$.,.c.>.k.c.V.H.J.Z.m.m.m.m.N.T.W.).$XfXgXgXfX=X$X_.).W.).).).).).@X$X%X0XfXgXgX0X0X0X0X0X0X0X0X0X0X0X0X0X$X$X$X$X$X%X$X$X@X@X@X@X_.z.`.kXLXnXLXaXy./ s I ! t ) I X.) <.M [.R 2Xq.2X{.r.[.2.5X! ,X` 2X8.{.r.{.{.q.,XX.1Xo.I.! 8.! ..M M u ! 1 } t ~ t a R M } d.} M ;.| ....` X.W ..~ o.~ } 2XsX-XY Y vXvXbX-XK K ;X>X",
"M 8Xa f.M R 8.y {.X.2X8.2.} M y.R q.W M ..} d.o.q.} ` d...9XX.X.;.X.;.;.w.;.;.a.8.f.y.5XiXLXKXKXKXKXKXKXKXKXKXKXKXKXKXKXKXKXKXKXKXKXKXKXKXLXKXJXeX4X XF.F.V.b.v.x.%.+.A c f k g x ( ( @.$.$.,.,.%.,.%.%.+.>.c.5.v.V.Z.H.J.A.M.N.m.m.m.N.T.W.W.).$X=XfXfX=X$X$X_.W.).).).).).@X$X$X0XgXgXgXgXgXgXgXfX0X%X%X$X0XfX=X$X$X$X$X$X$X$X$X$X$X).@X).).'.T.FXKXHXKX7Xp.2.~ ` t t R s ) 7 Q s t 2 , u , 8 : 1 , u 8 E M } ` q.W t u <X` I.9.p.q.w.2./ ' a ~ M u E ! o.8.w.2.f.q.a.3.9.2.p...q.X.3.| o./ M R ! R w.sXdXY sXvXvXh.; J -Xg.q.",
"E [.W W } R ,XR 1XX.q.X.X.p.M 1XE } } E d.` {.' X.o.' ,XX.I.X.X.r.2.X.| X.2.2.a.X.y.a.5XyXKXLXKXKXKXKXKXKXKXKXKXKXKXKXKXKXKXKXKXKXKXKXKXKXKXKXKXkXeX XH.J.Z.M.v.x.%.S v x C @.+.%.$.>.5.C.,.%.>.>.#.@.%.>.c.V.K.Z.F.J.J.G.A.N.A.m.N.m.N.T.T.W.W._.$XfX=X$X$X$X$X).).).).).).@X$X%X%XfXgXgXgXgXgXgXfXfX0XfXfXfX=X=X=X$X=X=X$X$X$X$X$X$X).@X).W.`.T.FXmXKXPX{.[.w.w.8. .q.`  .o.) } R ) s R 1 t m t t 1 W , a : a : } : , m W a ! 8 8 M M R M M M t s 8 | u ` ! w.! y...f.| d.` ,X2.f.q.s.p.q.y.2.:X| p.X.9X-Xh.sXsXh.; J L X.u.i.",
"m X.` M q.W ,XW {.2.X.w.X.1XW d./ ' X.| f.} y.o.} 8.o.{.X.r.2.2.r.0.;.8.w.9.8.0.;.w.r.{.8XKXLXKXKXKXKXKXKXKXKXKXKXKXKXKXKXKXKXKXKXKXKXKXKXKXKXKXFX6X XK.G.Z.Z.b.x.*.+.=.k.>.>.c.c.v.v.k.>.k.>.%.%.%.>.>.C.H.Y.H.J.J.J.E.J.G.A.N.S.N.m.N.T.T.W.W._.$XfXfX$X$X=X$X).).).).).).@X$X%XfXgXgXgXgXhXhXgXgXfXfXfXfX=X=X=X=X$X$X$X$X$X$X$X$X).).!.W.R.W.).FXnXJXiX{.s.w.y.y.p.0.y.0.2.8.} X.X. .2.<.X.W 2.W ` m M ` M u l R 4 M ` W ) u y t 8 8 > 8 1 > 1 : # , , 8 , u t R m W E <.t u q.q.y.o.{.! p.o.a.a.w.q.p.8X9XsX-XJ J [ ' z -.a.",
"R u 0.u [.R y.E } | o.{.X.,XW o.E R y.o.d.o.X.} ` y.X.f.X.8.;.8.0.r.;.0.w.w.0.0.2.8.a.8X8XHXKXLXKXKXKXKXKXKXKXKXKXKXKXKXKXKXKXKXKXKXKXKXKXLXKXKXJX X XL.F.F.Z.b.n.k.k.v.l.l.v.n.v.v.k.k.&.l.l.l.k.c.V.H.Y.K.Y.Y.^.^.^.Q.R.G.A.N.A.N.N.N.T.T.W.)._.$XfXgX=XfXfX=X@X).).).).).@X$X%X0XgXgXgXgXgXgXhXgXfXfXfXfXfX=X=X$X$X_.)._.@X$X@X$X).@X!.R.W.W.!.xXHXJXp.{.y.3.d.8.q.8.w.q.8.w...w. .p.` 0.` 2.r. .2.} q.` 3.` r.l M W 0.` X./ M / 4 / y l # M : t 4 u 8 M : u : M , 8 , , # } M s , , , , : 4 u E W 9. .,X9XsXw J o.( @.V ' 7X",
"` M s.E p.R ! a t q...,Xo.y./ M 2.M ,XW 2.E W ;.! I.X.p.X...8.X.8.8.X.8.8.q.w.9.8.2.p.{.3XAXLXKXKXKXKXKXKXKXKXKXKXKXKXKXKXKXKXKXKXKXLXKXKXJXkXtXY.C.K.H.F.G.G.F.M.M.v.b.b.b.b.m.m.b.Z.Z.Z.V.Z.Z.Z.J.J.Y.^.^.+X+X+X+X(.(.A.R.A.A.A.N.m.A.T.W.)._.$X$XfXgXhXhXgXfX=X$X_.).).).).).0XfXfXgXfXgXfXfXgXgXfXfXfXfX=X=X=X$X_.).)._.@X@X@X@X).).).R.W.R./.kXPXJX<Xu.0.y.q.w.q.2.q.w.8.8.8.X.8.w.o.2.' q.' w.` X.8.2.} ` 8.8 | w.a.2.q./ 8.W | s W u 8 t y y u a ` M ` M  .u <.R ` : M M W M u , : 8 , , 1 4 4 1 , a yX,Xw o.;.:.:.-.^ u.",
"p.a f.a  .E a ! u f.o.I...X.o.u w.R ,XE X.R R o.! p.o.8. .} w...2.X.o.X.2.8.8.8.q.2.y.s.<XAXJXLXKXKXKXKXKXKXKXKXKXKXKXKXLXKXKXKXKXKXKXKXKXjXeXoXH.c.F.K.G.G.G.G.F.Z.Z.Z.A.A.A.J.G.G.J.L.L.J.J.J.Q.^.^.^.^.^.+X+X#X#X(.E.A.A.N.N.A.N.N.T.W.)._.$XfXfXfXhXhXhXhXgXgX=X_.).W.!.).).)._.$XfXfXfXfXfXfXfXfXfXfXfX=X=X=X$X@X).)._.@X@X@X@X).W.!.R.W.T./.cXKXnXI.p.0.q.8.q.w.0.y.8.w.X.8.<.<.X.w...2.X.o.w.} 0.W 2.` p./ } 2.0.2.w.....;.W ..E E , W 4 u 8 / M / ` w.o.X. .|  .` M u ^ ` w.a W u / 8 M M M E t M 1 <.[ H X.;.:.:.-.^ | ",
"y.t } a u ` M w.M p.} w.2.o.r.M f.` r.W W } W 0./ 9.o.o.X.} q...X.X. .o.X.2.X.X.X.2.q.f.,XnXJXLXKXLXKXKXKXKXKXKXKXKXKXKXKXKXKXKXKXLXKXKXKXtXoX^.Z.k.Z.J.J.G.G.G.G.G.G.J.R.R.!.^.!.Q./.OXOXOXOX/./.@X+X+X#X#X0X0X0X#X(.E.A.A.S.S.S.N.N.T.W.).$X=XfXgXgXhXhXhXhXhXgXfX$X).!.W.!.!.W.).$X$XfXfXfXfXfXgXgXgXfX=X=X$X=X$X$X_._._.)._.@X)./.!.W.R.W.R.).xXLX,Xr.r.r.y.2.w.X.0.8.8.w.7.<.2.r.} w.` 3.<.o.2.} 8.2.q.o.d.W 8.0.q.` w.W X.~ ! ' l l 4 u u y M M ` E o.` 8.) r.E s.R } M ..q.o.| / | W 2.W ` ` o.! ` X.W u o...9.:.$.:.;.N ",
"} s s } t 2.M q.u } ! ! 2.2.f.` w.W ' ` R w.W 0.' | ..} 8.} w.} X.2.X...X.X.X.X.8.X.p.y.f.uXnXnXAXZXPXJXLXKXJXKXPXLXLXPXKXLXLXKXKXKXKXKXKXjXY.T.A.k.Z.G.G.G.G.J.G.G.R.R.R.!.(./.OXOXOXOX#X#X@X@X#X#X#X#X0X0X0X0X%X#X(.E.A.R.A.A.S.N.A.E.W._.=XgXgXhXhXhXhXhXhXhXgXfX$X).).!.!.W.!.)._.$X=XfXfXfXgXgXgXfX=X$X$X$X=X$X$X$X_._._._.@X#X/.(.!.E.E.E.(.xXBXd.q.2.8.q.q.w.8.q. .8.}  ...w.2.<.y.} 8.` X.` 8.! 2.o.f.W 2.| 9.2.} 8.o.w.~ / R ' , E y M u ! u } ` } ! ;.` X...W } W ..M y.....M | E ' / ` 2.l 2.W ! } / ;.;.' ' -.$.| ( ",
"a ! s q.u 0.y 2.u M } R w.8.p.` } M E | / r.} 8...' 8.o.y. .8.o...8.8.X.X.X.X.X.8.8.2.w.d.yXnXaXZXnXHXAXAXHXZXJXHXHXLXAXHXAXHXHXAXJXJXLXPXDXS.z.m.l.S.A.G.G.J.G.R.R.R.E.E.E.!././.@X#X#X#X#X#X#X#X#X%X0X0X0X0X0X%X#X/.!.R.R.S.S.N.N.T.E.W.).$XgXgXgXhXhXgXgXhXhXfX$X_.).).W.W.W.!.).).$X$XfXfXfXfXfX=X$X$X=X=X$X$X$X$X$X@X@X_._.@X#X@X(.E.E.E./.(.kX}.<Xy.2.w.2.8.o.2.<.o.w.<.0.<.<. .` ! ..} 2.w.2.q.} 3.} {.| 3.2.y...| E } ! ! ! M l u t a t M M ` M ..M o.R 2.M w.t 2.W | ^ 0.3.M | N 2.E -.E ..| W 2.M ..E -.3.-.4.-.3.-.' ",
"u 8.u q.a | s R M a 2.` y.2.q.' ! ` R 0.} y.X.X.8.| q.2.p.X.8.8...2.8.X.X...X.X.X...w.8.p.2X8X2XiX8XaXaXUXZXnXAXDXAXHXZXHXAXHXHXZXHXAXHXAXJXF.z.z.z.A.A.Z.G.J.G.E.R.E.E.E.E.!././.#X#X#X#X#X#X#X#X$X$X0X0X0X0X0X%X#X/.!.R.A.N.m.N.N.R.E.W.!.#XfXfXfX0X0X0X0X0XfX0X#X/.W.T.W.W.W.W.!.).$X$XfXfXfX$X$X$X$X=X$X$X$X$X$X$X$X$X$X@X_.@X@X/.!.E.R.R.@X(.lXU.I.q.0.0.2.w.<.8.} <.} <... .8.o.w.' ;.X.w.' 2.W } } 9.` 2.2.y.;.| 9...8.R X.u | 8 W 4 ! y ! W X.W X.W } } ! ' W 2.E X.l 3.7X2.` | / / ;.M 0.W | / ..| / | E 3.-.| 4.-.$.' ",
"l 0.a o.M a R 1 ! s 2.! 8.| X.} R X.E f.! 2.} ! 8...q.X.q.X.X.8.X.2.2...X...X.X.X.2.2.8.a.1XsXuXSXaXnXZXnXAXaXnXsXdXuX8XyX8X8XyX8XiXyXaXzXzX^.z.].z.S.Z.Z.G.G.R.E.E.E.E.!.!.(./.).).#X#X#X#X_.).#X#X0X0X0X0X0X0X%X#X(.E.A.N.N.N.N.N.A.R.R.R.!.).$X#X_.#X$X#X_.).).!.T.A.A.T.T.W.W.).).$X$X$X$XfX$X$X$X$X$X$X$X$X$X$X$X$X$X$X#X_././.!.E.R.R.R.#X/.hXwXI.w.w.8.8.8.w.w.X.2.} ..) 2.} o.} } 2.;.2...q.} 2.` ,Xo.} o.u.o.| E ) ` | R E l j u M y E l / M } ! ..E 2.M 2.M ;.E | W M 5X' ;.s ;.l ;.E ` ;.E 0.u ..W E ;.l 9.-.-.-.^ -.",
"a ` W M W M } a 8.s ;.R o.| } ;.W w.! q.R E o.! ;.X.r.X.8.;.| 8.8.8.2.o.X...X...o.X.;.;.y.d.5X,X8X,X9X9X2XuX9XaXaXnXAXaXaXnXZXZXsXpXpXBXDXjXtXm.].z.S.Z.Z.Z.G.R.E.E.E.!.!.!./.).).).@X@X@X#X_.).$X$X0X0X0X0X0X0X#X#X!.E.S.m.m.N.N.N.S.A.A.A.R.E.E.E.W.W.!.W.T.T.R.A.N.m.N.T.W.W.W.W.).)._._.$X$X$X$X$X$X$X$X$X0X$X$X$X$X$X$X_.)./.!.E.E.R.R.T.%X0XtXD.a.0.0.9.0.0.p.<.X. .8.9.q.<.} 8.` X.} q...2.8...' X.q.} 3.w.2.` 3.W w.M X.u / 8 | , M E R M | R X.R | ' ! ' E ..M 2.8 w.M 3.2.' | l | u 0.E ../ R X.E ;.l / / l -.h N ] 9 ",
"M a ! M o.R 8.R 0.l W E W X.} 3.` 2.l ' ! ! ..) 8.} y.} o.2...q.;.X.X.X.| X.;...;.X.8.8.p.p.s.r.{.{.5XqXrXaXuXzXnXZXDXaXnXaXaXaX5XsX5XqXyXyXjXz.z.z.A.Z.Z.G.G.G.R.E.E.W.W.W.W.!.).).@X@X$X$X$X#X$X$X$XfX0X0X%X$X$X#X!.E.R.m.m.N.N.m.Z.m.m.m.S.S.A.S.A.A.A.A.T.T.N.N.N.l.m.A.T.).).).).W.)._.).@X$X$X$X$X$X$X$X0X$X$X$X_._.#X_.)./.!.E.R.G.S.R./.0XlXu.8.0.8.X.8.2.8.X.w.} ..` X. .o.o.` q.! w...r.W w.` y.2.0.| r.W o./ X.W / W u l l M y u R R ` W } R 2.M 2.a X.8 ..a W W E ' }.-.| | W ..| E 2.M 9.E | ;.E X.l / W l -.N N / ",
" .s 0.l 8.R } / ' / ' / W y.X.2.` X.~ R ` M } ) X.` w.`  ...| 9.8.2.8.o...o.X. .X.8.2.X.w.p.,Xp.I.I.{.<Xf.1Xf.3X2X,X3Xp.2X,X2X5XI.rX5XqXyX8XjXl.z.z.A.S.Z.A.A.A.R.E.E.W.W.W.W.!.W.).@X_._.$X#X@X$X$X$X0XfX0X$X$X#X#XW.E.A.m.m.S.S.m.m.l.l.l.l.l.m.m.m.m.l.l.l.l.m.l.l.#.l.N.E.W.).).)._._.).).@X$X$X$X$X$X$X$X$X$X$X$X_._.#X).)./.!.!.E.G.S.R./.gXlXt.2.w.X.w.2.<.X.8.2.X.X. .2...8. .q.' X.' ;.| ' o./ f.;.2.w.r.` 8.E 2.E ' u ' u / t ! M ' l ' ` X.` R / ! ` M o.8 2.u 3.u | 3.^ 3.N 2.E 2.| / 3.M 0.E ..' E -.N / ^ 3 -.9 ' ",
"X.R o.E 8./ W R E ;.w.| W w.2.w...W W M X.! 2.! } )  .|  .X.| w.X.X.X.| | ;.X.;.;...X.8.q.p.d.f.I.d.s.{.p.1Xp.5X1X{.1Xy.,X{.1X2Xp.5X{.3X2Xd.iXl.z.z.A.S.A.A.S.A.R.E.W.W.W.W.W.W.W.).)._._.$X$X$X$X$X$X0X0X0X$X$X@X).!.R.m.l.m.m.m.S.Z.l.j.j.j.j.l.l.j.j.j.j.j.j.l.l.#.#.#.l.N.W.).W.).$X#X).).).)._._.@X@X$X$X$X$X$X#X_._._._.)./.(.E.R.A.A.!.0X0XtX3.w.w.2.8.8.q. .w.<.y.o...2.2.8.X.8.! o./ ;.R ' M w.! o.} w.W / ` ! ! W M l l l l l M M l ' M w.E 2.! 8.M ..a o.W W ../ 3./ 9...| | E 9.l 0.W w.W W ;.l ;.E W ..u ` / l ..M ",
"R E t R R E E ! M ` / 3.' w.} X.} } X.! w.` } } ` } W 2. .8.| ;.;.;.X.X...;.| ;.X.| 2.;.w.p.a.q.{.d.p.d.y.2Xu.1X,Xd.2Xy.,X,X1X1Xs.2Xd.8X2Xp.wXJ.z.z.T.S.S.S.N.A.R.R.R.T.T.T.T.W.W.W.).)._._._.$X_.$X$X0X0X$X$X$X@X/.W.R.m.l.m.N.S.m.l.l.j.#.#.j.#.#.#.#.#.#.#.&.j.&.n c D #.l.m.T.T.).$X$X#X#X(./.).).).)._.@X_._._._._._.#X_.)./.(.E.G.A.G.OXgXgXeX-.2.o.2.} 0.<.o.8.W 8.} 2.! X.} o.' / ' } | ! 2.} y.R o.X.w.l X.M ..M ' y ' u W 4 W l / l ' R ' M M 2.R W a o.u o.R ../ W | ;.2.| 2.E ;.-.W 2.s 2.M ` ..y 2.M E ..y | R M o.",
"u L u L s ~ l ! W M R W / E ' ' ' E o.o. .} |  .X.8.| w.8.8.;.8.w.8.w.;.;.8.| 8.8.8.8.;.8.0.f.r.{.{.f.{.u.1Xp.,X2Xf.2Xy.1X,X,X2Xp.1Xp.5X2Xs.4XeXz.z.T.m.N.S.A.A.T.R.R.T.T.T.T.W.W.W.W.`.)._._._._.$X$X$X$X$X$X$X).!.R.A.m.l.N.M.S.m.j.&.#.#.+.#.#.+.#.D D D +.#.j.+ + + + c #.j.m.T.).$X$X$X0X/./.).).).)._._.@X_._._._.)._.)./.(./.(.!.G.G.!.%X0XeX-.X.X.w.! X.} 2.8.} o.} 2.} ;.` ..W o.R / l W W w.W ` M 2.W W ` M E M l y E u u M u u y W l X.t o.M ! a | R W W u X.y ;., / M | } M 2.9 ;.N E ` E | u W 3.l ..E E ' u / E u ",
"4 u 8 R t R R R u l R R M M W E / W W W ! | ! X.| X.X.2.8. .8.;.0.q.9.p.8.f.8.f.8.r.8.y.:Xp.8XrX8XrX5XrX1X8X2X8X8Xp.9Xy.5X1Xd.2Xa.9Xd.5X3X,X3X6Xm.l.S.m.N.S.A.A.R.R.R.T.T.T.T.W.W.W.`._._._._.)._.$X$X$X$X$X$X#X/.!.T.N.m.m.N.N.Z.Z.l.j.#.x c f v D #.D #.D +.#.v + + + n c b #.z.E.).$X$X$X$X#X).).).).).)._.$X$X_.).).)._.)./.(./.(.E.G.G.E.OX0XwX3.} ..| <.8. .X.) <.` ` ` o.! ! ` W o.W ..! | ` r./ X.| 8.M | R ` M / l E y E 4 M 8 W l ! W l ! R W M } t ..t ' l ! E l ' , ` 9.../ / ..u 2.M ' E s ;.M / W y / M E | t } M ",
"1 W 1 ! u ! w.} u 8 a 1 / W ../ | ! / ! s ~ E } / | X.| ;.O.;...8.w.2.p. .f.8.d.;.r.9.2.p.r.8X8XrXiX5XpX5XaXpXaXUX8XaX9XaXaXuXaX3XsX8XpXiX8XyX4X^.c.m.m.N.N.S.S.A.R.T.T.T.T.T.W.W.W.`.`.).).).)._._._._._.$X#X).!.!.A.N.m.m.m.S.A.l.j.j.c + X + f v D b D D D +.v c + n n c b #.l.W._.$X=X%X%X%X@X).).).).W.)._._.).W.W.).).)./.!.!.R.G.G.G.Q.+X+X4X0.X.2.' <.} X.X. . .` X.` ` } ;.! | E ' ! ' ! 0.} o.} 8.M W ' W ! W R E u y u l l E E E l ;.M ` W | W ` W R W a ` M ..u | u N e.-.-.8 2.M l ' y | u M 2.s ` ` 9 ..u u o., ! ",
"t W , W R o.q.1 t t s t | W / ' ..W W M a R l l M E l R R L ~ a W a W W R }  .w.9.8.8.} p.a.5XuXrXuX{.pX1XaXiXpXaX8XzX{.pXpXuXnX8XpXrXpXpX8XsX<XeXv.v.m.m.m.S.S.A.A.A.T.T.T.T.W.W.W.`.W.W.W.).).)._.).)._.#X_.).W./.A.m.m.m.m.S.m.j.#.v + X X + n v D v D +.D D #.D v v v v b #.m._.@X%X=X%X$X0X@X)./.).W.E.W.W.W.W.R.T.!./././.!.!.Q.R.R.J.J.oXoXt...o.2...X.} X.W X.! o./ W } / o.' ' ' | } o.' r.o.q.` 8.W } l ` l W 8 E , / u / M W M / E W W / o.M ;.R 8.R / W R M M | u | j -.| N -.s | W W ..8 | W y ` j N ^ 8 | l y X.t ",
"u R u E f.s.u t ~ a ` R ' M / / / / E 8 u M 4 / s W s R u a u s ! a R R R M a R E R M ! R R X.} w.8.X.y.w.{.d.1X8Xp.rX1XpXaXuXaX2XaXqXpXiXrXuX{.tXH.c.m.S.m.A.G.A.A.A.T.A.T.T.R.W.W.W.W.W.W.).).).).).).).).).).(.(.E.S.m.m.m.l.l.#.+.n + + % f c v v b D +.D +.#.#.&.&.#.b D l.E.).$X$X=XfXfX%X%X@X!.W.W.!.!.W.W.!.m.b E.!.(.!.!./.^.R.R.G.L.H.D.4.` <.Q <.} } } ` X.} } | / !  .} 8.} 8.' ;.' 2.o.2.' ..| ! } ! R l W t R s s R u | u ..M ..m | M o.' } | E ..W w.E | E W ` u ..P.' | / / l | l W ' y ..M M ' l E / y } l u | ",
"! a X.y.I.R } t  .R | ! | E ' ;.' 0./ / W / ! | R W R a E a W R ! R M R l a s u a a M W E ! 8.8.2.o.X.X.X.8.2.2.w.<.y.8.0.q.2.8.8.y.8.q.a.w.u.3.|.D.V.m.m.m.S.m.A.T.T.T.A.A.T.T.W.W.W.W.W.W.!.)._._._.).).)./.W./.(.E.A.m.m.l.j.j.#.D c c f x A v v v v D +.+.#.&.*.*.*.&.+.#.m.(.#X$X$X=XfXfXgX%X@X/./.!.!.W.W.E./.E.m.(.!.!.W.Q.!.^.!.R.G.L.5.:.4.8.7.` ..` X.) o.! ! ! / | | ..2.8./ w.} ..;.y.X.q.| 2.W | m ` R E a E 4 E u E u ' M E W W ) R X.a 8.M | ! / X.! ;.W | ' / W E r.| ' y ' M l | 4 W W y ' M j W u W / 8 } E y ",
"} W w.5XW a | s ..a W / | / W ;...0.2...W ;./ ..` } ! `  .} X.o.X. .} o./ } ! ` ! ! / / ! } 2.8.q.8.2.2.2.8.w.3.2.8.2.2.8.w.2...X.q.| 8.;.8.9.3.3.t.V.b.m.m.Z.Z.A.A.T.T.A.A.T.T.T.W.W.W.W.W.).)._.).).).).W.!.W.!.!.E.R.S.m.l.j.#.#.D v v v v @.v v v v D #.#.&.*.k.k.l.l.l.l.G./.0X0X$XfXfXfXgXfX%X%X@X).!.!.!.!.)./.!.E.(.(.!.Q.!.R.!.!.J.H.@.u.` q.o.<.2.....}  .E w.} o.X.` W X.W  .' ..W 8.2.8.' w.| X.' W W u l u s u s s t E u / l ` a } M M ! a ' l ' R } M ' ! M X.u ' E -.| / ' l | W y | u E E u M E y | E E ..u W W ",
"' p.0.! W E E u R a s | ;.| E ;.| 0.;.;.E ' | / } ! o.! 2.} 8.....o.} X.| ..} | | } | | 8.p.f.{.d.d.p.{.f.{.d.p.[.p.p.q.f.f.y.w.8.w.q.8.2.w.;.;.9.t.c.V.S.m.m.S.S.A.T.T.T.A.A.T.T.T.W.W.W.W.).).).).).).W.!.W.E.E.E.E.R.A.m.l.j.#.+.b v v +.D #.@.+.+.+.#.&.%.&.*.k.k.c.v.v.Z.(./.#X0X%XfXfXfXfXgXfX0X%X#X@X@X@X#X@X/./.!./.!.!.!.R.R.R.!.Q.Y.5.U.2.p.{ f.! y.` 2.` 8.X.X.X.! 8.X...! 8.W X.o.0.! w.' 0.W o.` X.E l l l 4 / t l u l R / M M / t E u ! M W E R / M } s W E E } E ' {.-./ E ' y W l l E y E W u / E u | l l / u E ",
"` 3XX.l a u t R , R s ;.8.| E 2...;.w.;./ / ..O.2.o.w.} w.o.q.9.X.2.X.8.X.X.o.| o. .o. .8.p.p.d.s.,Xf.2X{.3X2X,X1Xp.2X{.3X5X1X5Xa.<Xs.1X<Xp.I.r.I.D.C.V.S.v.m.S.S.S.A.A.T.A.A.A.T.T.W.W.!.W./.).).).).W.W.W.W.W.E.E.E.R.A.S.m.l.&.#.v v v v P #.#.%.&.&.*.*.*.&.&.>.k.c.l.v.Z.E.OX@X#X%X$XfXfXfXfXfX0X0X$X$X@X@X#X#X@X/.OX/.!.E.R.R./.R.Q.J.H.K.9.s.w.Q r.9.q.<.d.! 0.W y.W 8.E 2.~ 8.} 2.! 8.X.w./ ;.W 2.` 8.W E E l l u y l l E l / E E M ' u R R u ' l / u ` l W M y / t } l l 2.' / u M / y ' N u ' y u | 4 / W y ' W u / l ",
"d.8.a ! a E u E 8 } l 9.9.| W -.;.' r.X.| | ..| 3.2.w.2.X.<.X.8.2.8.X.8.X.X.o.}  . .X.X.8.y.a.,Xu.d.y.{.d.<X3X,X2Xp.5X1X5X8X{.7Xs.1Xs.2X{.1X<Xu.3XP.Z.b.m.v.m.m.M.S.S.A.A.T.A.A.A.T.R.W.!.W.W.).)./.W.W.W.!.!.!.!.!.!.E.A.A.Z.v.j.#.+.v v v b #.%.,.>.k.k.l.k.>.*.&.*.k.v.b.Z.G.OX^././.@X#X0X0X%X%X%X%X%X%X%X%X#X#X@X/.#X/.!.!.!.R.!.G.R.^.oX4Xj 3XW 1X` f.<.w. .q.X.8.X.} X.! 2.` w.} 8.! } ! | / ;.E | W ` E E u u u y E u W M } l / ' W ! ` / W / W ' W / ' / ` W ' M | l / W ' | / E E M E 8 W l u E W l ' y / / 4 / M l E ",
"y.} u } E ' u ..l E l | | l l l | | ;.;.;./ 9.| ;...9...2.<...8.X.8.X.8.;.o...} } } ..X.X.8.y.d.q.d.f.1X{.d.,Xy.,Xy.,X,X2X5XI.3Xp.3Xd.,X1X[.7Xr.3Xu.Y.Z.M.v.b.v.m.m.Z.S.A.A.N.A.A.T.R.R.E.!.W.W.W.W.W.W.W.E.W.!.(.(.(.E.G.A.A.Z.l.j.&.#.#.+.#.&.>.>.>.>.c.c.k.>.,.&.,.c.V.b.Z.Z.J.G.J.!.(./.#X#X%X%X%X%X%X0X0X%X@X#X#X/.OX/./.!.G.R.!.!.Q.L.D.V z E t a 8 8 t s s t R u u W E ~ l R u M M | W | E | l W M ` 8 M , u 1 a y u l l R R R W / s ` l E M M E M / N W W E W M ' u E W R E E E M l R M l l l l M R E l W u ! M l E M l ",
"M ` M ` E E E ! W R W | | l M l ..| ;.-.;.' 9.| ..X.o...` w.o.y.2.8.;.2.X.| ..} } }  .X.X.8.y.f.q.{.p.,Xs.s.{.y.{.y.{.I.2X<X{.<Xa.3XI.9X{.d.<Xr.3Xr.eX^.G.x.v.b.m.m.m.S.N.A.A.N.T.T.R.R.E.W.W.W.W.W.W.E.E.E.E.E./././.!.R.R.J.A.Z.v.l.l.&.%.#.,.,.>.>.>.c.v.k.,.#.&.c.Z.v.k.v.Z.v.v.Z.E.E.(.@X@X#X@X@X@X%X%X%X%X@XOX@X#X/.OXOX~.E.!.R.E.R.Q.Y.g j l u u s s 1 t e t 1 1 t t t t 4 t t s y W u u u M l M M E M M 8 t y.t a 4 , 4 u 1 M 4 l u l t u u t M l M j l M u W l R W u / l u M l l u u M y M u l M E l l l u l l u l l u ",
"a u W u R a ! R | l ;.;./ l ..R ;./ ;.;...| -.| | ;.W ..o.;.o.0.X.2.X.;.X.} } } } }  . .2.8.9.a.2.s.p.,Xd.a.<Xr.1Xp.{.f.a.<X0.<Xy.3XI.3X,Xa.<Xq.1Xa.}.+XH.v.v.v.b.b.m.N.N.N.N.N.N.A.R.R.R.E.W.W.W.E.R.R.R.R.W.!./././.(.E.R.G.A.S.S.V.c.%.%.%.,.,.,.,.>.c.C.c.,.#.&.V.V.V.v.b.S.Z.b.v.b.G.J.E.Q.!.Q./.OXOX#X#X@X@X@X@X@XXX!.!.E.~.E.E.!.R.L.K.V ( N E W t u m s u t 1 t t s t t 4 4 4 l E M u u E M E l E W W M y 8 a 3.<.1 , # u : 8 1 4 u 1 a y j 8 8 8 4 8 8 l 4 4 l 4 W 8 y y ' M l y l 4 u 8 8 u 8 s y , y 8 8 y u 4 y M R ",
"M y ! u | M / l / l 8.| / y | M | ' ..;.-.| ' -.' ;./ ;.o.2.o.9.2.8.2.;.;.} | ' } } }  .X.2.8.a.f.d.w.s.{.a.{.r.{.p.1XI.s.I.r.3Xr.3Xa.{.<Xy.a.2.d.9.U.eXZ.V.c.v.b.v.m.m.N.N.N.N.N.A.R.R.R.E.E.T.T.R.R.R.R.E.!.!./././.(.!.R.J.J.J.S.V.V.>.>.%.>.,.,.>.%.,.c.c.,.+.#.k.c.V.c.v.b.Z.M.v.v.M.Z.G.G.G.G.G.R.^.OX@X%X%X@X@X@XXX!.E.G.E.R.R.G.R.L.Y.:.| -.X.W ` ! X.! } W W W W R E l l l W E | E E R ! / | / ' / / R M 8 a t M q.8 8 1 M 8 u > u 1 8 8 4 u # y , 8 4 > 4 > y 4 , u , y u / M , y u 4 u , > y , 3 y # 4 l > y 8 r.;.E ",
"W M E u W E / R / L | ;.| W | / / | ' ;.-.| W ;.' 2.| ;.} ..} X.X...o.| ;.} | ' / / ` } X.;.8.a.w.p.r.a.I.r.{.y.{.y.{.I.I.{.r.I.0.s.r.I.a.r.{.| f.-.u.eXV.b.v.v.b.b.m.m.M.M.N.N.A.T.R.R.R.R.R.A.N.A.R.R.R.E.!.@XOX/./.!.!.E.E.J.J.Z.V.c.k.k.&.>.>.>.>.#.&.x.c.,.+.+.*.c.Z.b.b.Z.Z.J.A.Z.b.M.Z.A.Z.Z.Z.Z.G.G.R.@X%X@X@XOXXX!.E.G.G.G.!.R.Q.L.D.:.E ;.`  .} } } ) } ! ` ! / ! ! E W W / ..' / W W ` | / ;./ ' E E u t 8 t 8 o.{.E u a M 8 E 4 W t R s l R l E t E l y l > l l y E > / | M M 8 y M y 8 s 4 M 8 M s 8 , l 8 / | s.M ",
"R E E E E E E R / R E 3./ E l / E | ' ;.-.;./ 2.' 2...;.} o.o.X.<.X.X.| ;.' ' / / / / } o.2.9.p.q.s.s.a.{.e.I.e.s.a.,X2Xd.<Xy.}.r.<Xa.s.a.q.s.;.p...i.4Xc.c.v.b.b.b.m.m.M.M.M.M.A.A.A.G.G.A.A.N.N.N.A.R.R.E.!.@X@XOX/.!.E.R.J.J.Z.Z.v.&.>.c.>.>.k.,.&.&.,.c.c.k.,.=.*.v.Z.b.v.Z.Z.E.E.Z.Z.Z.Z.Z.M.Z.F.Z.M.v.b.E.&X@XOXOXXX!.Q.G.G.G.E.R.R.L.H.:.' 2.R X.W X.W  .! ! W / W ! W E E W ' | ' W W E E / W | M E l l 1 4 8 8 8 1 u.y.} 8 M l E E t a t M t M l y E y M 8 l / 4 E M s / E / | M ' u u E y N M y N W 9 / M M M w.U.l / ",
"l M E E E E / / E / / 9./ E M | E ..| 2...2...2.| ;...| } } } } X...<.} X./ / / / ' / ` ` 2.w.r.y.r.r.0.s.2.I.a.P.s.{.<Xr.I.0.P.r.<Xs.I.I.y.s.3.y.;.u.U.V.V.v.V.b.b.b.m.M.Z.M.M.A.A.A.A.G.A.S.m.m.N.N.A.R.!./.OXOXOX!.Q.R.R.J.G.V.b.x.%.>.x.>.l.l.>.*.k.c.V.S.V.Z.k.v.J.^.(.G.A.S.E.E.Z.Z.V.V.b.v.M.Z.M.Z.b.v.G.OXOXOXOX!.Q.~.~.R.R.R.R.G.G.K.( ..} X.....X./ W ` ! ! / W ! E E ^ / | ../ ! E R l W ..E M y l 4 y 8 t 8 8 u a 1X..q.E M 8 u t l a t u l M y l l u E l E E u R l l E ;.W / 4 M N s W u M E 8 9 W 3 M W u.3./ ' E ",
"M M l E l W E / l / E ..M / R ' W ' ' ..' ....` } | ..} ;.' o.` ..o.X.} ..' / / / / / / ! 8.0.y.y.y.p.q.s.y.wX7XwX5X8X{.y.I.e.P.0.s.p.1XI.u.s.;.p.9.P.D.Y.Z.c.v.c.v.b.b.Z.M.M.M.A.A.A.A.A.A.S.N.N.N.S.R.E././.OX/.!.E.R.J.J.J.Z.Z.v.k.&.>.&.>.k.c.b.Z.F.J.J.E.E.E.J./.#X0X/.(.(.E./.^.J.F.Z.Z.b.b.v.v.b.Z.G.M.Z.!.OXOX!.Q.E.E.Q.Q.E.J.R.G.F.H.V 2.E X.Q  .W } ! / E ! W ! E / ! ..` 0.W 2.M } R ` E | E M y y 4 4 8 , 7 , t 8 ' 1X' r.j l y u y u a M M 4 ' y l E u E u M a W R E l ;.' u E M M M y W y 8 W ` s ' M w.W y.^ N E ",
"u M u W j E l R l / l } l / l E E W E ! W / ' W } / ..} 0.| w.2.8.2.2.....| / / / / / / W 2.0.a.f.y.y.8.a.s.rX4XrXqXyX{.0.s.3.U.u.yX7X8X8X3XP.0.s.w.P.D.Y.H.c.c.v.v.v.b.b.S.M.M.S.A.A.A.A.A.A.A.R.R.R.E.!././.!.!.R.G.A.Z.F.Z.Z.Z.b.k.k.c.*.v.v.S.J.^.^.(./._._.).).$X(.T.m.z.m.A.E.E.J.J.J.Z.Z.b.v.c.c.V.F.Z.Z.G.^./././.!.R.Q.!.!.R.G.G.J.Y.$.;.E } } o.! ! ) E E ! ! ! W } | | ..;./ ' E ! ! } E / / u u 4 t > 8 1 , t t y u l {.2.y.M M u u l R 8 E M u M M E M M / R W ! M / W ;.| R / W l E ' y W N y M E j / 2.a.W ^ W E ",
"u u M l l l R E L L l E R R l / W E E E / E / E X.) o./ 9.W ;.| 2.;.X.| | | / / / / W / E ..8.y.f.q.y.w.q.0.7X1XrX8X7XI.0.1X3.P.r.iXrXqX3X6X<X2.d.2.u.i.U.D.c.c.v.c.c.c.b.m.m.M.A.A.A.A.A.A.A.R.A.A.R.E.E.!.!.!.R.G.M.M.M.M.b.v.b.b.k.c.b.v.J.J.E.^.^.#X0X#X0X#X0X).W.m.z.z.j.#.#.j.v.S.J.J.A.Z.b.v.c.k.k.M.G.J.J.^.OX/./.!.R.E.E.R.E.G.G.F.c.@./ } W ! ~ ! / ) W ! ! / R E ! } / ../ ' l ! R / u E ;./ t l t 4 4 , 1 8 t t R M W E y.s.y.W M E M l N j W l M E M ' / u } u M ! u / w.' / E l ..M M ` 8 N W l E E r.r.' W M W l ",
"M u M a R l E l E l E l R l ' l W E W W / l ' M ..' ..| o.` } / -.| ..| | | / ^ E W l E E | | 2.y.8.w.q.y.y.u.r.u.s.y.{.w.y.-.a.9.a.r.r.s.s.u.0.P.r.a.r.I.i.K.c.C.c.c.v.b.b.Z.Z.M.M.Z.A.A.A.A.A.G.R.R.R.E.!.!.G.G.M.v.v.n.c.x.>.b.c.c.v.Z.G.J.S.S.m.'.T.T.S.S.A.S.z.z.z.z.b b b b b b #.#.l.v.l.x.&.&.#.&.v.F.Z.M.L.oXOXoXQ.E.R.E.E.R.G.G.F.C.] / ..R } } X.} 8./ | M ' M W / | ..` / W M R R M R l ;.u R t t 8 8 , 8 a t M M / R } ^ | 1Xy.' N E ' E ' E E / M ` M | E M ' y W / l X.} W W ' W ' W M M y l W E 0.| 2.` W N M M ",
"s t a a l l R l R u ! l / l | E / E / / ' W | W ' ' | | | ` } ' ....| | / ' E E E E M W W ..;.2.0...q.q.w.0.s.r.0.r.r.a.w.r.;.r.w.s.y.u.a.u.y.2.y.2.r.w.u.3.C.>.c.c.c.v.v.b.Z.Z.M.M.M.Z.A.A.A.A.A.G.R.R.R.R.R.G.M.k.j.x.c.x.>.*.k.c.b.F.J.J.S.l.j.#.#.#.P #.#.j.z.P P b b b b b v v v v v v #.#.&.+.D +.&.c.Z.M.F.L.Q.oXOXQ.E.R.!.G.~.G.G.J.5.( r.;.w. .q.2.y.o.q...q.W | W ..W ' W / M E R M a M u } } M u 8 , 8 8 4 l R M W l ` R W W ` 6X4.W l ' / M / l ' W M ' j W W M ' E M ' I.' ' E | ..| ' E M l W W ` ..a.M W E M N j ",
"8 1 8 t y u l u l l l R R l E M / E / / / / ' W ' | | ....| | ....;.| ;.} | W E W E E W W ' ....0.2.q.2.r.r.u.r.9.0.r.r.0.y.0.e.3.u.r.w.9.w.r.3.r.;.0.3.e.:.t.5.c.c.c.v.v.b.Z.Z.Z.M.M.M.Z.A.A.A.G.R.R.E.R.A.J.G.v.*.&.>.x.x.>.>.b.V.Z.Z.S.l.&.#.b v v v v b b b b b b b b b v v v v v c c c c v c v v #.k.v.Z.Z.G.R.!.Q./.E.G.G.J.R.M.G.G.F.C.$.r.' r.! r. .y.} y...y.| ;.2.w.w...r...' | ` W o./ ..' X.M M M s u u E u l l E M E W W ` ' 4.rX2.' y / j E / 8 ' W l / E / ../ ..| ..;.0.| | ;./ -.^ l E N l E I.0.W ^ N j M N M ",
"> > > , , 8 8 t 4 t 8 u u l u l M l E E E W E E E ' ' | | | ' ..' ..| 2.;.| ' W / R W W W / | | 8.2.w.;.0.0.9.9.0.0.w.0.3.r.0.r.2.y.0.w.3.2.w.;.0...0.2.e.;.e.5.5.c.V.b.b.b.M.Z.Z.M.M.Z.Z.Z.A.A.G.G.R.Q.R.N.A.Z.n.*.%.>.>.>.k.k.v.c.c.l.&.#.v v v v v v v v v v b b v v c n n c c c c c c n c c c D #.l.b.v.M.Z.A.G.Q.!.Q.G.G.G.A.R.M.G.G.V.5.5.9.0.8.w.2.8.2.r.;.0...0.` u.| y...0./ w./ ;...3.' ..9.W X.W ' E / E ^ l W / ' / a / ..' ] ` ] rX0.^ M M N E W E / ^ ' ' -.-.| -.| -.P.-.9.;.-.-.' ' / E / / u.' | W M M E M y W ",
"  o . . . #   # > > > > 4 4 4 8 4 4 y s y l u M u l R W / / W ' / | ....;.' / E / R W W / / ....a.r.a.s.w.w.;.2.w.w...0.-.r.2.r.w.r.w.w.2...;...0.;.r.8.r.9.i.e.5.c.v.b.b.b.M.M.M.M.Z.Z.Z.Z.Z.A.R.G.G.R.G.M.M.b.x.*.*.>.>.>.k.l.S.v.k.#.v v c c v c c c c v v v v v c c n + + n b b b c c c v v &.m.m.Z.m.v.M.Z.A.G.R.!.E.A.M.G.G.A.G.Z.Z.V.$.i.' 0./ r.` y.' y.' 0.| 0.-.a.w.0.r.9.3.| r.' ..' ;.' 2./ ' ` M | / ' E E / / | ' ' | ;.` ` 2.] -.}.-.-.^ ;.N | -.| ` ..| ;.-...-.-.;.9.;.3.9.| -.-.| ' | ' 9.| s.^ N N N l N W > ",
"* :     . #   o     o   o o o o o o > > > 1 > 4 8 s s l l M l R l M W E ' W ! E W M E E E E ' | r.r.y.s.r.y.2.u.q.a.;.I.w.I.w.s.y.p.w.w.8.2.w.;.w.| r.;.0.;.e.3.5.5.c.b.b.b.M.M.M.M.M.Z.Z.M.Z.A.G.G.G.G.M.v.b.x.x.>.>.>.>.>.l.k.l.&.v c c v v c n n c c c c c n c c n n + n c z.z.z.z.z.z.j.j.j.S.!.J.A.M.M.M.M.M.G.R.E.G.M.m.M.A.A.Z.V.H.C.$.e.w.2.0.w.0.y.0.3.y.2.9.| r.' r.' r.E 0.` 3.` 3.| ..| W | y W R ^ E W E E E E ^ | | ;.| w.-.' 4.V -.u.' 4.` 9.-.-.| -.' ..-.| -.| | | ' 9.;./ 3.-.] ] -.| 2.r.s.` W ^ W M M N l X ",
"  *       o     .   o o . o . o     o         o   .     o   o o > # 4 4 y u l M E R E E E R W / 8.q.0.0.r.y...u.X.y.' s.;.f...p.q.p.y.p.p.y.y.;.y.X.a.2.u.3.u.0.5.5.c.b.b.M.Z.Z.M.M.M.M.M.M.M.A.G.G.G.G.Z.v.b.x.k.>.>.%.%.&.&.&.#.v c c c c n + + + n f n n + + + n c v v P P z.z.z.z.'.m.m.z.S.T.E.R.G.G.G.G.M.F.G.G.G.G.N.m.M.Z.G.v.Z.H.>.5.3.u.| a.` q.} 9.W y./ -.` 3./ w.;.2.2.-.3./ 2.' 2.N E N R l y ' j W M E E ` ;.| ;.-.-.' / | ' | -.N ' ^ ' -.-.| ' -.-.| -.| | -.-.' -.3.' ;.;.-.-.-./ ' -.2.' 2.| ` W ` E M E X . ",
": , : : > > : : 1 > u : >   # o # # #   : o o o # .   . o . o   o . o . .   .   . . . o o o # , , 8 M M E ` ` q...u.` a.X.f.o.p.8.p.q.q.q.y.y...q.} y.| r.| 9.2.:.5.c.b.b.b.M.M.M.M.M.M.v.v.M.A.A.G.G.G.M.b.b.x.>.&.=.@.A +.+.A c c c c c c n + + + + n n n c c v P P z.z.z.z.`.T.T.'.T.S.S.m.T.E.R.!.R.G.N.N.A.F.G.G.G.G.M.M.N.Z.M.M.Z.c.>.t.;.a...y.X.8.o.9.2.3.;.| w.' r.' 0.` 4.' 3.| | ;.' ` N N l l M W ^ / | ` ` ......| | -.| / ' | / ' ' ^ -.-.' -.-.-.' | | -.' -.| | | | -.-.| | ;.' ] ' | ` -.2.' ` W ` E N ^ o X X ",
": > > > > , 1 , t 4 4 4 4 4 4 > 1 > , : 1 1 t 4 8 1 , > : , # : o o     .     . . o # o o o # : # , # # > > # > > o # X # o # o : t u M W ! ..' 0.N 0.` 8.` ../ | :.C.V.M.M.Z.b.Z.M.b.b.b.b.M.Z.F.G.G.M.M.M.b.c.>.=.A x x x c c f c c P z.z.#.P b b P P b P #.#.P z.z.'.T.`.`.`.`.T.T.T.N.N.A.T.R.R.R.R.G.G.G.G.G.G.G.G.A.M.M.M.Z.Z.v.b.V.5.-.e...2...r.' r.' w./ 0.;.r.| r.2.| 2.` 2.| -.' ..| / W M l M E ' | | / -.N -.W W | ' ' ` ' ^ / ^ ^ ^ ' ^ -.$.( -.$.-.-.-...-.-...| -.-.| -.2.| ` -.' ' | | | ` ' ` ' E W M , X X . ",
": 8 # 1 > > 4 , > t t 1 4 4 4 4 4 1 1 1 8 8 t t t t t t t u t t s u R W ! / ! ! W l 4 : > > : : > , 1 , # > , o > # , > > > 8 , 1 8 1 8 4 > 4 > $ 4 # , . o # . o 5 ,.v.M.M.M.b.M.M.b.b.b.b.M.F.F.F.F.M.M.Z.V.c.&.S c c c f n f c v j.l.z.m.m.z.z.z.m.z.z.z.'.T.T.T.`.`.`.`.`.`.`.T.T.'.T.S.T.T.R.R.Q.Q.R.G.G.G.G.G.G.G.F.Z.Z.M.Z.Z.v.V.>.C.^ e...y...y.-.r.w.} r.-.0.' r...3.' w.2.2.w...-.| | W N l u M W ` ' ..^ / j E E W | / W ^ E R N E E / | ] -.-.] -.' | | -.-.-.;.;.;.-.' | -.| | | | ' ' ' ' ' / W W M E E M X X X   ",
"1 8 : 4 > 1 4 4 4 E R 4 4 4 1 4 1 4 1 4 4 8 8 u t t t u t u s t t t s s u s u s u s 8 1 4 4 1 , l 8 u u u M t u 4 M 8 8 8 8 , t t t 1 4 4 , 8 4 8 8 > , > # > > > 4 5.V.V.b.b.v.b.M.b.v.v.v.b.Z.F.F.M.M.M.Z.V.c.*.=.+.%.=.S S v #.j.l.z.z.z.T.T.T.`.`.`.'.`.`.`.`.`.`.`.`.`.`.`.T.T.'.'.N.T.T.T.R.R.Q.~.R.G.G.G.G.G.G.G.F.Z.Z.M.J.b.F.c.5.( ' ' ;./ ..W ;.W X.M ;.R ..| ;.;.' | ' ` ^ | E / E M l s 8 8 s l M M E l l y y M M E M M M s u y l l ^ / ^ ] ] / ] ` ' | ' / / ' | ' ' / ' ' ^ ` ' / ^ W W E E M u u u y y . X X . X ",
"t , 4 > 1 1 , t 1 ~ W 8 4 4 4 4 4 t 1 4 4 t t R u l y u t t s t u s s u s u s t 4 t 8 4 1 4 t u s M E E E ' ! } ! X.! o.` o.o.` ! o.} } ! W R y u 8 y s 8 , , 8 8 3 $.c.n.b.Z.M.b.Z.Z.v.v.v.v.Z.F.Z.M.M.M.Z.V.c.*.k.k.k.k.v.v.l.l.j.j.z.z.z.'.T.`.`.`.`.`._.`.`.`.`.`.`.`.`.T.'.z.'.'.m.N.N.N.N.R.R.R.R.G.G.B.G.G.G.G.G.F.Z.M.M.b.b.b.c.@.h / u / y M E a R 8 l u l y N y y u u y u 9 u y y y 4 # # # # # # $ > 4 3 8 9 8 y 8 8 8 8 8 8 4 8 8 8 9 9 y y 9 9 9 9 y y y N E l l N j j j j s u M s s t 8 8 8 8 1 , > , # X . . . X ",
"u 1 u 1 s 4 8 t , a ~ t t 8 t 4 4 t 4 4 4 t t R l R s u t s s u t t u s s u s s s s t 4 4 8 t t y l u } ! | 2.w. .9.} 8.o.X.X./ } ..} W E / ' W ` W ! R / l ' R ! l ( C.C.V.b.v.M.Z.Z.b.v.v.M.Z.F.Z.M.M.M.M.b.x.*.k.v.x.v.S.m.l.k.j.l.z.z.z.'.'.`.`.`.`.`.`.`.T.T.T.'.'.'.'.'.z.z.z.z.z.m.N.N.N.R.R.R.G.G.B.B.G.N.B.G.F.M.M.M.M.M.b.c.@.O * o . . . . .   . . . o . # o . > o O o # o o # o #   . . . . . . . o o # # o # # o o # o     o o o o # # # o o o . o o # o o . . . .   # o   o . . . # # # # # # o o . . . . X . . . ",
"8 8 s 4 l 4 l y a R ~ t t t u t s u s u s s s L l l s u y u u s u u s u s s u s t t 8 8 t 8 8 t u M E / o.p.8.{.r.<Xp.p.y.p.a.f.p.p.s.p.y.0.9.;.9...' / / W E M R u z ,.c.b.v.v.v.Z.Z.b.b.b.M.Z.F.F.Z.M.M.M.b.c.j.k.v.Z.Z.Z.m.k.l.l.l.z.z.z.z.z.'.'.T.'.'.'.'.'.'.'.'.'.z.z.z.z.z.z.z.z.m.N.N.N.G.G.G.G.G.G.B.B.M.B.F.M.M.b.M.M.b.b.V.f O >   : o , o # > # : # > # # # # # . . # # o o o o # o o o   o o o o   o > > o : o o o o . . . # o # o o o o . . o o o . > # o o   # # # : # # : # . @     o o o o o o   X X X . X . X ",
": 4 > t t 4 s t R W R 4 a u l M l M R l R l R R M M l l u M a a u l u u u u l l u u t 8 4 1 t s u M R E rXHXaXaXZXZXnXnXiXpXnXaXaXaXaX8X8X<X,Xs.s.r.r./ 8.! / ' ! l E ( ,.c.n.v.x.v.b.v.b.b.b.Z.F.Z.Z.Z.M.M.b.x.k.j.v.m.m.m.m.m.m.m.m.z.z.z.z.z.z.z.z.'.'.z.z.'.'.'.z.z.z.z.z.z.j.z.z.j.l.m.N.M.A.A.A.N.N.N.N.N.M.M.M.M.M.b.b.b.n.b.b.f 6 , : > 4 > > $ : > # > > o 4 . > > # 4 > : o o o # o # # o o o # # # # # # : : : # > o # o o # > o # # # # # > > > , , 4 , , l u # # , , , , , , , : , > > : : : : o   X . X X . . X   ",
", t 1 u 1 u 4 t u E l , l u y s l u l l l l l l E E E R M W R R M E W W E E M M M a t 8 t t t s s R ~ 0.nXHXDXJXHXJXHXZXnXnXMXnXZXAXHXBXDXDXJXDXHXAX{...;.} } R } E / k ,.b.n.v.k.v.v.v.b.b.b.b.F.Z.Z.M.M.M.b.x.k.k.v.M.M.m.m.v.m.m.l.l.z.z.z.z.z.z.z.z.z.z.z.z.z.z.z.z.j.#.#.#.#.#.j.j.l.x.v.M.M.N.N.M.M.M.N.N.M.M.M.M.M.M.b.b.b.x.H.C z l M 8 j 9 u u s s l y y W u l l u y 4 4 > 1 > , # o # > > , , , 4 4 t y 4 4 t 1 8 s 4 8 8 4 l 8 8 , 8 8 8 8 8 y 8 t 8 4 y 8 y 8 4 y 8 8 8 8 8 8 8 t 8 4 1 , > > > o . . X X . X   *   ",
"t 4 : l 1 u s l u / s 1 y 4 u 4 l 8 l 4 u u u s M l M l M l M E M E R ! E E E M M u 9 4 4 t s E M X.2.JXJXKXKXKXLXKXLXKXLXJXKXLXLXLXLXHXPXJXLXHXPXAX<X-.-./ ..R | M E l $.5.v.x.c.v.b.b.b.v.b.m.Z.M.M.M.b.b.v.v.x.v.M.M.M.M.v.v.k.l.l.l.l.j.j.j.#.#.#.#.#.#.D #.#.#.b b b b D +.#.#.&.j.l.l.v.N.M.M.M.M.M.M.B.G.N.M.M.M.M.M.b.b.v.b.Y.( l u l y j l u u s l u u u u u y y y y y 9 4 4 , > : : : > > > 1 4 t 1 t 8 1 1 1 8 4 4 y 8 4 8 y 4 8 9 4 8 y y 8 y y 8 y y 8 4 y u y u 8 9 8 8 u s s s 8 8 , 1 , 1 1 . . . . , p 2 : t u ",
"M # u , u s s u M E 4 1 4 l u t u u R u l u l y R l M l l u u y M M l R l l M u M y 4 > > > , 8 y R 8.HXLXPXKXLXKXKXKXKXKXKXKXLXKXKXKXKXKXKXKXLXKXHX3Xw.y.;.9.W ' M / z ( ,.>.c.x.v.v.v.v.v.v.v.b.b.M.M.b.v.v.n.v.M.M.M.M.v.v.x.x.l.k.k.j.j.&.#.#.#.D D D b b b b b b b b v S D #.#.&.j.j.l.v.M.M.M.M.M.M.B.B.B.M.M.M.b.b.b.v.v.b.F.Y.@.z u l j j u l l l l l u u u j u y y y 8 4 4 > > > # : : : 1 8 s 8 8 1 t t 1 4 8 4 4 8 8 8 8 8 8 8 8 8 8 4 8 8 8 y y 8 8 4 y y 8 8 l W M 8 y t u t 8 8 4 4 8 , 8 1 . . . . } uXX.9XaX9XX.",
"E # l o u t l l R W u l 1 ! l l u R E R R l R l E M E M l l u 4 E E E R R M M l M u 8 , , , > 4 t u / iXHXJXKXKXKXPXKXHXLXLXLXLXKXKXKXKXLXKXKXKXKXKXqX0.r.-.y.| 0...;./ -.@.5.6.c.v.v.v.v.v.v.v.v.v.M.M.b.b.v.v.v.v.M.b.v.v.v.v.n.x.k.k.&.#.#.#.#.D b b b b v v v v v v v v D +.+.#.&.j.j.x.v.M.M.B.B.B.B.B.B.B.M.B.M.b.b.v.v.v.v.F.Y.$.z l l l l l l l R l l u l l u u u u u y 9 4 , , > > : > > 4 8 u t 8 8 8 8 1 8 8 4 8 y 4 4 8 4 4 8 8 8 8 4 4 8 9 y y 8 y 8 8 8 y y 8 l E l 8 y M u 8 8 y 9 8 4 ,   . . o } 8X8XsXZXnXd.,X",
"t , > 4 y y u u M M M R , R l R l R R l u u l M E E W / E E E 8 E W / ! / W / E E l u s s y 8 u R E X.I.DXAXJXHXJXHXLXSXLXHXLXHXKXJXLXLXKXLXLXLXLXHX1X0.r.-.r.-.0...;.' ' $.$.5.x.c.l.l.c.c.v.v.x.v.v.b.b.v.v.v.n.n.v.v.n.v.v.v.x.x.k.k.&.#.#.D +.D D v v v v v v v v D +.+.#.#.#.*.k.j.x.v.M.M.G.G.G.G.G.G.G.G.M.M.M.b.v.v.v.v.Z.Q.oX5.V M l j l l l M l M l l l l u y y u y y 4 , > > > : > 1 4 8 8 u 8 8 8 8 1 8 8 4 4 8 8 4 4 8 8 8 y 9 4 8 4 d 4 t y t t u 8 8 8 y 8 8 u l / / / l | u y 8 9 9 y t X X . R yXHXJXDXMXaXaXHX",
"4 t o s 1 t y 9 a u u u > 4 l h R l R l l l l W N R E / E E M 4 u E / W ' / ' / E M M M l u u M / / w.w.7X{.rXyXjXyXaX5XSXyXnXjXZXaXnXSXDXHXJXJXHXZX1X0.3.4.2./ ;.' ..^ ' V $.,.5.k.k.k.k.k.k.k.k.k.k.v.v.v.v.n.n.n.n.n.x.x.j.j.x.x.k.k.*.&.#.+.+.+.D S S S A v v A D #.#.#.#.#.&.j.k.x.v.M.M.G.G.G.G.G.G.G.G.G.F.F.b.v.v.v.v.v.F.Q.oXc.^ W E M M M M W E W W / E W W W ^ W M u 4 , > > > : > 4 y u l M t 8 y u y l y 4 t y 8 4 4 9 8 8 y 8 8 9 y y y y y 9 y l y y y y y u l M / ' ' w.y j u 8 4 9 u X X . 7 nXJXHXSXUXAXsXAXsX",
": : > 1 4 t 8 y 8 t u s t 4 L u l s l l l R l E M E M E l l l 4 y E W E W E W W E M N M M l u N ' / 2.;.yXqXpX8XqX{.s.I.p.p.r.a.9X,X9X3X7X8X8XqXqX8Xr.9.3.r.2.| 0.' -.^ -.] $.:.,.>.k.k.>.k.k.l.c.k.k.k.x.v.v.n.n.n.n.v.x.j.j.j.j.k.k.k.j.&.&.#.+.+.D D D S S S +.+.#.#.#.&.j.k.k.l.k.x.v.M.B.G.G.G.~.~.~.~.G.G.G.F.b.v.n.n.v.M.L.oXoXH.( ' ' ` M M W W ' / ' / / ` ` ` ` ^ E l 4 , > , > # > 4 y y l l 8 8 4 8 u u y 8 8 t 4 8 y y y y y y y u y u y 8 9 y y l y 8 y u j u y u u 0.| 9 y j 8 s y ,   . . @ sXMXuX2XdXnXAXuX{.d.",
"4 > u 1 8 , . .   # > 1 1 > t 4 l s l u l l u M l E l E l l l 8 y E E E E E E E N M M l l l u E / ' r.^ qX}.pXyXBXpX1X/ JXDXJXDXJXHXLXHXHXSXnXnXAXpX..;.-.] W 2.0.^ ' / ^ e.k :.:.,.>.k.k.k.k.k.k.k.k.k.k.x.x.x.x.x.x.x.j.j.j.j.j.j.j.k.j.&.&.&.#.#.#.#.#.D D #.#.#.#.#.&.k.v.m.M.M.M.M.G.G.G.G.E.~.Q.Q.Q.Q.~.G.G.M.v.n.c.x.v.F.oXQ.^.H.V N M j M M E E ^ E E M M M M l M M u 8 4 > : > > > > 4 8 4 u u 4 8 , 4 y 1 1 8 , 4 8 4 4 4 4 4 4 8 9 9 y y y 8 y y y y y u l y u l y j q.W l M u y l 8 y : X . X uX8X_ X.9X,Xg.~ W 2. .",
"8 > t > y u u M E M t t s u t 4 > > : o : o > > , y 4 u u y y 4 4 M M R M E E E N l l u u s y l W W ` ' 3.| u.y.3X<X/ E iXyXaXyXaXsXnXaXnXjXnXjXnXnX..' / ^ W w.;.-.W E ^ h V V $.:.>.>.k.k.k.k.>.*.*.*.*.*.k.k.x.k.k.x.j.j.j.j.j.j.j.j.*.&.&.&.&.&.&.&.&.#.#.&.k.v.v.m.M.J.!.^.E.E.E.Q.Q.Q.R.~.XXXXXXOXOXQ.~.G.F.M.n.x.x.k.b.L.oXQ.oX XV N N M E W E W W / E l M M N M N N l y 4 , > , 8 8 s l u y / W y u y R N 4 y l 8 8 l y l j M E M N E M M E N M E W E l E u u M N l N 3.E ` E y l l u u M X . X R m m _ X.w...R ~ 2.)  .",
"t 1 , 4 t u y t l ~ , u 1 R 1 s t t W ! W M R W W W E l y 8 , # o , o 4 > 8 u u l y y y y 4 y y M W / W ' ^ ^ ` ^ | N E E u E R ` ` X.o...2.y.p.{.u.` / E N M 9.W ..E l N j B N ( $.:.,.k.*.*.>.*.j.>.&.=.=.&.k.j.j.j.j.j.j.j.k.k.k.k.k.k.j.*.*.*.*.j.j.v.M.Z.G.G.Z.A.R.!.!.!.!./././.OX&X@XXXOXXXXXOXOX!.Q.E.G.B.M.c.x.*.x.Z.Q.XXQ.+XY.V N M W E / E M ! E E M E E N l l N l y 4 , # u M E | W / e.W ' ' M | ' E ' M N N M ` | N ^ -.W ^ -.N -.` / E ' ^ j E ' j N N N N ^ ..` | B E j j l M M X X X ` <.f.[.w.) { )  .` ! M a ",
"t t 8 8 t y t t u u t 4 s s t s u u t u R E R R R R / ! E E E W W / ! E E ! W u u 8 4 > > o # > $ # 8 9 y 9 M N ^ / M M R l l l W / W l / M W E W M M M M M M 2.E / E l N j j j N B @.>.,.&.&.%.&.*.>.&.%.&.&.*.k.x.x.k.j.j.j.j.j.j.k.k.x.x.x.x.v.v.v.v.M.Z.G.R.Q.R.R.E.!.!./././.@X@X#X%X%X@X&X@XXXOXOX!.Q.G.G.v.n.x.*.x.b.G.^.OXoX+XoX@.V l W E W E E W u l E E E N M M l y 4 , 4 y y N ^ E ' ] N ' -.y ` ' E l E ..M ' 2.M W -.` M 2.` ^ ' W ^ 3.W ^ N | M M ' B N ^ W W ` | M j N 9 N y M X X X   # 2 . t < 1 1 , 8 1 1 , , ",
"a u t 8 8 t t t a s t 4 t 8 t t 1 a t a M R M R u u ! / / / N E l E W M u M l y E N l y l l l N ` l / | | / ' N E y 8 o # > . > , 4 1 9 8 y E u W u l M M M N E ' E E y j j N E ^ N V $.+.,.*.&.&.&.&.&.&.&.&.&.*.k.x.x.x.x.j.j.j.j.k.x.v.n.v.b.M.G.G.G.G.G.R.Q././.(.!./.).@X@X).#X%X#X@X@X@X@X@X@X@XOX!.~.G.B.x.x.j.*.c.H.Q.oXXXOXoX.X$.V N E M M E W E y u M M M M N N l y 3 y > l E W ' ^ / ' N | ' W ^ -.M E -.N 2.^ B M ^ ^ ] -.j -.' / -.2.l ' -.^ j ` ` j N | ^ M E N M l N j N N N O X X X # . # @ t 8 8 1 , 1 1 4 1 4 ",
"aXyXd.o.W M s t s d s , t 1 s t 1 t 8 u M R M u l s l R E W l l u l R E y l y l j M y 8 u j u l W y W W W M ` W W ' ` | ..' | | ..' ;...' ` ;.W R M E j 9 3 3 8 3 $ 8 3 3 $ 3 3 y 9 j g $.$.>.*.&.&.&.%.%.&.&.&.&.*.j.x.x.x.x.v.x.x.v.n.v.v.M.M.G.R.Q.!.Q.Q.!./.@X@X@X/.).@X@X@X@X$X$X@X@XOXOX@X@X@XXXXXQ.~.G.M.j.j.*.k.b.K.oXOXOX&XoXL.%.B N a M M M l M l M l N M M l j 9 3 , $ 4 y ^ ` N N ] N ^ ^ N ^ / ^ ^ / ' ' ' -.| ^ 3.' ^ ' -.-.-./ ] ^ -.| -.^ ;.E / -.] / N M N M M j l l y y 6 X X   o o : , 8 7 7 8 8 4 8 4 4 4 4 ",
"ZXZXBXBXBXnXaXuX3Xp.! a 4 u t t M 8 t t a R ~ a t a l E W E E u l j M R u E u l j M y 8 y j y u M j M M M M N M M M W E / W / } ` ` W ` ' w...| / ' W W | | ` W ' / | -.| E | | / ..^ ] ( %.+.%.%.%.&.&.%.&.&.&.=.&.*.k.x.n.v.b.b.b.b.M.M.M.F.G.R.!././././.!./.).@X@X@X@X@X%X$X$X%X%X@X@X!.).@X@XOXXX!.~.G.B.x.j.*.*.x.F.L.oXOX&XOXoX+XH.k j u l u y 8 y M W M l l l l j 9 8 8 3 M M ] -.] -.-.' -.^ ^ ] ` | 2.;.-.-.] N ^ -.] ^ $.( N ^ N j j N j B y j B j l B j j ^ / E E N E l ^ z y X o X o o > , 8 8 8 8 8 8 8 8 9 9 9 8 ",
"MXMXnXnXnXMXBXMXZXnXZXZXAXaXqXf.W t a a a R W R u R a E W W E 8 u u W u M R M l M M s 9 y M M M M E E -.0.I.u.r.0.2.;.W W W ` ` | ! | ` ' ;.' ' W ' / W W ^ ^ ` W ` -.-.| E ^ ^ | / ' N B ( ,.=.=.%.&.&.&.&.&.=.=.&.*.k.x.n.b.M.M.M.M.B.F.F.G.L.E./././.OX/.!.!./.).@X/.@X@X#X$X$X$X@X@X@X).@X@X@XOXXXXX~.G.M.x.*.*.*.n.H.L.oX&X&XOXOXQ.H.g 3 > > > # # , , 8 , , 4 8 8 8 3 4 8 y l N N E ] ' ^ j ^ ] ' 3.| 3.2.9.r.u.P.e.3.3.r.i.| e.3.] 3.-.3.] ] -.] ' -.^ ] N ] ] ` ^ N ^ N N E N W . X X # o # 4 8 y 8 4 8 8 4 8 4 9 8 8 8 ",
"MXMXMXMXMXMXMXMXVXVXVXMXMXMXMXMXZXMXMXZXnXuX[.X.E R a R ! ` ` M l u ! u M u l u M M y y 8 s s u u M M W E / W W ..q.9.s.{.u.5Xs.7X,XrX,X1Xa.<Xs.a.y.3.;.-.` ' ^ | ' ' ^ ^ ^ ^ / / N E E N ( :.:.=.%.%.%.&.&.&.=.=.%.*.k.x.v.v.M.M.M.M.F.G.G.G.E.R.!.!.!.!.!.!.!.!.!.!.!.!./.).)./.)./././.!.!.@X@X!.Q.E.G.M.n.*.*.k.c.B.L.XXOX+X+X&X&XXX X:.^ W / ` ` ' ..| | ' / ` / ^ W E E N E ;.-.^ ` | ' 2.-.-.-.| / 2.` -.-.-.-.' -.| 3.-.] -.4.B 3.4.' ] -.] ^ ^ ] ' W ^ ` ^ ^ / / ^ N N N N E X . X o # # , 8 l y u y y 9 8 9 8 9 8 9 8 ",
"VXMXMXMXMXMXMXMXMXMXMXVXMXMXMXMXMXBXMXZXMXMXMXMXBXnXnXaXyX2Xy.X.! M R M W R W R W E l l y y 8 8 y u W W / E ' E W E } E W W ) ) ` | ` ..| | ' -.9.2.w.3.2.| 2.| ` / | ^ ^ | ^ / ^ / ^ ^ ( ( $.5.=.+.+.=.=.&.&.=.=.=.*.k.x.v.v.M.M.M.M.B.G.G.G.R.G.R.R.R.!.!.!.!.W.E.R.R.R.E.E.E.E././.W.!.!.!.!.Q.R.G.G.M.n.k.&.*.c.V.F.L.oX&X&X&X&XOXoXoX,.^ ` E ` / W ' ' | ` ` ` W E N N N M W ` | ` ' ' ' -.] -.4.4.] -.3.^ ' 2.-.;.-.4.' 0.4.-.] 3./ -.-.-.^ V ' ] ^ ] | ' ^ ^ / ^ ^ ^ N E N B X X X > # # , s u u y s u 9 8 8 9 8 9 8 9 8 ",
"MXMXMXMXMXMXMXMXMXMXMXMXMXMXMXMXnXMXMXMXMXMXMXMXMXMXMXMXMXMXMXMXVXMXUXsX8Xd.8.' / W M l a a u s t l E ' ' 2.2.8.2.y.2.w.o.X.<.X.;.8.;.` ;.' | ' / / ' | -.2.| ` ' | ' / ` / ^ ` ' ( ^ E N ' V t.*.+.@.+.+.%.&.=.=.=.=.&.j.x.v.v.M.M.M.F.G.G.G.R.G.G.E.E.!.!.!.!.E.A.S.A.A.A.N.S.A.T.R.R.R.R.R.N.N.N.M.M.b.k.&.=.x.b.F.L.XXOX&X&X&X&X&X!.Q.c.] W ` ' ` ' 3.-.| -.` ' / E M E M ` ....| ' ` ..' | -.-.-.] 3.4.] 3.3.' | -.' ' e.4.-.-.| ] -.4.' V -.' ^ -.' -.] N ` | ` E / E E E N o . X o , > , u l j j y y u u j 9 j 9 9 9 y 9 ",
"MXMXMXMXMXMXMXMXMXMXMXMXMXMXMXMXnXnXMXMXMXMXMXMXMXMXMXMXMXMXMXMXMXMXMXMXZXZXZXZXBXAXZXaX5Xw./ R a R W ` | 2.w.w.2.y.w.y.w.y.y.y.a.0.y.2.a.9.a.0.s.y.y.9.-.| ` ' | | ' / ' ` ` ' ` ^ ^ E N ` ^ t.>.*.%.S @.+.+.=.=.=.=.&.&.j.x.n.v.v.M.M.G.G.A.A.F.A.G.R.Q.Q.Q.Q.R.S.m.m.N.m.m.m.v.N.N.N.N.N.N.N.N.N.M.v.*.&.*.x.b.M.G.Q.OXOX&X&XoX&X&XOXQ.L.@.-.-.` y 4 y | | X...` | M E R W 2.s.y.;.2...3.| -.4.-.-.e.-.4.u.| -.3.-.` 0.0.^ r.2.-...2.4.-.-.3.] ^ 3.-.' ] ' -.] ` ` ' ' ^ E l 8 o . . > > 8 l M E l j M y y j j 9 j j 9 j 9 y ",
"MXMXMXMXMXMXMXMXMXMXMXMXMXMXMXMXMXMXMXMXMXMXMXMXMXMXMXMXMXMXMXMXMXMXMXMXMXMXMXMXZXBXMXMXMXMXMXMXMXMXMXaXuX9Xd.q.8.w.2.2.X.8.w.q.f.w.p.w.s.9.a...s.0.2.;.;.;.| ..;.....;.| | ` ' ' / ' ' W / ^ :.V.*.%.+.=.+.S +.+.=.=.=.&.*.k.v.n.n.v.M.M.M.M.M.M.M.Z.G.R.R.R.R.A.M.m.v.v.v.v.v.m.M.M.N.v.v.v.v.x.x.k.*.=.#.*.c.M.F.L.XXOXOX&X&X&X&XOXXXQ.L.+Xx % . . . . l } ! W W / X.3.y.X...W ` 2.9.q...2.e.-.-.-.4.r.3.| 3.;.4.' 3.| ..r.-.| 4.4.-.-.4.4.-.-.-.-.-.-.^ -.] | / ^ ' ^ ^ ^ j X . X , o 4 M l N j N j j E l B j N j j j y 9 y ",
"MXMXMXMXMXMXMXMXMXMXMXMXMXMXMXMXMXMXMXMXMXMXMXMXMXMXMXMXMXMXMXMXMXMXMXMXMXMXMXMXZXVXVXVXVXVXMXMXZXZXZXMXMXMXZXZXZXNXZXnXaXuX8X5X,Xy.w.2.2.8.a.w.0.2.;.;.....| ;...| ....| ` | | ' ' -.| / ( ( $.,.*.x.*.+.@.S A A S +.+.+.=.*.k.x.n.v.v.v.v.v.v.v.v.m.M.A.A.A.A.A.M.m.v.v.v.v.v.v.v.v.x.k.j.j.j.j.&.&.=.&.*.x.n.M.G.L.XXOXOX&X&X&XOX&XXXQ.Q.Q.eXH.f X X X $ E a M W ;.2.;.} ! ) M ` R ' o.0.0.w.3.2.e.r.4.3.i.r.-.2.s.u.y.{.y.y.u.a.u.u.a.u.r.w.r.0.0.9.4.4.-.-.-.2.| ' / ;.N X . . 4 : > l M E N M N E N M N B B B j 9 j 9 j 9 ",
"MXMXMXMXMXMXMXMXMXMXMXMXMXMXMXMXMXMXMXMXMXMXMXMXMXMXMXMXMXMXMXMXVXMXMXMXMXMXMXNXMXNXVXNXMXMXNXVXMXMXVXMXVXMXVXMXZXMXZXMXBXZXBXZXZXZXZXAXnXaXuX8X3Xd.r.2.| | | | ;.....X.| | ....| | ;.' ^ / ( @.5.5.>.>.=.D A A A A A A S D =.%.*.x.n.n.x.x.x.k.k.l.l.v.v.m.m.m.M.M.m.v.l.k.j.j.*.*.&.&.&.&.&.&.*.=.+.=.*.x.b.b.F.G.E.oXOXOX&X&X&XOX&X&X~.~.Q.!.%XeXL.f X X z M l u R W ` ` ! W R s u M ` M ..r.9.0.3.0.3.i.u.` u.a.a.u.y.y.s.y.s.u.y.u.u.r.r.u.s.s.s.I.u.s.y.s.s.a.r.u.0.9.9.0...^ s , l E W E B N B B N B j V B j B g 0 Z C 0 ",
"MXMXMXMXMXMXMXMXMXMXMXMXMXMXMXMXMXMXMXMXMXMXMXMXMXMXMXMXMXMXMXMXMXMXMXMXMXMXMXMXMXMXMXVXVXVXMXMXMXMXNXMXMXMXMXMXZXMXZXVXZXZXZXZXZXZXZXZXZXZXAXAXAXZXAXAXAXDXZXnXsX8X{.y.2.X.o.o.' ' -...' | | ( c.5.*.*.k.%.S S A A A A A S +.+.=.*.>.k.>.k.j.*.j.j.j.k.l.v.v.v.v.v.v.k.j.j.&.&.=.=.+.D +.+.+.+.D +.%.*.x.b.M.F.G.L.Q.OXOX&X&X&X%XOX&X~.XX~.~.@X%X%X%XgXOXC g l l l a ! W ` ~ M a R m a s u u y R u.y.y.{.3...s.s.a.r.w.y.3.8.9.2.q.r.9.9.r.r.r.0.y.9.y.u.r.a.r.y.u.0.0.r.r.y.y.y.y.y.2.R W E E W B B i.i.B i.xXB B kXGXZ 6.PX.X",
"MXMXMXMXMXMXMXMXMXMXMXMXMXMXMXMXMXMXMXMXMXMXMXMXMXMXMXMXMXMXMXMXMXMXMXVXVXNXMXMXMXNXNXMXMXMXMXVXMXMXMXMXMXVXNXZXMXMXVXZXVXVXMXMXZXZXZXZXZXBXZXZXZXZXAXZXBXZXZXZXZXZXBXAXAXAXZXAXAXZXmXzXuX8X1XU.D.%.b.>.k.k.&.+.+.@.S A A S A A S +.=.=.%.&.&.=.%.=.&.&.&.*.*.*.*.*.&.%.%.%.=.+.S A A A A A A A S =.>.n.v.b.B.F.Q.Q.OXOX&X&X&X&XXX&XOXXXQ.XXG.~.@X@X@X=XXXV.( l R s a m ~ R W R m a ~ m M a a t s ) 2.p.8.` p.I.a.w...` ! ~ M E ` o.2.8.w.w.w.w.w.8.y.8.w.w.2.w.w.w.q.y.y.w.q.r.9.2.0.8...W E E M E B cXGXF 6.PXxXZ 6.PX&XZ GXcX",
"MXMXMXMXMXMXMXMXMXMXMXMXMXMXMXMXMXMXMXMXMXMXMXMXMXMXMXMXMXMXMXMXVXMXMXMXMXMXMXMXNXMXMXMXVXVXMXMXMXMXMXVXMXVXMXMXZXZXMXZXMXMXMXZXZXZXBXZXZXZXZXZXZXZXZXZXZXZXZXZXZXZXZXZXAXZXZXAXCXZXZXAXCXZXZXAXFX,.5.>.x.*.>.%.=.+.S A A A A C A A A A D =.=.+.+.S S +.+.+.D +.+.+.+.A A S A x C x C C C C A S %.>.n.n.b.b.F.L.Q.XXOXOXOX&X&X&XOX&X&XOXXX~.XXG.OX@X@X@X&XL.V R H a s R a m R M R s ~ a s s s 7 R ~ d.9.W y.q.} u l a a u l M u M ! | X.;.;.2.w.2.8.2.2.2.2.2.;.8.2.w.0.r.0.y.8.8.2.2.2.2./ y rXAXrXB .XGX6.Z GXGXZ Z GXcXZ tXGX",
"MXNXNXMXMXMXMXMXMXMXMXMXMXMXMXMXMXMXMXMXMXMXMXMXMXMXMXMXMXMXMXMXMXMXMXMXMXMXMXMXMXMXMXMXMXMXMXMXMXMXMXMXMXMXMXMXMXMXMXNXVXVXVXVXVXVXZXZXZXZXZXZXZXZXZXZXZXZXZXCXCXCXCXCXZXZXZXAXAXZXAXAXZXZXAXAXDX5.,.*.x.j.*.x.%.=.+.+.S A A C A C C A A A S +.S A A C A A A A A C C C C x x x x x x x x A +.*.x.n.b.c.b.B.L.L.Q.XXOX+X&X+X+X&X&X&XOXXXQ.Q.Q.~.~.XX&X&X%XL.V E R a a a I I I I R p ~ m s s a a U a a a R w.R t t t t t t t t m E ! ` }  ...X.<.<.X.X.......o.o.X.X.X.<.2.8.w.q.8.2.X.o...;./ t M 8 3 Z GXxX0 tXGXF Z *XGXF F GX",
"MXMXMXMXMXMXMXMXMXMXMXMXMXMXMXMXMXMXMXMXMXMXMXMXMXMXMXMXMXMXMXMXMXMXMXMXNXMXMXMXMXMXMXMXMXMXMXMXMXMXMXMXMXMXMXMXMXMXMXMXMXMXMXMXNXVXVXZXZXZXZXZXZXZXZXZXZXZXZXVXCXCXCXCXCXZXZXZXZXAXZXZXAXAXZXZXBXU.5.k.j.x.c.*.k.>.*.=.+.@.A A A A C C C x v A A A x x x C C C C x x x x x x x c x x A +.=.*.c.c.n.b.b.b.F.K.L.Q.XXOX&X&X+X+X+X&X&XOXXXQ.Q.Q.~.~.XX&X&X@XK.V E ~ I a H I I I I a t R I a p p p < & : # ~ X.R t t t t t s t t m ~ ! ` ' } o...X...o.o.o.o.o.o.o.}  .o.o.X.<.2.2.2.X.X...o.;.;.| ^ W M V cXGXF $.GX.Xg F GX*XZ GX",
"VXVXMXMXMXMXMXMXMXMXMXMXMXMXMXMXMXMXMXMXMXMXMXMXMXMXMXMXMXMXMXNXMXMXNXNXNXNXMXMXMXMXMXMXMXMXMXMXMXMXMXMXMXMXMXMXMXMXMXMXMXMXMXMXNXVXVXVXVXVXZXZXZXZXZXZXZXZXVXVXCXCXCXCXZXZXZXZXAXZXAXZXZXZXAXAXDX X,.*.x.x.x.n.x.k.>.*.%.=.+.A +.A A A A x x x x x x x x x x x x x x x x x x x x C A D %.>.5.c.c.b.b.b.F.H.L.L.Q.oX&X&X&X&X+X&X&X&XOXXXQ.Q.Q.~.~.XXXX@X@XH.V E ~ R H H I H I H p e ~ I I a p p e q t t 8.X.W a s t t t t t t M ~ ! ` ` ` }  . . . . .o.o.o. . .` ` } }  . .o.o.X.X.X.X.| } | ../ | 2.] D.GXC.g GXGXZ Z GXGX% &X",
"MXMXMXMXMXMXMXMXNXMXMXMXMXMXMXMXMXMXMXMXMXMXMXMXMXMXMXMXNXNXNXNXMXMXMXNXNXNXMXMXMXMXMXMXMXMXMXMXMXMXMXMXMXMXMXMXMXMXMXMXMXMXMXMXNXVXVXVXVXVXVXVXVXVXZXZXZXZXVXVXNXCXCXCXZXZXZXZXZXZXAXAXAXAXZXZXAX:.,.x.k.j.c.n.x.x.x.6.*.*.=.+.+.S S A A A x x x x x x x x x x x x x x x x C C A D +.=.*.6.x.n.c.b.b.Z.F.K.L.L.oXOX+X&X&X+X+X&X&X&XOXOXQ.Q.Q.Q.~.XXXX&XXXF.x E R R H H H H a H p i ~ I I I H p i p t R ..o.Q R p t t e t t p R Q ! ` ` ` ` } } } } }  .o.} } } ) ` ` } } } } ` o.o.X.X.X.o.| | 3.2.q.e.6.GXcXZ *XGXF Z &XGXD F ",
"MXMXVXVXVXMXMXMXNXMXMXMXMXMXMXMXMXMXMXMXMXMXMXMXMXMXMXMXNXNXNXNXMXMXMXMXMXMXMXMXMXMXMXMXMXMXMXMXMXMXMXMXMXMXMXMXMXMXMXMXMXMXVXVXVXVXVXVXVXVXVXMXVXVXVXZXZXZXVXVXNXCXCXCXCXCXZXZXAXMXZXAXnXzXaXrX1X( >.*.x.x.x.v.v.v.n.x.x.*.%.=.=.+.A S S A A A v v C C C C x x x x x C A A A A +.=.&.*.x.c.n.b.b.b.b.B.G.L.L.L.oXOX+X+X&X&X&X&X&X&XOXOXXXQ.Q.Q.~.XXXX@XXXF.k R L H a a a H H H p i ~ I H H H p p p q !  .X.} R s t t t t p a ~ ! ! ` ` ` ` } } ` } } } } } } ` ! ! ! ! ! ! ! `  .o.o.o.......| | 8.q.w.5.eXPX0 F GX*XZ Z GXlXf ",
"MXMXMXMXMXMXVXZXMXMXMXMXMXMXMXMXMXMXMXMXMXMXMXNXMXMXMXMXMXMXMXNXMXMXMXMXNXMXMXMXMXMXNXMXMXMXMXMXMXMXMXMXMXMXMXMXMXMXMXMXMXNXVXVXVXVXVXVXVXVXVXMXVXVXVXZXZXZXZXZXNXCXCXCXCXCXCXZXnXDXMXd.m R 2.2.` V >.x.j.n.b.x.b.b.v.c.x.x.*.*.*.=.+.+.@.S S S A A A A A A A C C A A A A S +.=.=.*.6.x.n.n.v.b.b.b.M.F.G.L.Q.XXOXOXOXOX&XOXOX&X&X&XOXOXXXQ.Q.!.XXXXXXOXXXV.k M I H a a H H H H p i Q U H H G i i i p  .X...} a a t i p i a R W ! ) ` ` ` ` ` ` } } } } } } } } ) ! ! ! ! ! ! ` } X.X. . . .} } | X.X.q.2.5.6.i.C FXGXZ g cXGXn ",
"ZXBXMXMXBXBXMXMXMXMXMXMXMXMXMXMXMXMXMXMXMXMXNXNXMXMXMXMXMXMXMXMXMXMXMXMXNXNXMXMXMXMXNXNXMXMXMXMXMXMXMXMXMXMXMXMXMXMXMXMXMXMXMXNXMXMXVXVXZXVXVXNXMXVXVXVXZXZXVXZXNXZXCXCXZXZXZXAXnXrXX.M } ` M W M N ,.*.x.b.x.b.v.v.v.c.c.x.>.>.*.=.+.+.+.S S S S S S S S S A A A A A S +.=.%.%.*.x.c.c.n.v.n.b.b.M.F.G.L.L.oXoXoXOXOXOXOXOXOXOXOXOXOXXXQ.Q.!.XXXXOXOXXXXXb.j M H H a a H H H H p p Q I H p a p p p p } o.o.} ! m t p p p a R W ! ! ` ` ` ` ` ! ) ) } } ` } } } } { ! ! ! ! } O.} ..X...o... . .o.} ..2.3.3.3.3.3.wXGX6.V 6.GX=.",
"f.[.5XuXnXZXZXZXBXMXMXMXMXMXMXMXMXMXMXMXMXNXNXNXMXMXMXMXMXMXMXMXMXMXMXMXNXNXMXMXMXMXMXNXMXMXMXMXMXMXMXMXMXMXMXMXMXMXMXMXMXMXMXMXMXMXMXVXVXVXVXMXNXMXVXVXVXZXVXVXNXZXCXCXCXZXAXAX2X` u W E R W l m 5 ,.&.k.c.c.b.b.b.v.b.v.c.x.>.>.*.=.=.+.=.+.+.+.+.+.+.+.@.S S S D D +.=.%.*.*.>.c.c.c.v.b.b.b.M.M.F.G.L.L.oXoXoX+XOXOX+X&XOXOXoXoXXXXXQ.Q.!.XXXXOXoXXXL.n.j R a a a p p H H G p i ~ H p p H H a a 7 } X.<.! Q m s p p p a R W ! ! ! / / ` ` ! ) ) ) ` { ) { } { [ ! ! ! ! ! /  ...o. ... .} } }  .o.} o.2.;.w.w.4.&XtX9 0 GXcX",
"f.f.s.p.a.p.p.d.5XuXUXMXnXnXnXMXMXMXMXNXNXNXMXMXMXMXMXMXVXMXMXVXMXMXNXNXMXMXNXNXMXMXMXVXVXVXMXMXMXMXMXMXMXMXMXMXVXVXVXMXMXMXMXMXMXNXVXZXMXVXNXMXMXVXVXVXMXVXZXMXNXAXNXZXMXaXaX9XM u t a M M M u u 9 :.%.x.v.x.b.n.b.b.b.b.n.n.n.>.*.*.*.%.=.=.+.+.+.+.+.+.+.+.+.+.+.+.=.=.%.*.k.c.x.n.v.b.b.b.b.b.F.G.L.^.oXoXoXoX+X+XOX+XOXXXXXoXQ.Q.Q.Q.Q.Q.!.XXoXoXoXK.,.j R H a p p p p G G p p ~ H H p p H H i s } 7.X._ ! a a p s s a R W W W W W ! / ! ! ! ! ! ! ) ) ) ) { { ) [ ! ! [ } o......... .} }  .} } ` } X.2.8.2.4.4.4.t.B FXGX",
"s.s.s.s.s.f.f.d.f.f.s.u.y.s.1X5XpXaXnXMXnXMXMXZXMXZXMXMXMXVXMXMXMXMXMXMXVXVXNXMXVXMXMXMXMXMXMXMXMXMXMXMXMXMXMXVXMXMXMXMXNXNXMXMXMXMXMXMXMXMXCXVXZXMXVXZXZXZXMXZXCXNX2X<.<. .<.t W R t m M M M a y 9 ] $.k.x.n.n.n.b.b.b.b.b.v.c.x.k.*.*.%.=.=.+.+.=.=.=.=.=.=.=.+.+.=.%.%.*.>.x.n.v.v.b.b.b.b.b.F.H.K.Q.oXoXoXoXoXOX+X+X+XOXoXoXoXXXQ.Q.Q.Q.oXOXXXOXoXQ.F.$.j L H p p p p p p G G I Q H a p t e t a ! X.7.} Q R a p p s s a R W ! E R E ! ! ! ! ! ! ! ! ! ! { { { ! ) [ ! ! }  .........o. .} } } } ! ! ` } X.2.8.2.2.4.0.e.xXGX",
"a.a.s.I.s.s.s.s.s.P.I.I.P.s.s.s.a.s.s.a.a.{.5XyXzXnXZXAXZXZXMXBXZXZXMXMXMXVXVXVXVXMXMXMXNXMXMXMXMXMXMXMXMXMXMXMXCXVXMXMXMXMXMXMXNXNXMXZXMXZXMXNXMXZXMXMXVXZXMXMXnX} m a ~ o. .` ` W 7 m M a u t t y k :.>.k.v.c.n.b.M.M.Z.Z.b.b.v.x.k.*.*.=.%.=.=.=.=.=.=.=.=.=.=.=.=.%.*.*.k.x.n.n.b.b.b.b.V.b.H.K.L.^.oXoXoXoX+X+X+X+X+X+XoXoXoXXXQ.Q.Q.Q.oXoXoXOXQ.L.b.( l H p p p p p p G H p Q Q a I H a i R } 8.o.{ R U a H p p t s a R ~ ~ L a R ! ! ! ! ! ! ! ! ! ! ! ) { ) ) ! ! } }  ...o.o. . . .} } { { ! ! ! ! o.2.8.8.2.w.;.;.3.D.",
"r.9.3.w.3.r.P.U.U.P.P.P.P.P.P.P.P.I.I.P.I.s.s.I.f.a.p.f.d.,X8XpXBXZXZXZXZXBXBXZXVXVXVXMXMXMXMXMXMXMXMXMXMXMXMXMXMXMXMXMXVXVXMXMXMXMXZXVXMXMXZXVXVXMXMXZXMXZXnXq.) m 8 u M M W Q a M : u a u u t t u 0 :.*.k.n.x.n.b.M.M.Z.Z.b.b.b.n.x.x.*.*.*.%.%.%.%.%.=.=.%.%.%.%.%.*.*.*.k.x.n.n.n.b.b.V.F.F.H.K.L.oXY.oXoXoX+X+X+X+X+X+XoXoXXX.XL.L.L.oXoXoXoXoXQ.J.5.x l a p p p p p H H I I o.} { o.o.o. .w.q.8.} Q R U I I p p t s a m R a a a R W ! ! ! ! ! ! ! ! ! ! ) { ! ! ! ) }  . .o. . . . . .} } ! ! ! ! ! W } X.2.8...2.8.2.8.2.",
"y.e.u.u.r.0.0.3.4.3.e.t.u.P.P.P.P.s.s.P.U.I.I.I.I.s.s.I.{.s.a.s.y.u.a.f.{.5XyXaXnXnXBXZXZXBXMXBXNXMXMXMXMXMXMXMXMXMXMXMXMXMXMXMXZXVXMXMXMXVXMXMXZXMXnXnX5XX.o.Q ` R ) ` R ! ~ a 1 R 1 u t 8 t t t u $ :.*.k.x.x.v.b.M.b.Z.Z.b.b.b.v.n.x.>.>.*.&.*.*.%.%.%.%.%.%.%.&.*.*.*.>.x.n.v.v.n.n.b.V.V.F.K.K.L.L.L.^.oX+X+X+X+X+X+X+XoXoXoXoXXXoXoXoX+X+XoXXXQ.H.,.j u p p p p p a I U R U 7.o.<.8.<.<.2.X.o.! ~ a I I G H p p p p p a a t s L R ~ ! ! W ! ! ! ! ! ! ! ! { ) ! ) { { } } } } }  .} } } } ! ! ! ! ! W ! }  ...<.X.8...8.2.",
"a.u.u.u.y.u.a.u.u.u.u.e.e.e.e.e.0.r.y.s.I.I.I.{.P.U.I.s.s.I.I.I.s.s.s.s.s.s.P.P.f.f.s.d.,X5XuXpXaXnXMXZXZXBXMXBXMXMXMXMXMXMXBXZXMXZXZXZXMXAXnX8Xs.2.o.o.} o.8.2.` } ` <.} ~ a 1 a W t s t 8 t 1 1 t $ $.,.x.x.c.v.b.M.b.Z.Z.b.Z.b.b.b.n.x.x.>.*.%.%.%.%.%.%.%.%.&.*.*.*.*.>.x.x.c.n.n.b.b.V.F.F.K.L.L.L.Y.^.oX+X+X+X+X+X+X+XoXXX.XoXoXoXoXoX+X+XoX.XK.c.( y i p p p p p p I R Q R 8.<.8.w.X.o.o.o.} ~ Q I U I I G p p p p p p s s a L l R E W W ! ! W W W ! ! ! ! ! ! ! ! { { { { { } } } } { ! { ! ! ! ! ! Q ! o. .X.X...X.X.8.",
"u.a.a.u.a.a.u.u.u.u.u.u.u.y.y.r.e.r.r.e.0.3.2.w.0.s.}.}.{.{.s.s.s.P.P.P.P.P.s.s.f.s.d.d.d.d.I.{.d.f.y.y.p.{.5XrXUXnXnXZXZXZXZXBXBXZXZXMXBX9Xw.q.;.o.} ` 2.w.X.8.X. .t a W 8 a ! R R 8 t s u u 1 1 8 , ( ,.>.c.c.n.b.b.b.V.Z.Z.Z.V.b.b.b.n.n.x.>.*.*.*.*.*.*.*.*.*.*.*.*.>.k.x.v.v.b.b.V.Z.F.H.H.K.K.L.L.^.oXoX+X+X+X+X+X+XoXXXXX.X.XoX.XoXoXoXoXoXK.D.:.l u s t t t t p a I U ~ { w.8.8.0.8.X.o.o.[ ~ I a H H H G p p i p p p s a a l a M ~ W W W W W Q W W W ! ! ! ! ! ! { ! ! ! ! } } { { ! ! { [ ! Q ! ! ! ! ` } o.X.X.8.X.X.",
"u.a.a.u.s.s.a.s.s.s.s.s.s.u.u.u.u.u.u.u.u.y.y.a.y.u.y.0.2.;.2.9.u.s.{.{.P.P.P.{.{.{.{.I.I.d.d.d.I.s.s.I.I.I.I.I.d.d.d.f.p.f.d.,X5XrXaXnXw.w.q.0.2.o.} X.2.w.r.8...<.M , u , a l R a t t t 8 t 1 1 1 8 k %.*.v.x.n.b.b.b.V.Z.b.b.V.b.b.b.b.b.b.x.x.>.>.>.>.>.>.>.*.>.k.x.x.x.v.b.Z.Z.Z.F.F.H.H.H.K.K.L.^.oXoXoX+X+X+XoXoXoXXXQ.Q.Q.oXoXoXoX+X+XoX^.H.b.] 8 a a t s p p p H I R ~ ~ ..}  .o.8.o.o.o.! R a I H I H G p p i i t p s a s u a R ~ W W ! Q Q ~ Q Q ! ! Q ! ! ! ! ! ! ! W ! } } { ! ! ! [ ! Q Q Q Q ! Q ! o.[ O.o.}  .X.",
"8 u 8 R ! | r.a.s.s.s.s.u.s.a.a.a.a.s.a.u.a.a.a.a.u.u.u.u.r.r.i.y.r.r.0.0.0.3.r.u.u.s.s.s.{.{.s.s.P.s.s.I.P.P.U.{.I.s.s.P.{.f.[.d.f.d.w.q.} W W X.X.o...X.;...;.8.X.! t : > u a l a t t t t t 1 1 1 8 % =.>.*.x.c.b.V.V.V.V.b.b.b.V.V.V.V.b.n.n.c.x.x.6.6.>.>.>.x.x.x.x.x.n.n.b.V.V.Z.F.H.F.H.J.L.L.Y.oXoXoXoXoX.X.XoXoXoXoX^.^.^.oXoXoXoXoXoXoXL.D.4.s t t q i e p p p I U I I } o.o...o.X.X.o.[ R a a a I I G G p i i p i s s a a s a l R E E W ~ ~ R ~ Q Q Q Q Q Q Q W W ! ! Q ! ! ) { { ! Q [ ! W ~ ~ W W W [ [ [ } } }  .o.",
"7 8 8 8 8 y , 4 8 t W ;.0.u.a.a.s.s.s.s.a.a.a.a.a.a.u.u.u.u.u.u.u.u.u.y.y.y.e.r.y.q.0.0.2.w.0.9.r.r.a.s.a.I.}.a.s.P.P.P.P.a.{.p.d.{.a.2.1 W 9.0.2.X.X.} ;.l l M ` ` / u , : t u a a t t t t i e q 2 8 > C *.6.x.x.c.b.b.V.V.Z.b.b.V.V.V.V.V.b.n.n.c.x.x.x.x.x.x.x.x.c.n.n.n.b.b.V.V.Z.F.H.H.J.L.L.L.Y.Y..XoXoXoX.X.XoXoXoXoXoX^.oXoXoXoXoXoXY.L.V.c.] t 1 t e e e p p p I U I R } } } }  .o. .{ R a p p p p G I I p i i p t i p s a a a R R E E Q ~ ~ R ~ Q Q Q Q Q ! ! ! ! ! ! W W Q ! ! ! ! Q ! ! Q W Q Q ~ Q Q Q ! [ [ [ }  .",
"t 1 1 , , 8 8 1 8 , # 2., 1 3 , 8 M ..y.I.U.I.s.s.I.P.s.s.s.s.s.s.s.s.u.s.s.u.s.a.a.s.P.a.a.a.a.y.r.0.0.0.3.;.;.4.e.y.P.{.I.,X{.d.d.X.. o.;...w.2.;...w.w.' u y 8 8 1 : : : 8 s u s t t t t t q 1 : , 8 3 $.*.x.x.c.n.b.b.V.b.Z.b.b.Z.F.F.V.b.b.b.n.n.n.n.n.n.c.c.b.b.b.b.b.b.V.V.V.F.F.H.H.K.L.L.L.Y.L.Y..X.XoXoX.XoXoXoXoXoXoXoXoXoXoXoXoXL.H.C.,.l t 1 s i e e t p p a I I R ! Q W ! W Q Q R H p p p G I I m I p i i i t t t s s a a R ~ ~ E ~ ~ R R ~ ~ ~ ~ Q Q Q Q W W W W ! ! W W ! Q ! ! ! W Q W Q ~ ~ ~ ~ ~ Q ! ! [ } } ",
"o.u u t , , 7 , 1 : , u 7 1 1 8 8 8 8 u u y y s / ..0.a.s.s.s.P.a.s.s.a.a.s.a.a.a.a.u.a.a.a.a.a.a.a.y.y.a.u.y.a.u.u.e.r.r.9.0.y.y.u o X.;.;.| ;.w.0.0./ / ;.E u : : # = , 1 7 t s s t t t e t 1 2 : = 8 # V :.5.x.c.c.b.b.b.V.V.b.Z.F.F.F.F.V.b.V.V.b.b.b.b.b.b.b.V.V.V.V.V.V.V.V.V.F.F.H.H.K.L.L.L.Y.L.Y..XoXoXoXoXoXoXoXoXoXoX^.oXoX.XoXL.H.D.C.( t t t t e e e e e p p p a R I H H I H H H p a p p G G G m m H p p i t t t t i s a a R ~ ~ E ~ ~ R R ~ ~ ~ ~ Q Q Q Q W W W W ! ! ! ! ! Q ! ! W Q ~ Q Q ~ ~ ~ ~ ~ ~ ! ! [ } } ",
"M 7 8 u 7 t , 8 , t #   2.: : 8 8 7 1 8 t 8 8 t 8 8 y u u s a E | ..3.9.y.s.s.I.I.P.s.s.I.P.a.a.s.a.P.s.y.a.I.u.i.a.y.u.y.r.;...u : } ` | ' 2.;.0.;.9.2.. 4 u > # , , 1 e 1 1 e s p t t t e t 1 2 = = : 1 0 $.,.5.x.c.n.b.b.b.V.Z.F.F.F.F.F.F.F.F.F.V.b.b.V.V.V.b.V.V.V.V.V.V.V.F.F.F.F.H.H.H.K.L.L.Y.^.oXoXoX+XoXoXoXoXoXoXoX.X^. X.X.XL.K.D.5.-.u t t t e e e e e e e e t a R H a a a a p p p i p p p p p p p H p i i t t t t t p a H R R ~ ~ ~ R R R R R R ~ Q Q Q Q ! W Q Q ! [ [ ! ! Q W W W ~ ~ ~ ~ ~ ~ ~ R R R ~ ! ! [ } ",
": t : 8 8 t 8 t 7 , t 8 ! W R u t 8 1 1 8 8 1 8 t 8 7 8 8 , # : 1 1 4 4 t a a M E / ..w.y.s.s.s.s.a.a.I.s.a.s.I.P.s.s.0.2.W ;.8 y ` } | | ..;.8.w.9.0.0.| 4 u y , 1 1 t 1 1 1 t e s t t t e t 1 2 2 & = 1 > V $.>.5.c.n.b.b.V.V.b.Z.F.F.F.F.F.F.F.F.V.V.V.V.V.V.V.V.V.V.V.V.V.V.V.V.V.F.F.F.K.K.L.Y.^.oXoXoX+X+X+XoXoXoXoX.XY.Y.Y..X.X.XL.K.i.:.l 1 p e e e e e i e e e e t a I H a a a p p p i i i p p p p p p H p p i t t t e e i p a H R ~ ~ R R R R R R R Q [ [ [ Q ! ! ! ! [ [ [ [ ! Q Q ~ ~ R R R R I I R R I R ~ Q ! ! [ ",
"1 , 1 @ : # , : : , : , t : : , : 1 8 a ) } }  .E M u u u t t s y 8 8 4 t u a M | 2.;.| / E M E E | 9.a.s.;.M M W 2.y.0.2.y.> l } ! | | 2.;...;.2.r.8.;.8...` M R a t t 1 1 1 e e t t t t e t , 2 2   : : : 4 ( %.>.5.c.c.n.b.b.b.b.F.F.F.F.F.H.F.F.F.V.V.D.F.V.V.V.V.V.V.D.F.V.V.V.F.F.F.H.K.L.L.Y.oXoXoX+X+X+X+X+XoXoX X XY.Y.Y.Y..XL.K.D.:.E 8 1 i e e e e e r e r e e t a a a s a a p i p i i i p p p p m p p p p i i i e e e e i a H R R ~ R R R I I R ~ Q ! Q Q Q Q Q W ! ! ! [ [ ! Q ~ R ~ R H H H H H I R I R R ~ ~ ! [ ",
"q.8 y.t a s 8 7 , , , : # : .   # : : : 8 8 7 7 , , , 1 , 7 t a ! W ! ! ` ` ! ` 2.a.s.y.w.;.;.2.p.I.{.I.s.I.u.2.t > , > 4 l 0.s.I.d.a.y.I.a.r.r.r.2.0.2.2.2.` ` / R s R t e 1 1 e t t t t t t , < @ * *   : # j +.%.5.5.5.n.b.b.b.b.V.F.F.F.H.H.H.H.F.F.V.F.V.C.C.C.C.V.V.V.V.V.V.V.V.F.H.H.K.L.Y.Y.oX+X+X+X+X+X+X+XoXoX X.XY.Y.Y.Y.L.K.D.5.E 3 t e < e e e e e e e r e e i a p a i i p i i p p p i p p p p m p H p p i i i e e q e i p a H R ~ ~ R R I I ~ ~ Q Q Q Q ~ R ~ ~ ~ ~ ~ Q Q ~ R R M R R H H H H H R I I I I I R Q [ ",
"8XW X.q.a t u u t 8 4 , , ,   , 8 : # #   @ @ . . X . .   , : 7 , : ) ) 2.q.....2.w.q.y.s.{.s.p.s.a.a.a.s.d.s.s.I.I.I.I.I.s.s.a.y.r.r.r.0.w.2.9.2.2.;.;.X.X...| ! ~ R R t t q 1 t t t t e t q 1 2 :       & : 4 V @.,.>.>.5.b.c.b.V.F.F.F.F.H.H.H.H.F.V.V.V.V.b.V.C.C.C.C.C.C.C.C.D.V.F.F.H.L.L.L.Y.oX+X+X+X+X+X+X+X X X XY.K.L.Y.K.Y.D.5.j d i e e e e e e e e e e e e i p a s p s i t i i i p p i i p p p a a m p p i i e e e q e e t a R W ~ ~ R I I R ~ ~ ~ R ~ ~ R R R ~ ~ Q Q Q Q ~ ~ R I R R I I I I I I I I I I R R ~ ! ",
"zXa :   : 1 7 8 1 , 1 , 1 8 , t 7 , 1 7 1 1 1 2 : , @ : # # @ # M W w.2.8.;.X.;.2.8.8.w.q.q.q.q.r.r.r.r.p.a.a.s.u.s.{.{.I.a.y.r.0.w.w.w.2.;.....;.;.;.;.;.;.;.X./ W ~ ~ a t q 1 1 e t e e t e 1 < 2 @       : 1 5 z $.%.,.5.c.c.b.V.F.F.D.F.H.H.H.K.F.V.V.F.V.V.V.C.C.b.c.c.c.c.C.C.V.F.F.H.K.L.Y..XoX+X+X+X+XoX+X.XoX XY. XY.L.K.H.D.5.5 t q w e e e e e e e e e e e e i p p p p s t t i i i p p p p p p p p p m p p p i e e e q e q t p I W ~ ~ R H H I I I I R R R R R R ~ ~ Q Q ~ ~ ~ R R I R I I I I I I H m I I I I I ~ Q ",
"nXR : , # @ #   # # # @ : , : 1 , 1 7 7 1 1 7 8 7 8 u 8 1 t t Q y.y.0.X.| / X.;.8.X.| X.8.8.X.X.X.X.X.X.;.2.2.8.p.f.s.f.r.8.;.X.X.X.;.;.;...| | X.....;.;.;.;.;.| / E E R t 1 1 , 1 e e e t t 1 , 2 :   . .   : 4 h ( $.:.,.>.>.b.V.F.F.H.K.K.K.K.K.K.H.H.H.H.F.D.V.V.C.C.b.b.b.C.D.F.D.H.K.Y.Y.Y.Y.oXoXoX+X+XoX.XoXL. X.XH.Y.Y.D.U.( 9 1 1 q q q q e e e e e e e e e i p p p p p i t t i i i i p p p p p p p G I p p p i e e e q q q q t a Q ~ R R H H H I I I I R R R R R ~ ~ ~ ~ ~ ~ ~ R R I R I I I I I I H I H I I H H I ~ ",
"jX7X# # @ # #   o o # .   @ . # @ # # @ # @ # : : , 8 1 7 u 8.g.y.0.X.} | } ;.X... .} o.X. .! Q W W W W W W W ! W W ! ) ` ' } | |  . .| o...| | | | | ..;.;.;.2.;.| E M R s 1 , , 1 e e e t t 1 < 2 : @   . . & : 4 l ( $.,.>.>.b.C.D.D.F.K.K.K.K.L.L.K.K.K.H.H.D.F.F.F.F.F.F.F.H.H.H.K.K.K.Y.Y.Y.Y.oXoXoXoXoXoXoXL.oXL.L. XK.Y.D.h y t i < q t q q e e e e e e e e e p p p p p p t i t i i i i p p p p p p p G G p p p i e e q q q 1 q e a Q Q R R H H H I I I I I I R R R R ~ ~ ~ ~ ~ ~ R I m I I I I I I I H I I I I H H I I ",
"rXpX: , : @ .         .         . . . .     .   @   #   # M p.q.8.X.X.| ..| ..o. .....} Q R a m a a a a a a m R R R R ~ ~ W ! ! } ` } } }  .} } | } } ..X.-.;.;.;...! l a a t 1 1 1 e e e t t 1 < 2 2 :   . .     : 4 j ^ $.:.%.5.5.C.D.D.F.F.K.K.L.K.K.K.K.K.H.H.D.F.F.F.F.H.H.H.H.H.K.K.K.Y.Y.Y.Y. XoXoXoXoXoXoXY.L.oXH.K.U.$.9 y , e e w e 1 q e e q e e e r e e i p p p p p i i t e i i i i i i i p p p p G G p p p i t e q 1 < < 1 q p Q Q R R I H H I I I I I R R R R R R ~ ~ ~ ~ R R I I I I H I I I I I I I I I H H H I ",
"qXnXW s 2.7 8 #   . . .     . . . . . . . . . . @ . #   . ! 8.8.8.X.X.| | |  . ...X. .Q H a p a a p p p p p p a s a a a a a R W W W ! ` } } } ` } } | | ......-...;.| E l a t 1 1 1 q 1 e t e e < < 2 : :       @ @ # 3 j V $.:.,.5.c.D.F.F.K.K.K.K.L.K.K.K.K.H.H.H.H.H.H.H.H.H.H.H.K.Y.K.Y.Y.Y.Y. X X X X XoXoXoXoXY.D.Y.t.j 4 , : 1 e w e 2 t e e e e e e e i i p p p a p p p i i i e e i i i i i i p p p p p G p p p i t e q < < < 1 1 i Q Q R R I a H I I I R R R R R R R R ~ ~ ~ R R I m m I H a H H I I H H H H H H p G H ",
"5XaXy.# yXX.aXW > : o # #       . . . . . . . . .   . # . W 8.<.X. .| ...... .} ..o.Q a a I I a H p p p p p p i p p p p t i a I a R W W ! } } } } } }  .o.........X.X.` R a s 4 1 < < < 7 e e t e 1 2 : : &           # , y ^ ' :.:.5.C.D.F.H.K.K.K.K.Y.Y.L.K.K.K.K.H.H.H.H.H.H.H.H.K.Y.Y.Y.Y.Y.Y. X X X XoX X XY.Y. XP.^ > 1 1 1 1 1 < w q p 1 e e e e e i i i p p H a a p p p i i r e e i i i i i p p i p p i p p p p i t q q w < < < 2 t ~ W ~ ~ R I m I I I R R R R R R R R ~ R R I I I a a p p G H H H H H H H H H H a p H ",
"wXrXrX# t aXX.nX8 , : : : # : # : : 1 8 : o #   @ .   .   } X.8.o.X. ... .}  .o.} [ R p p p p p G p p p p a p p p t t p p a a a a R R ~ ~ W ! } ` ` } }  .o.o.} | } } } W R a t 1 < < < 1 1 7 t t q < : : =     .   & : : : 4 u ] $.5.5.C.V.F.F.K.K.K.K.K.K.K.K.K.K.H.H.H.H.H.H.H.H.K.Y.Y.Y.Y.Y.Y. X XoXoX X X X+XD.( > < e < < < < 1 1 < 1 1 e e e e e i i p p G H H a a p p i i i r e e i i i i i p p i r i i G p p p i t q q w < < < : q ~ E E ~ R R I I I I R R R R R R R R R R R I I H G p p p p H H H G G H H H H H a p G ",
"rXyXaX# : 8.5X5X9X, : , : : : @ # # # } :   @ : : : 1 : & } X.o. .o.o.o.o. .} } ) ~ m a a a a s p p p p p p p i t t t t p p p p a H H I ~ W ! ! } } } } } } } } } | | } / W l t q < 2 < < 1 q e e e 1 2 = = & .           = : < 8 N -.5.5.C.V.V.Y.K.K.K.Y.Y.Y.K.H.H.K.K.K.K.K.K.K.K.K.Y.Y.Y.Y.Y.Y.Y.oX XY.+X+XY.M 8 < w w 2 2 1 < q q q q q q e e e e e r i p p H H H a H p p i i i r r e e e r i i i i i p i i p p p i i e e q < < 2 2 2 < R ~ R ~ R R R I R I R R R I I R R R I R I I I a p p p p p a m m a a H G p H H H G G ",
"yXrXjXs # . 8 @ 0.2 2 ,   # . : # # : u t , 8 : : t : , o...o.o. . . .o.} } } [ W R I m a a a a p p p p i i i t t t t t p p p p p G a H R R ~ ~ ! ! O.} } } } }  . .} } } O.R s t 1 2 = 2 < 1 1 q e 1 2 = = =               = : # : 8 N :.i.D.C.H.H.H.H.K.Y.Y.K.K.K.K.H.H.H.H.H.H.H.K.K.K.Y.Y.Y.Y.Y.K. X4X5.k 5 y 7 < < < 2 2 < < < w q q q q q e e e r i p p H H G G p p p p i i r e r e e e r i i i i i i i i p p p p i e e q < < 2 2 = 2 R ~ ~ ~ R R R I I I R R R I I R R R R R I I H p p p p p p p m m a a H p G H H H p G ",
"jXpXaXq.# X     . . . .       :         t t a 1 : , , o.2 } ! X.}  . .} } { [ ! Q R U U I a a p p p p p i i i i t t t t p p p p p p a a a a H I ~ ~ W ! ! ! ! / }  .} } } } ! M t e < = = 2 < < q q q < 2 = = =         .         = : , 4 l -.i.D.K..XY.K.K.K.K.D.D.D.D.D.K.K.K.H.Y.Y.Y.Y.Y.Y.Y.Y. XD.( 3 3 d 1 1 , 2 - - < < 2 w < w q q e e e e e i p p H H I H G p p p p i i i e e e e e e r i i i i i i i i i p p i i e e e < < 2 = = 2 R ~ ~ ~ R R R I I I I I I I I I I I I I I H m p p p p p p a a a a a a p p H I G p p ",
"zXjXpX8X4 , < t @ . . . X X # X .   : # : .   .     t s } O.o.} } }  .} } [ ! Q Q ~ Q Q R I I p a p p p i p i i p p t t t i t p p p a a p p s a H R R ~ ~ W W ! ! }  .} } } ` ! i t 1 2 = 2 2 < 1 1 q q < = = = & &       . . . . .   = : 1 , 1 9 ^ t.U.Y.Y.K.Y.Y.Y.U.U.U.U.U.D.D.D.U.Y.Y.U.D.t.g 3 4 d 1 < < 2 : 2 2 - - < < < w w w q q e e e e e i p H H H H H H H a p p p i i e e e e e e r e r i i i i i i i i i i r e e e q < 2 =   = R ~ ~ ~ R R R I I I I I I I I I I I I I I H a p p p p p p p p p a a p p p H H G p i ",
"mXjXjXqXs 7 e 7 [.>XdXf.q.o. .~ t   X X X .   . . . a a ! o.W } }  . .} { [ ! ~ ~ R ~ Q Q Q R a a a p p p p i i p p p p i t t t i a p p p t p p a a a H I R ~ W W ! } } ! } ` / R t 1 2 : = 2 2 1 < < q 1 < 2 = = = & & &   . . & & & = =   * : , 1 4 4 4 j / ;.D.U.P.I.|.}.}.}.P.e.' z h y 4 > 2 1 2 = < < 2 < 2 2 2 < < < < < w q q q q e e e r i p H H H a H H H H a H a p p i i e e e e e r e e t t e e e t i i i i r r e e w < 2 =   @ m ~ R R R R R I I I I I I I I I I I I I I H p p m p p m m m p p p p p p p H H H p i ",
"jXjXjXiX! ) a < < 7 e [.a a s M W W 2.8.8.X...} a ~ a  .[ O.} } }  . .} { [ Q ~ R R ~ ! ! ! Q I a p p p p p p i p p p i i t t t i i p i t t t p p p p a a H R ~ W Q ! ! [ } } / ! a 1 2 2 2 = = < < 1 q q 1 2 2 = = = & & & &     . .           & = : : : : , , > > > , > > > > 1 , , > 2 , 1 1 2 - - - < 2 2 : 2 2 2 < < < < w w q q q q e r i p p p G H G G m H H H a H a p p i i i e e e e r e e e e e t e e i i i i i i e e w < 2 =   @ m ~ R R R R I I m H I I I I I I I I H H H H p p p p p p m m p p p p a a a H H H p i ",
"jXjXaXiXE 2.m m a Q >Xe < < p I R a Q R R ~ R ~ [ W .. . .E O.[ }  .} } { [ Q R R R Q W ! ! W R a a p p p p i i i p p p p p p p i i i t t t i p p p p p a a H I ~ ~ Q ! ! O.} O. .W s 1 : 2 2 = < < 1 1 1 q q < - - = = = = & & = = = =     & & = = = & = = 2 = : : 2 2 2 2 : 2 2 < < < 2 = = = - = - 2 & 2 1 2 2 < < < < < w w q q q q e i i G G G G G G G G I H H H a H a p p p i i r e e e e e e e e e t t t i i e i i i e q w < 2 =   @ a ~ R R R R I I a H H H H I I I I I H H H p p p p p p p p p p p p p a a a a a a p i ",
"jXjXjXpX) 0.m ~ m U [.uXsXg.2 < e 7 m R m R m }  ...X.o.} } E O.} } } } { [ Q R R R Q W W W ~ M a a p p p p p p p p p p p p p i i i t t i i p p i p p p p a a a H R Q ! W W ! } } } W t : 2 2 2 - < 1 < < q q q 2 2 - = = = = = & = = & = = = &   & = &       = = = = = = = = = - = = = = = = = = = = = 2 2 - w < < < < < w w w q q q q e i G G G G G G G G G I H H H H H H p p p i i i r e e e e e e e e e e t i t e t i e q q w 2 2 =     a R R R R R R m a H H H H I I I I I H H H p p p p G m p p p p p p p a a a a a a p i ",
"jXjXjXiXW 8._ Q _ U p sX>XUXw._ m 2 # , m q.f.8.<.7.X.7.o.! ! ! } o.o.} { [ Q ~ R R R Q Q ~ ~ R a a a p p p p p p p p p p p i i t t i t t i i i i i p p p p a a a m R W W W ! ) } } } R 1 2 < < < < 2 < < < q q q < 2 - - 2 = = = = = = = & & & & & & = &     .     & & = = & & & & & & = = = = = = = = - < < < < < w q q q w w q w e r p H G i p G G G G G I I I I I I H G G p p i i i i r r e e e e e e e e e r e t i i r q q 1 < = =     a ~ I I R R R R a a a a m I I I I H m m p p p p p p p p p p p a a a a a p p p p p p ",
"iXjXjXiX` <._ _ U U Q m sX2XUX ._ _ m } g.q.w.8.8.8.8.<.} ~ W ! [ o.o.} } [ Q ~ R R R R ~ R R R a a a p p G p p p p p p p p i i t i i i i i p i i i i p p p p a a H R ~ W W Q ! ` }  .} R 1 2 < < < < < < q q q q < < 2 2 2 = = = = = = = = = = & & = = = &             & & & & & & = = = = = = 2 2 2 2 < < < w w w w q q e e e e e e i p p p p p p p G G G I I I I I I H G G p p p i i i i i e r r e e e e e e e e e e r e q q < < 2 =   . p R I I R R R a a a m m I I I I I H p p p p p p p p p p p p p a a a a a p p p p p i ",
"iXaXjXpXw._ _ o.{ _ U Q <.uX2XdX_ U _  .7.7.<.g.8.8.8...! R ~ ! [ } o.} } O.! ~ R R R R R R I R m a a a m G p p p p p p p p p i p i i i i i p p i p p p p p a a a a I R ~ ~ W ! ! ` }  .} a < < < q q 1 q q q q q q < < < 2 2 2 2 2 2 2 = = = = = = = = = = = = = = = = = = = = = = = = = 2 2 2 2 2 < < < < w w w w w w q e e e i p p p i i p p p p p G G G G I I H H I H G p p p p p i i i i i r i r e e e e e e e e e e e q q w < 2 =   . p R I I R R R m a a m I I I I I I H p p p p p p p p p p p p p a a a a a p p p a p p ",
"iXpXpXaX,XQ { 7.o.{ { U U >XdXdX[.{  . .8.p.8.<.8.2.X.} W a ~ ! ! } } } } [ W ~ R R R R R R I I a H H a m m G G p p p p p p i t p p i i i i i p p p p p p p a a H a H I R R ~ ! W ! ! ! } [ a 1 q q q q q q q q 1 1 1 < < < < < < < 2 2 2 2 = = = = = = = = = = = = = - = 2 2 2 = 2 2 2 2 2 < < 2 2 < < < w w w w w w w e e r r p p p p i i i p p p p G G G H H H H H H H G G p p p p i i i i i i i e e e e e e e e e e e e q q w < 2 = . . a R I I R R I m a a m I I I I I H H p p p p p p p p p p p p p a a a a a p p a a a s ",
"uXpXjXaX8X{ o.o.{ _ { { Q { sX>X8Xq. .} 7.8.8.X.X.....} ! a ~ ~ W [ } } } } W W R R R R R R H H I H I m m m p p p p p p p p i i p p i p i i i t i i i i i p p p H H H a H R R Q W W ! ! ` o.) s e e 1 e e 1 1 q < < < < 1 < < 1 < < < < 2 2 2 2 - - 2 2 2 2 2 2 - - - 2 2 2 2 2 < < < < < < < < < < < < w w w w w e e e r i p p p p p i i i i p p p p G G G G G G G H H G G G G p p i i p i i i i i i e r e e e e e e e e q q q < < = = . . I R R R R R m m a a I I I I I I a H H a G p p p p p p p p p p p a a a a p p G G H a ",
"uXiXaXaXqXo.o.{ { o.{ { { { <.2Xq.t Q .. .! O.} .. ...} ! a R R ~ ! { ! } ! W W R R R R R I H I H H a m m m m p p p r s p p p i p i i i i i t t i i i i i p p p G H a H H H R ~ ~ ~ ! O.! } } Q a t e t t 1 1 q q q 1 < 1 < < 1 < < < < < < < 2 - 2 2 2 2 2 2 2 2 2 2 - 2 2 < < < < < < < < < < q q q w w w q w e e r p p p p p p i r r i i p p p p p G G G G G G G p H m G G p p p i p p p i i i i i i r r r r e e e e e e q q w < = =   . R R R I R I H H H I I I I I I a a a H H H p p p p p p p p p p p p p a a a a H H H a ",
"iXuXpXaX9X<. .o.o.{ { { { _ w.w.8.  Q } !  .{ } ` O. .! W p R R R ! ! ! ! ! Q W R R I I I a H I H H a a p p p p p p p p p p i i i i p i i i t t i i i i i p p p G p p a a a I ~ R R E ! ! ! ! ! Q H p i i t t t e q q 1 1 1 < < e < < < w w < < < < 2 2 2 2 2 2 < < < < < < < < < < < < < < q q q q w w w q q e e i i i i p p p i i i i i p i p p p G H G G p G G G G H m m p p p p p p p p i i i i i i i i r r e e e e e e q q < < = = & . Q I I I I H H H I I I I I I I a a a a a a p p p p p p p p p p p p p p p a a H a a a ",
"uXpXaXaX[.7.o.<.o.o.o.{ { o.7.w.o.e ! _ _ { ! R W W } W ~ t I R R W ! ! ! ! Q W R I I a a p a H a a p p p p p p p p p p p p i i i i i i i i t t i i i i i i i p p p p a a a H R R ~ ~ R ! [ W ! } W H a s s i t t e 1 1 1 1 < 1 e e w w q q q q < < < < < < < < < < < < w w w w q q w q q q e e w w q q q e i i t t i i i i p p i i p p p p p p p p G H G G p p H G G p m m p p G G p p G G i i i i i i i i r r e e e e e q q < < - = = = . ~ H U I I H H H I I m m I I I a p a a a p p p p p p p p p p p p p p p p a a a a H H ",
"iXiXpXaXd.7.7.o.<.<.o.<.o.o.w.w.{ I ~ Q Q { ~ Q R ! } [ ~ i R H R ~ ! ! W Q W W ~ R a a p p p p p H H p p H H p p p p p p p i i i i i i i i i i i i i i i i i p p p p p a a a m I R R R ~ ~ W ! ! ! W R a p t t e q 1 1 1 1 < < e e e e e e e e q q w < < < < < w w w w w w w w q q q e e e e e e r r p p i i p i i i i i i p p i i i i i G G G G G G G G i p i p p p p G H G G G G G G p p p p p p p i i r r r r e e e e e w < 2 2 = & =   Q ~ R R I I I H H H I I I a H a a a p p p p p p p p p p p p p p a a a a a a a a a H ",
"iXiXiXpX,Xg.<.7.7.7.7.<.7.7.w.8.o.a U ~ Q Q Q ! R R [ ! ~ p a H R ~ W Q W W W W W ~ I a p p p H p G H p p G H p p p p p p p i i p p p p p i i i i i i i i i i i p p p p p a a a I I I R R ~ W W ! ! ! ~ H s p t e e q e e 1 1 w w e e w w e e e e e e e e e e e e e e e e e e e e i i i i i i i e r r i i i i t i i i i i i p p i i i i i G G G G G G G G p p p p p p p G G p p G G G p p p i i p p p i i e r e r e e e e q < < 2 2 = & &   ~ R R R I I I H H H I I I a p a a a a p p p p p p p p p p p p p a a a a a a a a a a ",
"yXiXpXpX8X8.w.w.w.7.7.w.8.<.o.7.7.~ U U R U Q Q ~ H ! ! Q a i R I R ~ ~ ~ Q Q Q ! Q I a p p G H G H H H G H H G a p p p p p p p p p p p p p i i i i i t t i i i p p p p p p p a a I I I I R R ~ ~ ! ! W ~ I s t e e q e e 7 1 < w w e w w e e e e e e e e e e e i r e e e e e e i i i i i i i i i i i i i i i t i i i i i i i p i i i i i G p G p p p p p p G G p p p p p p p i p p p p p p p p p p i i t e e e r e e q q q < < 2 2 = &   & R R R I I I I H H H H H H H G H H H a a p p p p p p p p p p p p a a p p a a p a a a ",
"pXyXuXaXnXPXMX8X7.{ 7.g.7.8.X.<.7.{ I U I U Q Q W H R W Q H i R I R R R R ~ ~ ~ Q R I a p p p p G H H H G H H G a p p p p p p p p p p p p p i i i i i i t i i i p p p p p p p p m m a a a p a a H ~ ! ! ! ~ H p t e e e e e 7 < w e e w e e e e q q q e e e e e i i i r i i i r i i i i i i i i i i i i i i i t i r r i i i i i i i i i i p p p i p p p p G G G p p p p p p p p p p p p G G G p p p i i i e e e e e e q q < < < 2 2 = = & = ~ R I I I I H H H H H G G G G H a a a a p H G p p p p p p p p p p a p p p p p p p p ",
"8XuXuXuXaXAXZXsXI p e < p {  .o.<.<.U I I U R Q Q ~ H U U p p H H I I I I R ~ R R U I a p p p p p a a a a I a p p p p p p p p i p p p p p i i i i t i i i i i i i i i p p p p p G p p p p i i i a a I R W Q Q I p e e e e e e e e e e e e e e e e e e e e t i i i i r i i i i i i i i i i i i i i i i i i i i t e e i i p i i i i i i i p p p p G p p p p p G G p p p p p p G p p p p i G G G G p i i i i e e e e e q q q < < < - 2 = =   : ~ ~ I H I H a a a a H G H p p p a a a a G G G p p p p p p i i i p a p p a p p p p p ",
"yX8X8XiXuX, t t e r e 1 o.X.} o.o.7._ I ~ a U R Q Q p I I p p H H H I I I I I I I I I I H p p p p a m a a I a p p p p p p p p i i i i i i i i i i i i i i i i i i i i p p p p p p p p p p i t t i i i p I Q ! Q a t e < e e e e w e e e e e e e e e e t i i i i i i i i i i i i i i i i i i i i i i p i i i t t e e i i p i i i i i i i p p p p G G G G p p G G p p p p p p p p i p i i p G G G p p i i i e e e e e q q q q < < - = = =   < R R I H H a a a a a G G H p p p a a a a p G p p p p p p i i i i p p p p a p p p p p ",
"8XyXrXuXpX9.w.q.e e 1 m 7.} ! { { o.o.Q R i a a ~ Q H H H H p H H I I H I I I I I I I I H p p p p a a a I I I p p p p p p p p i p p p i i i i i i i i i i r i i i i i p p p p p p p p p i i i t t t e t p I Q ! I a e < < e e e e e e e e e e e e e e i i i i i i i i i i i i i i i i i i i i i i i p i i i e e e e r i i i i i i i i i p G p p G G G G p p p p p p p p p p p p i i i i p p G G p p i i i i r e e e e q q w < < - = = =   1 R R I H H a a a a a G G H p p p a a H H p G p p p p p p i i i p i p p a a p p p p p ",
"yX5X8XrXpX8.p.p.e < 1 { { { { { { { o.} a i p a ~ ~ H H p I t H H H H H I I I H a I I a p p p p p a a a I I I I a a p p p p p i p p p p i i i i i i i i i e r r e i i i i p p p p p i i i i e e e e t t p H ~ Q Q I e e e e e e e e e e e e r e e r i i i i i i p p p p i i i i i i i i i i i i i p p i i i e e e e r i i i i i p p p p p G p p G G G G p p G G p p p p p p G G i i i i p p p p p p i i i i r r e e e q q w < 2 - = = : & 1 R R I H I H a a a a G G H p p a a a H H p p p p p p p p i i i p i p p a a p p p p p "
};
