/* XPM */
static char * quartz_xpm[] = {
"16 16 12 1",
" 	c #511515",
".	c #572121",
"+	c #501B1B",
"@	c #652828",
"#	c #723232",
"$	c #411616",
"%	c #AC716A",
"&	c #D4CABA",
"*	c #B6A48E",
"=	c #854242",
"-	c #EAE5DE",
";	c #6F5843",
" . +@+##@@$@@#@.",
".@@.+$+@## $@@+ ",
"#@#@.$#%&*+ @+@#",
"=#@##-&&%##. @+@",
"#=##-&%#=@##+#@.",
" ##%*;#=%&%;@@#@",
" @##;#;-&*; @#%#",
"#. $+%*%;##@+-*=",
"@+@#*-% @@##&-%#",
"+@#=-&#+@#@#-*;+",
".#@&*;$+#%##;#$+",
"@+#%;+ $%-# #+.+",
" @#@+#@*&* #@*@ ",
".#@##=#%*+.%*=# ",
"+@##=@+.%$@#@#@@",
"++@##+@#.$+@##@@"};
