/* XPM */
static char * fire_4_xpm[] = {
"16 16 14 1",
" 	c #511515",
".	c #572121",
"+	c #501B1B",
"@	c #652828",
"#	c #723232",
"$	c #411616",
"%	c #B13F00",
"&	c #C96C03",
"*	c #854242",
"=	c #DFA21B",
"-	c #E9BD39",
";	c #EFCD56",
">	c #F9EBAB",
",	c #FEFEFB",
" . +@+##@@$@@#@.",
".@@.+$+@#+%$@@+ ",
"#@#@.$ %@&&&@+@#",
"*#@#@+%&&&=& @+@",
"#*#@+&=-==&%+#@.",
" #@%&=;;;;%+@@#@",
" @#%-;;;>;=&@#*#",
"#. $&--;;;-&&@**",
"@+@#@&--;--=-&@#",
"+@#*#--;--;%&% +",
".#@#%&->;;;&%$$+",
"@++#&&;>;;;-&+.+",
" @#%&>;;>;=&%#@ ",
".#@%=;>;>>-=&*# ",
"+@%&-;>,,>;;-#@@",
"++&-->,,,,>;;%@@"};
